; GCode generated by CraftWare

G28 X0 Y0
G28 Z0


M104 S215 ;set head temp (no wait)
M190 S60 ;set bed temp (wait)
M109 S215 ;set head temp (wait)
; ------------------------------------
; Layer #0
; ------------------------------------
M106 S0 ;turn off fan
G21 ; mm
G90 ; abs
G92 E0 ;reset extr
G0 F1200 Z0.250
;segType:Skirt
G0 F3000 E-1.0000
G0 X82.274 Y138.141 F5400
G0 F3000 E0.0000
G1 X82.009 Y137.876 E0.0155 F2400
G1 X81.678 Y137.678 E0.0316
G1 X77.447 Y133.446 E0.2804
G1 X76.852 Y132.455 E0.3285
G1 X76.720 Y132.058 E0.3458
G1 X76.521 Y131.727 E0.3619
G1 X76.257 Y129.876 E0.4396
G1 X76.257 Y83.330 E2.3748
G1 X76.389 Y82.933 E2.3922
G1 X76.389 Y82.668 E2.4032
G1 X80.621 Y78.437 E2.6520
G1 X81.017 Y78.305 E2.6694
G1 X81.480 Y78.238 E2.6888
G1 X86.241 Y78.238 E2.8867
G1 X86.572 Y78.437 E2.9028
G1 X90.803 Y82.668 E3.1516
G1 X90.803 Y82.933 E3.1626
G1 X90.935 Y83.065 E3.1703
G1 X90.935 Y124.322 E4.8856
G1 X91.001 Y124.520 E4.8943
G1 X117.448 Y124.520 E5.9938
G1 X117.646 Y124.454 E6.0025
G1 X117.646 Y98.008 E7.1020
G1 X117.580 Y97.809 E7.1107
G1 X115.993 Y97.809 E7.1767
G1 X115.332 Y97.413 E7.2087
G1 X111.630 Y93.710 E7.4264
G1 X111.431 Y93.379 E7.4425
G1 X111.299 Y92.983 E7.4599
G1 X111.299 Y82.933 E7.8777
G1 X111.696 Y82.272 E7.9097
G1 X115.398 Y78.569 E8.1274
G1 X115.729 Y78.371 E8.1435
G1 X116.126 Y78.238 E8.1609
G1 X127.498 Y78.238 E8.6337
G1 X127.630 Y78.371 E8.6414
G1 X127.894 Y78.371 E8.6524
G1 X131.861 Y82.338 E8.8857
G1 X132.192 Y82.801 E8.9093
G1 X132.192 Y124.058 E10.6246
G1 X132.249 Y124.229 E10.6321
G0 F3000 E9.6321
G0 X156.250 Y128.750 F5400
G0 F3000 E10.6321
;segType:Support
G1 X148.750 Y128.750 E10.8971 F3600
G1 X148.750 Y131.250 E10.9855
G1 X156.250 Y131.250 E11.2505
G0 X161.250 Y138.750 F5400
G1 X153.750 Y138.750 E11.5156 F3600
G0 F3000 E10.5156
G0 X139.490 Y133.468 F5400
G0 X129.875 Y129.906
G0 X129.875 Y129.906
G0 X126.669 Y129.906
G0 X126.669 Y128.718
G0 X126.669 Y128.718
G0 X123.362 Y127.493
G0 X123.722 Y127.626
G0 F3000 E11.5156
;segType:HShell
G1 X126.309 Y130.213 E11.6677 F2400
G0 X126.927 Y130.266 F5400
G1 X129.769 Y133.107 E11.8348 F2400
G0 X129.203 Y133.107 F5400
G1 X126.361 Y130.266 E12.0019 F2400
G0 X127.129 Y129.506 F5400
;segType:Perimeter
G1 X145.774 Y129.506 E12.7770 F1439
G1 X145.774 Y133.868 E12.9584
G1 X86.764 Y133.868 E15.4117
G1 X85.954 Y133.804 E15.4455
G1 X85.170 Y133.616 E15.4790
G1 X84.426 Y133.307 E15.5125
G1 X83.739 Y132.886 E15.5460
G1 X83.127 Y132.363 E15.5795
G1 X82.604 Y131.751 E15.6130
G1 X82.183 Y131.064 E15.6465
G1 X81.875 Y130.320 E15.6799
G1 X81.687 Y129.537 E15.7134
G1 X81.623 Y128.726 E15.7472
G1 X81.623 Y84.515 E17.5853
G1 X81.678 Y84.170 E17.5999
G1 X81.829 Y83.872 E17.6137
G1 X82.065 Y83.636 E17.6276
G1 X82.363 Y83.485 E17.6415
G1 X82.708 Y83.430 E17.6560
G1 X84.645 Y83.430 E17.7366
G1 X84.991 Y83.485 E17.7511
G1 X85.288 Y83.636 E17.7650
G1 X85.524 Y83.872 E17.7789
G1 X85.676 Y84.170 E17.7928
G1 X85.730 Y84.513 E17.8072
G1 X85.730 Y127.662 E19.6011
G1 X85.756 Y127.984 E19.6145
G1 X85.833 Y128.305 E19.6283
G1 X85.959 Y128.610 E19.6420
G1 X86.132 Y128.892 E19.6558
G1 X86.347 Y129.144 E19.6695
G1 X86.598 Y129.358 E19.6832
G1 X86.880 Y129.531 E19.6970
G1 X87.185 Y129.657 E19.7107
G1 X87.507 Y129.734 E19.7245
G1 X87.828 Y129.760 E19.7379
G1 X120.864 Y129.760 E21.1113
G1 X121.185 Y129.734 E21.1247
G1 X121.507 Y129.657 E21.1385
G1 X121.812 Y129.531 E21.1522
G1 X122.094 Y129.358 E21.1660
G1 X122.345 Y129.144 E21.1797
G1 X122.560 Y128.892 E21.1934
G1 X122.733 Y128.611 E21.2072
G1 X122.859 Y128.305 E21.2209
G1 X122.936 Y127.984 E21.2347
G1 X122.962 Y127.662 E21.2481
G1 X122.962 Y94.626 E22.6215
G1 X122.936 Y94.305 E22.6349
G1 X122.859 Y93.984 E22.6487
G1 X122.733 Y93.678 E22.6624
G1 X122.560 Y93.396 E22.6762
G1 X122.345 Y93.145 E22.6899
G1 X122.094 Y92.931 E22.7036
G1 X121.812 Y92.758 E22.7174
G1 X121.507 Y92.631 E22.7311
G1 X121.185 Y92.554 E22.7449
G1 X120.864 Y92.529 E22.7583
G1 X117.697 Y92.529 E22.8900
G1 X117.351 Y92.474 E22.9045
G1 X117.054 Y92.323 E22.9184
G1 X116.818 Y92.087 E22.9323
G1 X116.666 Y91.789 E22.9461
G1 X116.611 Y91.444 E22.9607
G1 X116.611 Y84.515 E23.2487
G1 X116.666 Y84.170 E23.2633
G1 X116.818 Y83.872 E23.2771
G1 X117.054 Y83.636 E23.2910
G1 X117.351 Y83.485 E23.3049
G1 X117.697 Y83.430 E23.3194
G1 X125.984 Y83.430 E23.6640
G1 X126.329 Y83.485 E23.6785
G1 X126.627 Y83.636 E23.6924
G1 X126.863 Y83.872 E23.7063
G1 X127.014 Y84.170 E23.7202
G1 X127.069 Y84.515 E23.7347
G1 X127.069 Y129.446 E25.6027
G0 X126.669 Y129.278 F5400
G0 X126.669 Y129.906
G0 X128.169 Y129.906
G0 X128.169 Y129.906
;segType:Loop
G1 X145.374 Y129.906 E26.3180 F2400
G1 X145.374 Y133.468 E26.4661
G1 X86.780 Y133.468 E28.9021
G1 X86.016 Y133.407 E28.9340
G1 X85.294 Y133.234 E28.9649
G1 X84.608 Y132.950 E28.9957
G1 X83.975 Y132.562 E29.0266
G1 X83.411 Y132.080 E29.0575
G1 X82.928 Y131.515 E29.0883
G1 X82.541 Y130.882 E29.1192
G1 X82.256 Y130.196 E29.1501
G1 X82.083 Y129.474 E29.1809
G1 X82.023 Y128.710 E29.2128
G1 X82.023 Y84.547 E31.0489
G1 X82.063 Y84.295 E31.0595
G1 X82.157 Y84.110 E31.0681
G1 X82.303 Y83.964 E31.0767
G1 X82.488 Y83.870 E31.0853
G1 X82.740 Y83.830 E31.0959
G1 X84.614 Y83.830 E31.1738
G1 X84.866 Y83.870 E31.1844
G1 X85.050 Y83.964 E31.1931
G1 X85.197 Y84.111 E31.2017
G1 X85.291 Y84.295 E31.2103
G1 X85.330 Y84.544 E31.2208
G1 X85.330 Y127.678 E33.0141
G1 X85.360 Y128.047 E33.0295
G1 X85.452 Y128.429 E33.0458
G1 X85.602 Y128.793 E33.0621
G1 X85.808 Y129.128 E33.0785
G1 X86.063 Y129.427 E33.0949
G1 X86.362 Y129.683 E33.1112
G1 X86.698 Y129.888 E33.1276
G1 X87.061 Y130.039 E33.1439
G1 X87.444 Y130.131 E33.1603
G1 X87.813 Y130.160 E33.1757
G1 X120.880 Y130.160 E34.5504
G1 X121.248 Y130.131 E34.5658
G1 X121.631 Y130.039 E34.5822
G1 X121.994 Y129.888 E34.5985
G1 X122.330 Y129.683 E34.6149
G1 X122.629 Y129.427 E34.6312
G1 X122.884 Y129.128 E34.6476
G1 X123.090 Y128.793 E34.6639
G1 X123.241 Y128.429 E34.6803
G1 X123.332 Y128.047 E34.6967
G1 X123.362 Y127.678 E34.7120
G1 X123.362 Y94.611 E36.0868
G1 X123.332 Y94.242 E36.1022
G1 X123.241 Y93.860 E36.1185
G1 X123.090 Y93.496 E36.1349
G1 X122.884 Y93.160 E36.1513
G1 X122.629 Y92.861 E36.1676
G1 X122.330 Y92.606 E36.1840
G1 X121.994 Y92.400 E36.2003
G1 X121.631 Y92.250 E36.2167
G1 X121.248 Y92.158 E36.2331
G1 X120.880 Y92.129 E36.2484
G1 X117.728 Y92.129 E36.3794
G1 X117.476 Y92.089 E36.3900
G1 X117.292 Y91.995 E36.3987
G1 X117.145 Y91.849 E36.4073
G1 X117.051 Y91.664 E36.4159
G1 X117.011 Y91.412 E36.4265
G1 X117.011 Y84.547 E36.7119
G1 X117.051 Y84.295 E36.7225
G1 X117.145 Y84.110 E36.7311
G1 X117.292 Y83.964 E36.7397
G1 X117.476 Y83.870 E36.7483
G1 X117.728 Y83.830 E36.7589
G1 X125.952 Y83.830 E37.1009
G1 X126.204 Y83.870 E37.1115
G1 X126.389 Y83.964 E37.1201
G1 X126.535 Y84.111 E37.1287
G1 X126.629 Y84.295 E37.1373
G1 X126.669 Y84.547 E37.1479
G1 X126.669 Y129.906 E39.0337
G1 X127.969 Y129.906 E39.0877
G0 X127.493 Y130.266 F5400
;segType:HShell
G1 X130.334 Y133.107 E39.2548 F2400
G0 X130.900 Y133.107 F5400
G1 X128.058 Y130.266 E39.4219 F2400
G0 X128.624 Y130.266 F5400
G1 X131.466 Y133.107 E39.5890 F2400
G0 X132.032 Y133.107 F5400
G1 X129.190 Y130.266 E39.7560 F2400
G0 X129.756 Y130.266 F5400
G1 X132.597 Y133.107 E39.9231 F2400
G0 X133.163 Y133.107 F5400
G1 X130.321 Y130.266 E40.0902 F2400
G0 X130.887 Y130.266 F5400
G1 X133.729 Y133.107 E40.2573 F2400
G0 X134.294 Y133.107 F5400
G1 X131.453 Y130.266 E40.4244 F2400
G0 X132.018 Y130.266 F5400
G1 X134.860 Y133.107 E40.5914 F2400
G0 X135.426 Y133.107 F5400
G1 X132.584 Y130.266 E40.7585 F2400
G0 X133.150 Y130.266 F5400
G1 X135.991 Y133.107 E40.9256 F2400
G0 X136.557 Y133.107 F5400
G1 X133.715 Y130.266 E41.0927 F2400
G0 X134.281 Y130.266 F5400
G1 X137.123 Y133.107 E41.2598 F2400
G0 X137.688 Y133.107 F5400
G1 X134.847 Y130.266 E41.4268 F2400
G0 X135.412 Y130.266 F5400
G1 X138.254 Y133.107 E41.5939 F2400
G0 X138.820 Y133.107 F5400
G1 X135.978 Y130.266 E41.7610 F2400
G0 X136.544 Y130.266 F5400
G1 X139.385 Y133.107 E41.9281 F2400
G0 X139.951 Y133.107 F5400
G1 X137.109 Y130.266 E42.0952 F2400
G0 X137.675 Y130.266 F5400
G1 X140.517 Y133.107 E42.2622 F2400
G0 X141.083 Y133.107 F5400
G1 X138.241 Y130.266 E42.4293 F2400
G0 X138.807 Y130.266 F5400
G1 X141.648 Y133.107 E42.5964 F2400
G0 X142.214 Y133.107 F5400
G1 X139.372 Y130.266 E42.7635 F2400
G0 X139.938 Y130.266 F5400
G1 X142.780 Y133.107 E42.9306 F2400
G0 X143.345 Y133.107 F5400
G1 X140.504 Y130.266 E43.0976 F2400
G0 X141.069 Y130.266 F5400
G1 X143.911 Y133.107 E43.2647 F2400
G0 X144.477 Y133.107 F5400
G1 X141.635 Y130.266 E43.4318 F2400
G0 X142.201 Y130.266 F5400
G1 X145.014 Y133.079 E43.5972 F2400
G0 X145.014 Y132.513 F5400
G1 X142.766 Y130.266 E43.7294 F2400
G0 X143.332 Y130.266 F5400
G1 X145.014 Y131.948 E43.8283 F2400
G0 X145.014 Y131.382 F5400
G1 X143.898 Y130.266 E43.8939 F2400
G0 X144.463 Y130.266 F5400
G1 X145.014 Y130.816 E43.9263 F2400
G0 F3000 E42.9263
G0 X144.643 Y129.906 F5400
G0 X126.669 Y129.906
G0 X126.669 Y85.841
G0 X126.309 Y84.958
G0 F3000 E43.9263
G1 X125.541 Y84.190 E43.9715 F2400
G0 X124.975 Y84.190 F5400
G1 X126.309 Y85.524 E44.0499 F2400
G0 X126.309 Y86.090 F5400
G1 X124.409 Y84.190 E44.1616 F2400
G0 X123.844 Y84.190 F5400
G1 X126.309 Y86.655 E44.3065 F2400
G0 X126.309 Y87.221 F5400
G1 X123.278 Y84.190 E44.4847 F2400
G0 X122.712 Y84.190 F5400
G1 X126.309 Y87.787 E44.6962 F2400
G0 X126.309 Y88.352 F5400
G1 X122.147 Y84.190 E44.9409 F2400
G0 X121.581 Y84.190 F5400
G1 X126.309 Y88.918 E45.2189 F2400
G0 X126.309 Y89.484 F5400
G1 X121.015 Y84.190 E45.5301 F2400
G0 X120.450 Y84.190 F5400
G1 X126.309 Y90.050 E45.8746 F2400
G0 X126.309 Y90.615 F5400
G1 X119.884 Y84.190 E46.2524 F2400
G0 X119.318 Y84.190 F5400
G1 X126.309 Y91.181 E46.6634 F2400
G0 X126.309 Y91.747 F5400
G1 X118.753 Y84.190 E47.1077 F2400
G0 X118.187 Y84.190 F5400
G1 X126.309 Y92.312 E47.5853 F2400
G0 X126.309 Y92.878 F5400
G1 X117.647 Y84.217 E48.0945 F2400
G0 X117.386 Y84.521 F5400
G1 X126.309 Y93.444 E48.6192 F2400
G0 X126.309 Y94.009 F5400
G1 X117.372 Y85.072 E49.1446 F2400
G0 X117.372 Y85.638 F5400
G1 X126.309 Y94.575 E49.6701 F2400
G0 X126.309 Y95.141 F5400
G1 X117.372 Y86.203 E50.1956 F2400
G0 X117.372 Y86.769 F5400
G1 X126.309 Y95.706 E50.7211 F2400
G0 X126.309 Y96.272 F5400
G1 X123.442 Y93.406 E50.8896 F2400
G0 X123.692 Y94.221 F5400
G1 X126.309 Y96.838 E51.0435 F2400
G0 X126.309 Y97.403 F5400
G1 X123.722 Y94.816 E51.1956 F2400
G0 X123.722 Y95.382 F5400
G1 X126.309 Y97.969 E51.3477 F2400
G0 X126.309 Y98.535 F5400
G1 X123.722 Y95.948 E51.4999 F2400
G0 X123.722 Y96.513 F5400
G1 X126.309 Y99.100 E51.6520 F2400
G0 X126.309 Y99.666 F5400
G1 X123.722 Y97.079 E51.8041 F2400
G0 X123.722 Y97.645 F5400
G1 X126.309 Y100.232 E51.9562 F2400
G0 X126.309 Y100.798 F5400
G1 X123.722 Y98.210 E52.1084 F2400
G0 X123.722 Y98.776 F5400
G1 X126.309 Y101.363 E52.2605 F2400
G0 X126.309 Y101.929 F5400
G1 X123.722 Y99.342 E52.4126 F2400
G0 X123.722 Y99.907 F5400
G1 X126.309 Y102.495 E52.5647 F2400
G0 X126.309 Y103.060 F5400
G1 X123.722 Y100.473 E52.7168 F2400
G0 X123.722 Y101.039 F5400
G1 X126.309 Y103.626 E52.8690 F2400
G0 X126.309 Y104.192 F5400
G1 X123.722 Y101.604 E53.0211 F2400
G0 X123.722 Y102.170 F5400
G1 X126.309 Y104.757 E53.1732 F2400
G0 X126.309 Y105.323 F5400
G1 X123.722 Y102.736 E53.3253 F2400
G0 X123.722 Y103.301 F5400
G1 X126.309 Y105.889 E53.4775 F2400
G0 X126.309 Y106.454 F5400
G1 X123.722 Y103.867 E53.6296 F2400
G0 X123.722 Y104.433 F5400
G1 X126.309 Y107.020 E53.7817 F2400
G0 X126.309 Y107.586 F5400
G1 X123.722 Y104.999 E53.9338 F2400
G0 X123.722 Y105.564 F5400
G1 X126.309 Y108.151 E54.0859 F2400
G0 X126.309 Y108.717 F5400
G1 X123.722 Y106.130 E54.2381 F2400
G0 X123.722 Y106.696 F5400
G1 X126.309 Y109.283 E54.3902 F2400
G0 X126.309 Y109.849 F5400
G1 X123.722 Y107.261 E54.5423 F2400
G0 X123.722 Y107.827 F5400
G1 X126.309 Y110.414 E54.6944 F2400
G0 X126.309 Y110.980 F5400
G1 X123.722 Y108.393 E54.8466 F2400
G0 X123.722 Y108.958 F5400
G1 X126.309 Y111.546 E54.9987 F2400
G0 X126.309 Y112.111 F5400
G1 X123.722 Y109.524 E55.1508 F2400
G0 X123.722 Y110.090 F5400
G1 X126.309 Y112.677 E55.3029 F2400
G0 X126.309 Y113.243 F5400
G1 X123.722 Y110.655 E55.4550 F2400
G0 X123.722 Y111.221 F5400
G1 X126.309 Y113.808 E55.6072 F2400
G0 X126.309 Y114.374 F5400
G1 X123.722 Y111.787 E55.7593 F2400
G0 X123.722 Y112.352 F5400
G1 X126.309 Y114.940 E55.9114 F2400
G0 X126.309 Y115.505 F5400
G1 X123.722 Y112.918 E56.0635 F2400
G0 X123.722 Y113.484 F5400
G1 X126.309 Y116.071 E56.2157 F2400
G0 X126.309 Y116.637 F5400
G1 X123.722 Y114.049 E56.3678 F2400
G0 X123.722 Y114.615 F5400
G1 X126.309 Y117.202 E56.5199 F2400
G0 X126.309 Y117.768 F5400
G1 X123.722 Y115.181 E56.6720 F2400
G0 X123.722 Y115.747 F5400
G1 X126.309 Y118.334 E56.8241 F2400
G0 X126.309 Y118.899 F5400
G1 X123.722 Y116.312 E56.9763 F2400
G0 X123.722 Y116.878 F5400
G1 X126.309 Y119.465 E57.1284 F2400
G0 X126.309 Y120.031 F5400
G1 X123.722 Y117.444 E57.2805 F2400
G0 X123.722 Y118.009 F5400
G1 X126.309 Y120.597 E57.4326 F2400
G0 X126.309 Y121.162 F5400
G1 X123.722 Y118.575 E57.5848 F2400
G0 X123.722 Y119.141 F5400
G1 X126.309 Y121.728 E57.7369 F2400
G0 X126.309 Y122.294 F5400
G1 X123.722 Y119.706 E57.8890 F2400
G0 X123.722 Y120.272 F5400
G1 X126.309 Y122.859 E58.0411 F2400
G0 X126.309 Y123.425 F5400
G1 X123.722 Y120.838 E58.1933 F2400
G0 X123.722 Y121.403 F5400
G1 X126.309 Y123.991 E58.3454 F2400
G0 X126.309 Y124.556 F5400
G1 X123.722 Y121.969 E58.4975 F2400
G0 X123.722 Y122.535 F5400
G1 X126.309 Y125.122 E58.6496 F2400
G0 X126.309 Y125.688 F5400
G1 X123.722 Y123.100 E58.8017 F2400
G0 X123.722 Y123.666 F5400
G1 X126.309 Y126.253 E58.9539 F2400
G0 X126.309 Y126.819 F5400
G1 X123.722 Y124.232 E59.1060 F2400
G0 X123.722 Y124.797 F5400
G1 X126.309 Y127.385 E59.2581 F2400
G0 X126.309 Y127.950 F5400
G1 X123.722 Y125.363 E59.4102 F2400
G0 X123.722 Y125.929 F5400
G1 X126.309 Y128.516 E59.5624 F2400
G0 X126.309 Y129.082 F5400
G1 X123.722 Y126.495 E59.7145 F2400
G0 X123.722 Y127.060 F5400
G1 X126.309 Y129.647 E59.8666 F2400
G0 X123.678 Y128.148 F5400
G1 X128.637 Y133.107 E60.1582 F2400
G0 X128.072 Y133.107 F5400
G1 X123.561 Y128.597 E60.4234 F2400
G0 X123.390 Y128.992 F5400
G1 X127.506 Y133.107 E60.6654 F2400
G0 X126.940 Y133.107 F5400
G1 X123.175 Y129.342 E60.8868 F2400
G0 X122.915 Y129.647 F5400
G1 X126.375 Y133.107 E61.0902 F2400
G0 X125.809 Y133.107 F5400
G1 X122.615 Y129.913 E61.2780 F2400
G0 X122.275 Y130.139 F5400
G1 X125.243 Y133.107 E61.4526 F2400
G0 X124.678 Y133.107 F5400
G1 X121.891 Y130.321 E61.6164 F2400
G0 X121.456 Y130.451 F5400
G1 X124.112 Y133.107 E61.7726 F2400
G0 X123.546 Y133.107 F5400
G1 X120.954 Y130.515 E61.9250 F2400
G0 X120.393 Y130.520 F5400
G1 X122.981 Y133.107 E62.0771 F2400
G0 X122.415 Y133.107 F5400
G1 X119.827 Y130.520 E62.2293 F2400
G0 X119.262 Y130.520 F5400
G1 X121.849 Y133.107 E62.3814 F2400
G0 X121.284 Y133.107 F5400
G1 X118.696 Y130.520 E62.5335 F2400
G0 X118.130 Y130.520 F5400
G1 X120.718 Y133.107 E62.6857 F2400
G0 X120.152 Y133.107 F5400
G1 X117.565 Y130.520 E62.8378 F2400
G0 X116.999 Y130.520 F5400
G1 X119.586 Y133.107 E62.9900 F2400
G0 X119.021 Y133.107 F5400
G1 X116.433 Y130.520 E63.1421 F2400
G0 X115.868 Y130.520 F5400
G1 X118.455 Y133.107 E63.2942 F2400
G0 X117.889 Y133.107 F5400
G1 X115.302 Y130.520 E63.4464 F2400
G0 X114.736 Y130.520 F5400
G1 X117.324 Y133.107 E63.5985 F2400
G0 X116.758 Y133.107 F5400
G1 X114.170 Y130.520 E63.7506 F2400
G0 X113.605 Y130.520 F5400
G1 X116.192 Y133.107 E63.9028 F2400
G0 X115.627 Y133.107 F5400
G1 X113.039 Y130.520 E64.0549 F2400
G0 X112.473 Y130.520 F5400
G1 X115.061 Y133.107 E64.2070 F2400
G0 X114.495 Y133.107 F5400
G1 X111.908 Y130.520 E64.3592 F2400
G0 X111.342 Y130.520 F5400
G1 X113.930 Y133.107 E64.5113 F2400
G0 X113.364 Y133.107 F5400
G1 X110.776 Y130.520 E64.6635 F2400
G0 X110.211 Y130.520 F5400
G1 X112.798 Y133.107 E64.8156 F2400
G0 X112.233 Y133.107 F5400
G1 X109.645 Y130.520 E64.9677 F2400
G0 X109.079 Y130.520 F5400
G1 X111.667 Y133.107 E65.1199 F2400
G0 X111.101 Y133.107 F5400
G1 X108.514 Y130.520 E65.2720 F2400
G0 X107.948 Y130.520 F5400
G1 X110.535 Y133.107 E65.4242 F2400
G0 X109.970 Y133.107 F5400
G1 X107.382 Y130.520 E65.5763 F2400
G0 X106.817 Y130.520 F5400
G1 X109.404 Y133.107 E65.7284 F2400
G0 X108.838 Y133.107 F5400
G1 X106.251 Y130.520 E65.8806 F2400
G0 X105.685 Y130.520 F5400
G1 X108.273 Y133.107 E66.0327 F2400
G0 X107.707 Y133.107 F5400
G1 X105.120 Y130.520 E66.1848 F2400
G0 X104.554 Y130.520 F5400
G1 X107.141 Y133.107 E66.3370 F2400
G0 X106.576 Y133.107 F5400
G1 X103.988 Y130.520 E66.4891 F2400
G0 X103.422 Y130.520 F5400
G1 X106.010 Y133.107 E66.6413 F2400
G0 X105.444 Y133.107 F5400
G1 X102.857 Y130.520 E66.7934 F2400
G0 X102.291 Y130.520 F5400
G1 X104.879 Y133.107 E66.9455 F2400
G0 X104.313 Y133.107 F5400
G1 X101.725 Y130.520 E67.0977 F2400
G0 X101.160 Y130.520 F5400
G1 X103.747 Y133.107 E67.2498 F2400
G0 X103.182 Y133.107 F5400
G1 X100.594 Y130.520 E67.4019 F2400
G0 X100.028 Y130.520 F5400
G1 X102.616 Y133.107 E67.5541 F2400
G0 X102.050 Y133.107 F5400
G1 X99.463 Y130.520 E67.7062 F2400
G0 X98.897 Y130.520 F5400
G1 X101.485 Y133.107 E67.8584 F2400
G0 X100.919 Y133.107 F5400
G1 X98.331 Y130.520 E68.0105 F2400
G0 X97.766 Y130.520 F5400
G1 X100.353 Y133.107 E68.1626 F2400
G0 X99.787 Y133.107 F5400
G1 X97.200 Y130.520 E68.3148 F2400
G0 X96.634 Y130.520 F5400
G1 X99.222 Y133.107 E68.4669 F2400
G0 X98.656 Y133.107 F5400
G1 X96.069 Y130.520 E68.6190 F2400
G0 X95.503 Y130.520 F5400
G1 X98.090 Y133.107 E68.7712 F2400
G0 X97.525 Y133.107 F5400
G1 X94.937 Y130.520 E68.9233 F2400
G0 X94.371 Y130.520 F5400
G1 X96.959 Y133.107 E69.0755 F2400
G0 X96.393 Y133.107 F5400
G1 X93.806 Y130.520 E69.2276 F2400
G0 X93.240 Y130.520 F5400
G1 X95.828 Y133.107 E69.3797 F2400
G0 X95.262 Y133.107 F5400
G1 X92.674 Y130.520 E69.5319 F2400
G0 X92.109 Y130.520 F5400
G1 X94.696 Y133.107 E69.6840 F2400
G0 X94.131 Y133.107 F5400
G1 X91.543 Y130.520 E69.8361 F2400
G0 X90.977 Y130.520 F5400
G1 X93.565 Y133.107 E69.9883 F2400
G0 X92.999 Y133.107 F5400
G1 X90.412 Y130.520 E70.1404 F2400
G0 X89.846 Y130.520 F5400
G1 X92.434 Y133.107 E70.2926 F2400
G0 X91.868 Y133.107 F5400
G1 X89.280 Y130.520 E70.4447 F2400
G0 X88.715 Y130.520 F5400
G1 X91.302 Y133.107 E70.5968 F2400
G0 X90.736 Y133.107 F5400
G1 X88.149 Y130.520 E70.7490 F2400
G0 X87.565 Y130.501 F5400
G1 X90.171 Y133.107 E70.9022 F2400
G0 X89.605 Y133.107 F5400
G1 X86.831 Y130.333 E71.0653 F2400
G0 X83.135 Y131.162 F5400
G1 X84.328 Y132.356 E71.1354 F2400
G0 X85.435 Y132.897 F5400
G1 X82.593 Y130.055 E71.3026 F2400
G0 X82.433 Y129.329 F5400
G1 X86.161 Y133.057 E71.5218 F2400
G0 X86.775 Y133.106 F5400
G1 X82.385 Y128.715 E71.7799 F2400
G0 X82.383 Y128.148 F5400
G1 X87.342 Y133.107 E72.0715 F2400
G0 X87.908 Y133.107 F5400
G1 X82.383 Y127.582 E72.3964 F2400
G0 X82.383 Y127.017 F5400
G1 X88.474 Y133.107 E72.7545 F2400
G0 X89.039 Y133.107 F5400
G1 X82.383 Y126.451 E73.1459 F2400
G0 X82.383 Y125.885 F5400
G1 X85.157 Y128.659 E73.3090 F2400
G0 X84.989 Y127.925 F5400
G1 X82.383 Y125.320 E73.4622 F2400
G0 X82.383 Y124.754 F5400
G1 X84.970 Y127.341 E73.6143 F2400
G0 X84.970 Y126.776 F5400
G1 X82.383 Y124.188 E73.7664 F2400
G0 X82.383 Y123.623 F5400
G1 X84.970 Y126.210 E73.9185 F2400
G0 X84.970 Y125.644 F5400
G1 X82.383 Y123.057 E74.0707 F2400
G0 X82.383 Y122.491 F5400
G1 X84.970 Y125.078 E74.2228 F2400
G0 X84.970 Y124.513 F5400
G1 X82.383 Y121.926 E74.3749 F2400
G0 X82.383 Y121.360 F5400
G1 X84.970 Y123.947 E74.5270 F2400
G0 X84.970 Y123.381 F5400
G1 X82.383 Y120.794 E74.6792 F2400
G0 X82.383 Y120.228 F5400
G1 X84.970 Y122.816 E74.8313 F2400
G0 X84.970 Y122.250 F5400
G1 X82.383 Y119.663 E74.9834 F2400
G0 X82.383 Y119.097 F5400
G1 X84.970 Y121.684 E75.1355 F2400
G0 X84.970 Y121.119 F5400
G1 X82.383 Y118.531 E75.2876 F2400
G0 X82.383 Y117.966 F5400
G1 X84.970 Y120.553 E75.4398 F2400
G0 X84.970 Y119.987 F5400
G1 X82.383 Y117.400 E75.5919 F2400
G0 X82.383 Y116.834 F5400
G1 X84.970 Y119.422 E75.7440 F2400
G0 X84.970 Y118.856 F5400
G1 X82.383 Y116.269 E75.8961 F2400
G0 X82.383 Y115.703 F5400
G1 X84.970 Y118.290 E76.0483 F2400
G0 X84.970 Y117.725 F5400
G1 X82.383 Y115.137 E76.2004 F2400
G0 X82.383 Y114.572 F5400
G1 X84.970 Y117.159 E76.3525 F2400
G0 X84.970 Y116.593 F5400
G1 X82.383 Y114.006 E76.5046 F2400
G0 X82.383 Y113.440 F5400
G1 X84.970 Y116.028 E76.6567 F2400
G0 X84.970 Y115.462 F5400
G1 X82.383 Y112.875 E76.8089 F2400
G0 X82.383 Y112.309 F5400
G1 X84.970 Y114.896 E76.9610 F2400
G0 X84.970 Y114.330 F5400
G1 X82.383 Y111.743 E77.1131 F2400
G0 X82.383 Y111.177 F5400
G1 X84.970 Y113.765 E77.2652 F2400
G0 X84.970 Y113.199 F5400
G1 X82.383 Y110.612 E77.4174 F2400
G0 X82.383 Y110.046 F5400
G1 X84.970 Y112.633 E77.5695 F2400
G0 X84.970 Y112.068 F5400
G1 X82.383 Y109.480 E77.7216 F2400
G0 X82.383 Y108.915 F5400
G1 X84.970 Y111.502 E77.8737 F2400
G0 X84.970 Y110.936 F5400
G1 X82.383 Y108.349 E78.0259 F2400
G0 X82.383 Y107.783 F5400
G1 X84.970 Y110.371 E78.1780 F2400
G0 X84.970 Y109.805 F5400
G1 X82.383 Y107.218 E78.3301 F2400
G0 X82.383 Y106.652 F5400
G1 X84.970 Y109.239 E78.4822 F2400
G0 X84.970 Y108.674 F5400
G1 X82.383 Y106.086 E78.6343 F2400
G0 X82.383 Y105.521 F5400
G1 X84.970 Y108.108 E78.7865 F2400
G0 X84.970 Y107.542 F5400
G1 X82.383 Y104.955 E78.9386 F2400
G0 X82.383 Y104.389 F5400
G1 X84.970 Y106.977 E79.0907 F2400
G0 X84.970 Y106.411 F5400
G1 X82.383 Y103.824 E79.2428 F2400
G0 X82.383 Y103.258 F5400
G1 X84.970 Y105.845 E79.3950 F2400
G0 X84.970 Y105.279 F5400
G1 X82.383 Y102.692 E79.5471 F2400
G0 X82.383 Y102.127 F5400
G1 X84.970 Y104.714 E79.6992 F2400
G0 X84.970 Y104.148 F5400
G1 X82.383 Y101.561 E79.8513 F2400
G0 X82.383 Y100.995 F5400
G1 X84.970 Y103.582 E80.0034 F2400
G0 X84.970 Y103.017 F5400
G1 X82.383 Y100.429 E80.1556 F2400
G0 X82.383 Y99.864 F5400
G1 X84.970 Y102.451 E80.3077 F2400
G0 X84.970 Y101.885 F5400
G1 X82.383 Y99.298 E80.4598 F2400
G0 X82.383 Y98.732 F5400
G1 X84.970 Y101.320 E80.6119 F2400
G0 X84.970 Y100.754 F5400
G1 X82.383 Y98.167 E80.7641 F2400
G0 X82.383 Y97.601 F5400
G1 X84.970 Y100.188 E80.9162 F2400
G0 X84.970 Y99.623 F5400
G1 X82.383 Y97.035 E81.0683 F2400
G0 X82.383 Y96.470 F5400
G1 X84.970 Y99.057 E81.2204 F2400
G0 X84.970 Y98.491 F5400
G1 X82.383 Y95.904 E81.3725 F2400
G0 X82.383 Y95.338 F5400
G1 X84.970 Y97.926 E81.5247 F2400
G0 X84.970 Y97.360 F5400
G1 X82.383 Y94.773 E81.6768 F2400
G0 X82.383 Y94.207 F5400
G1 X84.970 Y96.794 E81.8289 F2400
G0 X84.970 Y96.229 F5400
G1 X82.383 Y93.641 E81.9810 F2400
G0 X82.383 Y93.076 F5400
G1 X84.970 Y95.663 E82.1332 F2400
G0 X84.970 Y95.097 F5400
G1 X82.383 Y92.510 E82.2853 F2400
G0 X82.383 Y91.944 F5400
G1 X84.970 Y94.531 E82.4374 F2400
G0 X84.970 Y93.966 F5400
G1 X82.383 Y91.378 E82.5895 F2400
G0 X82.383 Y90.813 F5400
G1 X84.970 Y93.400 E82.7416 F2400
G0 X84.970 Y92.834 F5400
G1 X82.383 Y90.247 E82.8938 F2400
G0 X82.383 Y89.681 F5400
G1 X84.970 Y92.269 E83.0459 F2400
G0 X84.970 Y91.703 F5400
G1 X82.383 Y89.116 E83.1980 F2400
G0 X82.383 Y88.550 F5400
G1 X84.970 Y91.137 E83.3501 F2400
G0 X84.970 Y90.572 F5400
G1 X82.383 Y87.984 E83.5023 F2400
G0 X82.383 Y87.419 F5400
G1 X84.970 Y90.006 E83.6544 F2400
G0 X84.970 Y89.440 F5400
G1 X82.383 Y86.853 E83.8065 F2400
G0 X82.383 Y86.287 F5400
G1 X84.970 Y88.875 E83.9586 F2400
G0 X84.970 Y88.309 F5400
G1 X82.383 Y85.722 E84.1108 F2400
G0 X82.383 Y85.156 F5400
G1 X84.970 Y87.743 E84.2629 F2400
G0 X84.970 Y87.178 F5400
G1 X82.383 Y84.590 E84.4150 F2400
G0 X82.584 Y84.225 F5400
G1 X84.970 Y86.612 E84.5553 F2400
G0 X84.970 Y86.046 F5400
G1 X83.114 Y84.190 E84.6644 F2400
G0 X83.680 Y84.190 F5400
G1 X84.970 Y85.481 E84.7403 F2400
G0 X84.970 Y84.915 F5400
G1 X84.246 Y84.190 E84.7829 F2400
G0 F3000 E83.7829
G0 X85.288 Y84.289 F5400
G0 X85.291 Y84.295
G0 X85.330 Y84.544
G0 X85.330 Y127.678
G0 X85.360 Y128.047
G0 X85.452 Y128.429
G0 X85.602 Y128.793
G0 X85.808 Y129.128
G0 X86.063 Y129.427
G0 X86.362 Y129.683
G0 X86.698 Y129.888
G0 X87.061 Y130.039
G0 X87.444 Y130.131
G0 X87.813 Y130.160
G0 X120.880 Y130.160
G0 X121.248 Y130.131
G0 X121.631 Y130.039
G0 X121.994 Y129.888
G0 X122.330 Y129.683
G0 X122.629 Y129.427
G0 X122.884 Y129.128
G0 X123.090 Y128.793
G0 X123.241 Y128.429
G0 X123.332 Y128.047
G0 X123.362 Y127.678
G0 X123.362 Y94.611
G0 X123.332 Y94.242
G0 X123.241 Y93.860
G0 X123.090 Y93.496
G0 X122.884 Y93.160
G0 X122.629 Y92.861
G0 X122.330 Y92.606
G0 X121.994 Y92.400
G0 X121.631 Y92.250
G0 X121.248 Y92.158
G0 X120.880 Y92.129
G0 X117.728 Y92.129
G0 X117.476 Y92.089
G0 X117.292 Y91.995
G0 X117.145 Y91.849
G0 X117.051 Y91.664
G0 X117.011 Y91.412
G0 X117.011 Y87.301
G0 X117.372 Y87.335
G0 F3000 E84.7829
G1 X122.085 Y92.048 E85.0600 F2400
G0 X121.270 Y91.798 F5400
G1 X117.372 Y87.900 E85.2892 F2400
G0 X117.372 Y88.466 F5400
G1 X120.674 Y91.769 E85.4834 F2400
G0 X120.109 Y91.769 F5400
G1 X117.372 Y89.032 E85.6443 F2400
G0 X117.372 Y89.597 F5400
G1 X119.543 Y91.769 E85.7720 F2400
G0 X118.977 Y91.769 F5400
G1 X117.372 Y90.163 E85.8664 F2400
G0 X117.372 Y90.729 F5400
G1 X118.412 Y91.769 E85.9275 F2400
G0 X117.846 Y91.769 F5400
G1 X117.372 Y91.295 E85.9554 F2400
G0 F3000 E84.9554
G0 X117.680 Y92.121 F5400
G0 X117.728 Y92.129
G0 X120.880 Y92.129
G0 X121.248 Y92.158
G0 X121.631 Y92.250
G0 X121.994 Y92.400
G0 X122.330 Y92.606
G0 X122.629 Y92.861
G0 X122.884 Y93.160
G0 X123.090 Y93.496
G0 X123.241 Y93.860
G0 X123.332 Y94.242
G0 X123.362 Y94.611
G0 X123.362 Y107.353
G0 X123.362 Y107.353
G0 X126.669 Y116.220
G0 X126.669 Y116.220
G0 X126.669 Y129.906
G0 X131.774 Y129.906
G0 X131.774 Y129.906
G0 X133.102 Y133.468
G0 X135.881 Y140.916
G0 F3000 E85.9554
G1 X133.039 Y138.075 E86.1225 F2400
G0 X132.474 Y138.075 F5400
G1 X135.315 Y140.916 E86.2896 F2400
G0 X134.749 Y140.916 F5400
G1 X132.056 Y138.223 E86.4479 F2400
G0 X131.563 Y138.088 F5400
;segType:Perimeter
G1 X131.356 Y137.315 E86.4812 F1439
G1 X148.874 Y137.315 E87.2095
G1 X148.874 Y141.677 E87.3908
G1 X131.296 Y141.677 E88.1217
G1 X131.296 Y137.375 E88.3005
G0 X132.069 Y137.582 F5400
G0 X132.396 Y137.715
;segType:Loop
G1 X148.474 Y137.715 E88.9690 F2400
G1 X148.474 Y141.277 E89.1170
G1 X131.696 Y141.277 E89.8146
G1 X131.696 Y137.715 E89.9627
G1 X132.196 Y137.715 E89.9835
G0 X132.056 Y138.789 F5400
;segType:HShell
G1 X134.184 Y140.916 E90.1086 F2400
G0 X133.618 Y140.916 F5400
G1 X132.056 Y139.354 E90.2004 F2400
G0 X132.056 Y139.920 F5400
G1 X133.052 Y140.916 E90.2590 F2400
G0 X132.487 Y140.916 F5400
G1 X132.056 Y140.486 E90.2843 F2400
G0 X136.446 Y140.916 F5400
G1 X133.605 Y138.075 E90.4514 F2400
G0 X134.171 Y138.075 F5400
G1 X137.012 Y140.916 E90.6184 F2400
G0 X137.578 Y140.916 F5400
G1 X134.736 Y138.075 E90.7855 F2400
G0 X135.302 Y138.075 F5400
G1 X138.144 Y140.916 E90.9526 F2400
G0 X138.709 Y140.916 F5400
G1 X135.868 Y138.075 E91.1196 F2400
G0 X136.433 Y138.075 F5400
G1 X139.275 Y140.916 E91.2867 F2400
G0 X139.841 Y140.916 F5400
G1 X136.999 Y138.075 E91.4537 F2400
G0 X137.565 Y138.075 F5400
G1 X140.406 Y140.916 E91.6208 F2400
G0 X140.972 Y140.916 F5400
G1 X138.131 Y138.075 E91.7879 F2400
G0 X138.696 Y138.075 F5400
G1 X141.538 Y140.916 E91.9549 F2400
G0 X142.103 Y140.916 F5400
G1 X139.262 Y138.075 E92.1220 F2400
G0 X139.828 Y138.075 F5400
G1 X142.669 Y140.916 E92.2891 F2400
G0 X143.235 Y140.916 F5400
G1 X140.393 Y138.075 E92.4561 F2400
G0 X140.959 Y138.075 F5400
G1 X143.800 Y140.916 E92.6232 F2400
G0 X144.366 Y140.916 F5400
G1 X141.525 Y138.075 E92.7902 F2400
G0 X142.090 Y138.075 F5400
G1 X144.932 Y140.916 E92.9573 F2400
G0 X145.497 Y140.916 F5400
G1 X142.656 Y138.075 E93.1244 F2400
G0 X143.222 Y138.075 F5400
G1 X146.063 Y140.916 E93.2914 F2400
G0 X146.629 Y140.916 F5400
G1 X143.787 Y138.075 E93.4585 F2400
G0 X144.353 Y138.075 F5400
G1 X147.194 Y140.916 E93.6255 F2400
G0 X147.760 Y140.916 F5400
G1 X144.919 Y138.075 E93.7926 F2400
G0 X145.484 Y138.075 F5400
G1 X148.114 Y140.705 E93.9472 F2400
G0 X148.114 Y140.139 F5400
G1 X146.050 Y138.075 E94.0686 F2400
G0 X146.616 Y138.075 F5400
G1 X148.114 Y139.573 E94.1567 F2400
G0 X148.114 Y139.008 F5400
G1 X147.181 Y138.075 E94.2115 F2400
G0 X147.747 Y138.075 F5400
G1 X148.114 Y138.442 E94.2331 F2400
G0 F3000 E93.2331
G0 X153.750 Y141.250 F5400
G0 F3000 E94.2331
;segType:Support
G1 X161.250 Y141.250 E94.4981 F3600
G0 F3000 E93.4981
G0 X163.425 Y140.176 F5400
G0 F3000 E94.4981
;segType:HShell
G1 X164.165 Y140.916 E94.5416 F2400
G0 X164.731 Y140.916 F5400
G1 X163.425 Y139.611 E94.6184 F2400
G0 X163.425 Y139.045 F5400
G1 X165.296 Y140.916 E94.7285 F2400
G0 X165.862 Y140.916 F5400
G1 X163.425 Y138.479 E94.8718 F2400
G0 X162.932 Y138.088 F5400
;segType:Perimeter
G1 X162.725 Y137.315 E94.9050 F1439
G1 X179.273 Y137.315 E95.5930
G1 X179.598 Y137.288 E95.6066
G1 X179.915 Y137.212 E95.6201
G1 X180.220 Y137.086 E95.6339
G1 X180.502 Y136.913 E95.6476
G1 X180.755 Y136.697 E95.6615
G1 X180.967 Y136.448 E95.6750
G1 X181.141 Y136.165 E95.6888
G1 X181.267 Y135.860 E95.7026
G1 X181.345 Y135.539 E95.7163
G1 X181.370 Y135.217 E95.7297
G1 X181.370 Y92.071 E97.5236
G1 X181.425 Y91.725 E97.5381
G1 X181.576 Y91.428 E97.5520
G1 X181.812 Y91.191 E97.5659
G1 X182.110 Y91.040 E97.5797
G1 X182.455 Y90.985 E97.5943
G1 X190.996 Y90.985 E97.9494
G1 X191.342 Y91.040 E97.9639
G1 X191.639 Y91.191 E97.9778
G1 X191.875 Y91.428 E97.9917
G1 X192.027 Y91.725 E98.0056
G1 X192.082 Y92.071 E98.0201
G1 X192.082 Y98.998 E98.3081
G1 X192.027 Y99.344 E98.3227
G1 X191.875 Y99.642 E98.3366
G1 X191.639 Y99.878 E98.3504
G1 X191.342 Y100.029 E98.3643
G1 X190.996 Y100.084 E98.3789
G1 X187.829 Y100.084 E98.5105
G1 X187.507 Y100.109 E98.5240
G1 X187.186 Y100.187 E98.5377
G1 X186.881 Y100.313 E98.5514
G1 X186.599 Y100.485 E98.5652
G1 X186.348 Y100.700 E98.5789
G1 X186.133 Y100.951 E98.5927
G1 X185.961 Y101.233 E98.6064
G1 X185.834 Y101.539 E98.6201
G1 X185.757 Y101.860 E98.6339
G1 X185.732 Y102.182 E98.6473
G1 X185.732 Y135.217 E100.0208
G1 X185.757 Y135.539 E100.0342
G1 X185.834 Y135.860 E100.0479
G1 X185.961 Y136.165 E100.0616
G1 X186.133 Y136.448 E100.0754
G1 X186.348 Y136.699 E100.0892
G1 X186.599 Y136.913 E100.1029
G1 X186.881 Y137.086 E100.1166
G1 X187.190 Y137.213 E100.1305
G1 X187.507 Y137.289 E100.1441
G1 X187.829 Y137.315 E100.1575
G1 X220.865 Y137.315 E101.5310
G1 X221.186 Y137.289 E101.5444
G1 X221.508 Y137.212 E101.5581
G1 X221.813 Y137.086 E101.5719
G1 X222.095 Y136.913 E101.5856
G1 X222.346 Y136.699 E101.5993
G1 X222.561 Y136.447 E101.6131
G1 X222.733 Y136.165 E101.6268
G1 X222.860 Y135.860 E101.6406
G1 X222.937 Y135.539 E101.6543
G1 X222.962 Y135.217 E101.6677
G1 X222.962 Y93.976 E103.3823
G1 X223.018 Y93.628 E103.3970
G1 X223.169 Y93.333 E103.4108
G1 X223.405 Y93.096 E103.4246
G1 X223.702 Y92.945 E103.4385
G1 X224.048 Y92.890 E103.4531
G1 X226.239 Y92.890 E103.5442
G1 X226.584 Y92.945 E103.5587
G1 X226.880 Y93.095 E103.5725
G1 X227.118 Y93.333 E103.5865
G1 X227.269 Y93.630 E103.6003
G1 X227.324 Y93.975 E103.6149
G1 X227.324 Y135.519 E105.3421
G1 X227.248 Y136.489 E105.3825
G1 X227.023 Y137.427 E105.4226
G1 X226.653 Y138.318 E105.4627
G1 X226.149 Y139.141 E105.5029
G1 X225.522 Y139.875 E105.5430
G1 X224.789 Y140.501 E105.5831
G1 X223.966 Y141.006 E105.6232
G1 X223.075 Y141.375 E105.6633
G1 X222.136 Y141.600 E105.7034
G1 X221.166 Y141.677 E105.7439
G1 X162.665 Y141.677 E108.1761
G1 X162.665 Y137.375 E108.3549
G0 X163.437 Y137.582 F5400
G0 X163.765 Y137.715
;segType:Loop
G1 X179.289 Y137.715 E109.0003 F2400
G1 X179.661 Y137.685 E109.0159
G1 X180.039 Y137.594 E109.0320
G1 X180.402 Y137.444 E109.0484
G1 X180.738 Y137.238 E109.0648
G1 X181.039 Y136.981 E109.0812
G1 X181.292 Y136.684 E109.0974
G1 X181.498 Y136.348 E109.1138
G1 X181.649 Y135.984 E109.1302
G1 X181.741 Y135.602 E109.1465
G1 X181.770 Y135.233 E109.1619
G1 X181.770 Y92.102 E110.9551
G1 X181.810 Y91.850 E110.9657
G1 X181.904 Y91.666 E110.9743
G1 X182.050 Y91.519 E110.9829
G1 X182.235 Y91.425 E110.9915
G1 X182.487 Y91.385 E111.0021
G1 X190.965 Y91.385 E111.3546
G1 X191.217 Y91.425 E111.3652
G1 X191.401 Y91.519 E111.3738
G1 X191.548 Y91.666 E111.3824
G1 X191.642 Y91.850 E111.3911
G1 X191.682 Y92.102 E111.4017
G1 X191.682 Y98.967 E111.6871
G1 X191.642 Y99.219 E111.6977
G1 X191.548 Y99.404 E111.7063
G1 X191.401 Y99.550 E111.7149
G1 X191.217 Y99.644 E111.7235
G1 X190.965 Y99.684 E111.7341
G1 X187.813 Y99.684 E111.8651
G1 X187.445 Y99.713 E111.8805
G1 X187.062 Y99.805 E111.8969
G1 X186.699 Y99.955 E111.9132
G1 X186.363 Y100.161 E111.9296
G1 X186.064 Y100.417 E111.9459
G1 X185.809 Y100.716 E111.9623
G1 X185.603 Y101.051 E111.9787
G1 X185.452 Y101.415 E111.9950
G1 X185.361 Y101.797 E112.0114
G1 X185.332 Y102.166 E112.0267
G1 X185.332 Y135.233 E113.4015
G1 X185.361 Y135.602 E113.4169
G1 X185.452 Y135.984 E113.4332
G1 X185.603 Y136.348 E113.4496
G1 X185.809 Y136.684 E113.4660
G1 X186.065 Y136.983 E113.4824
G1 X186.363 Y137.238 E113.4987
G1 X186.699 Y137.444 E113.5151
G1 X187.067 Y137.595 E113.5316
G1 X187.445 Y137.686 E113.5478
G1 X187.813 Y137.715 E113.5631
G1 X220.881 Y137.715 E114.9379
G1 X221.249 Y137.686 E114.9533
G1 X221.632 Y137.594 E114.9696
G1 X221.995 Y137.443 E114.9860
G1 X222.331 Y137.238 E115.0024
G1 X222.630 Y136.982 E115.0187
G1 X222.885 Y136.683 E115.0351
G1 X223.091 Y136.348 E115.0514
G1 X223.241 Y135.984 E115.0678
G1 X223.333 Y135.601 E115.0842
G1 X223.362 Y135.233 E115.0995
G1 X223.362 Y94.007 E116.8135
G1 X223.403 Y93.753 E116.8242
G1 X223.496 Y93.571 E116.8327
G1 X223.643 Y93.424 E116.8413
G1 X223.827 Y93.330 E116.8499
G1 X224.079 Y93.290 E116.8605
G1 X226.207 Y93.290 E116.9490
G1 X226.459 Y93.330 E116.9596
G1 X226.642 Y93.423 E116.9681
G1 X226.790 Y93.571 E116.9768
G1 X226.884 Y93.755 E116.9854
G1 X226.924 Y94.007 E116.9960
G1 X226.924 Y135.503 E118.7212
G1 X226.851 Y136.426 E118.7597
G1 X226.641 Y137.303 E118.7972
G1 X226.296 Y138.136 E118.8347
G1 X225.824 Y138.905 E118.8722
G1 X225.239 Y139.591 E118.9097
G1 X224.553 Y140.177 E118.9472
G1 X223.784 Y140.648 E118.9847
G1 X222.951 Y140.993 E119.0222
G1 X222.074 Y141.204 E119.0597
G1 X221.151 Y141.277 E119.0982
G1 X163.065 Y141.277 E121.5131
G1 X163.065 Y137.715 E121.6612
G1 X163.565 Y137.715 E121.6820
G0 X163.586 Y138.075 F5400
;segType:HShell
G1 X166.428 Y140.916 E121.8491 F2400
G0 X166.993 Y140.916 F5400
G1 X164.152 Y138.075 E122.0161 F2400
G0 X164.718 Y138.075 F5400
G1 X167.559 Y140.916 E122.1832 F2400
G0 X168.125 Y140.916 F5400
G1 X165.283 Y138.075 E122.3502 F2400
G0 X165.849 Y138.075 F5400
G1 X168.691 Y140.916 E122.5173 F2400
G0 X169.256 Y140.916 F5400
G1 X166.415 Y138.075 E122.6844 F2400
G0 X166.980 Y138.075 F5400
G1 X169.822 Y140.916 E122.8514 F2400
G0 X170.388 Y140.916 F5400
G1 X167.546 Y138.075 E123.0185 F2400
G0 X168.112 Y138.075 F5400
G1 X170.953 Y140.916 E123.1856 F2400
G0 X171.519 Y140.916 F5400
G1 X168.678 Y138.075 E123.3526 F2400
G0 X169.243 Y138.075 F5400
G1 X172.085 Y140.916 E123.5197 F2400
G0 X172.650 Y140.916 F5400
G1 X169.809 Y138.075 E123.6867 F2400
G0 X170.375 Y138.075 F5400
G1 X173.216 Y140.916 E123.8538 F2400
G0 X173.782 Y140.916 F5400
G1 X170.940 Y138.075 E124.0209 F2400
G0 X171.506 Y138.075 F5400
G1 X174.347 Y140.916 E124.1879 F2400
G0 X174.913 Y140.916 F5400
G1 X172.072 Y138.075 E124.3550 F2400
G0 X172.637 Y138.075 F5400
G1 X175.479 Y140.916 E124.5221 F2400
G0 X176.044 Y140.916 F5400
G1 X173.203 Y138.075 E124.6891 F2400
G0 X173.769 Y138.075 F5400
G1 X176.610 Y140.916 E124.8562 F2400
G0 X177.176 Y140.916 F5400
G1 X174.334 Y138.075 E125.0233 F2400
G0 X174.900 Y138.075 F5400
G1 X177.741 Y140.916 E125.1903 F2400
G0 X178.307 Y140.916 F5400
G1 X175.466 Y138.075 E125.3574 F2400
G0 X176.031 Y138.075 F5400
G1 X178.873 Y140.916 E125.5244 F2400
G0 X179.439 Y140.916 F5400
G1 X176.597 Y138.075 E125.6915 F2400
G0 X177.163 Y138.075 F5400
G1 X180.004 Y140.916 E125.8586 F2400
G0 X180.570 Y140.916 F5400
G1 X177.728 Y138.075 E126.0256 F2400
G0 X178.294 Y138.075 F5400
G1 X181.136 Y140.916 E126.1927 F2400
G0 X181.701 Y140.916 F5400
G1 X178.860 Y138.075 E126.3598 F2400
G0 X179.416 Y138.066 F5400
G1 X182.267 Y140.916 E126.5274 F2400
G0 X182.833 Y140.916 F5400
G1 X179.911 Y137.995 E126.6991 F2400
G0 X180.341 Y137.859 F5400
G1 X183.398 Y140.916 E126.8789 F2400
G0 X183.964 Y140.916 F5400
G1 X180.719 Y137.672 E127.0697 F2400
G0 X181.054 Y137.441 F5400
G1 X184.530 Y140.916 E127.2740 F2400
G0 X185.095 Y140.916 F5400
G1 X181.350 Y137.171 E127.4942 F2400
G0 X181.606 Y136.861 F5400
G1 X185.661 Y140.916 E127.7327 F2400
G0 X186.227 Y140.916 F5400
G1 X181.821 Y136.510 E127.9917 F2400
G0 X181.987 Y136.110 F5400
G1 X186.792 Y140.916 E128.2743 F2400
G0 X187.358 Y140.916 F5400
G1 X182.098 Y135.656 E128.5836 F2400
G0 X182.130 Y135.123 F5400
G1 X187.924 Y140.916 E128.9242 F2400
G0 X188.490 Y140.916 F5400
G1 X182.130 Y134.557 E129.2982 F2400
G0 X182.130 Y133.991 F5400
G1 X189.055 Y140.916 E129.7053 F2400
G0 X189.621 Y140.916 F5400
G1 X186.367 Y137.663 E129.8966 F2400
G0 X187.289 Y138.019 F5400
G1 X190.187 Y140.916 E130.0670 F2400
G0 X190.752 Y140.916 F5400
G1 X187.911 Y138.075 E130.2341 F2400
G0 X188.477 Y138.075 F5400
G1 X191.318 Y140.916 E130.4011 F2400
G0 X191.884 Y140.916 F5400
G1 X189.042 Y138.075 E130.5682 F2400
G0 X189.608 Y138.075 F5400
G1 X192.449 Y140.916 E130.7353 F2400
G0 X193.015 Y140.916 F5400
G1 X190.174 Y138.075 E130.9024 F2400
G0 X190.739 Y138.075 F5400
G1 X193.581 Y140.916 E131.0694 F2400
G0 X194.146 Y140.916 F5400
G1 X191.305 Y138.075 E131.2365 F2400
G0 X191.871 Y138.075 F5400
G1 X194.712 Y140.916 E131.4036 F2400
G0 X195.278 Y140.916 F5400
G1 X192.436 Y138.075 E131.5706 F2400
G0 X193.002 Y138.075 F5400
G1 X195.843 Y140.916 E131.7377 F2400
G0 X196.409 Y140.916 F5400
G1 X193.568 Y138.075 E131.9048 F2400
G0 X194.133 Y138.075 F5400
G1 X196.975 Y140.916 E132.0718 F2400
G0 X197.541 Y140.916 F5400
G1 X194.699 Y138.075 E132.2389 F2400
G0 X195.265 Y138.075 F5400
G1 X198.106 Y140.916 E132.4060 F2400
G0 X198.672 Y140.916 F5400
G1 X195.830 Y138.075 E132.5730 F2400
G0 X196.396 Y138.075 F5400
G1 X199.238 Y140.916 E132.7401 F2400
G0 X199.803 Y140.916 F5400
G1 X196.962 Y138.075 E132.9072 F2400
G0 X197.528 Y138.075 F5400
G1 X200.369 Y140.916 E133.0742 F2400
G0 X200.935 Y140.916 F5400
G1 X198.093 Y138.075 E133.2413 F2400
G0 X198.659 Y138.075 F5400
G1 X201.500 Y140.916 E133.4084 F2400
G0 X202.066 Y140.916 F5400
G1 X199.225 Y138.075 E133.5754 F2400
G0 X199.790 Y138.075 F5400
G1 X202.632 Y140.916 E133.7425 F2400
G0 X203.197 Y140.916 F5400
G1 X200.356 Y138.075 E133.9096 F2400
G0 X200.922 Y138.075 F5400
G1 X203.763 Y140.916 E134.0767 F2400
G0 X204.329 Y140.916 F5400
G1 X201.487 Y138.075 E134.2437 F2400
G0 X202.053 Y138.075 F5400
G1 X204.894 Y140.916 E134.4108 F2400
G0 X205.460 Y140.916 F5400
G1 X202.619 Y138.075 E134.5779 F2400
G0 X203.184 Y138.075 F5400
G1 X206.026 Y140.916 E134.7449 F2400
G0 X206.591 Y140.916 F5400
G1 X203.750 Y138.075 E134.9120 F2400
G0 X204.316 Y138.075 F5400
G1 X207.157 Y140.916 E135.0791 F2400
G0 X207.723 Y140.916 F5400
G1 X204.881 Y138.075 E135.2461 F2400
G0 X205.447 Y138.075 F5400
G1 X208.289 Y140.916 E135.4132 F2400
G0 X208.854 Y140.916 F5400
G1 X206.013 Y138.075 E135.5803 F2400
G0 X206.579 Y138.075 F5400
G1 X209.420 Y140.916 E135.7473 F2400
G0 X209.986 Y140.916 F5400
G1 X207.144 Y138.075 E135.9144 F2400
G0 X207.710 Y138.075 F5400
G1 X210.551 Y140.916 E136.0815 F2400
G0 X211.117 Y140.916 F5400
G1 X208.276 Y138.075 E136.2485 F2400
G0 X208.841 Y138.075 F5400
G1 X211.683 Y140.916 E136.4156 F2400
G0 X212.248 Y140.916 F5400
G1 X209.407 Y138.075 E136.5827 F2400
G0 X209.973 Y138.075 F5400
G1 X212.814 Y140.916 E136.7497 F2400
G0 X213.380 Y140.916 F5400
G1 X210.538 Y138.075 E136.9168 F2400
G0 X211.104 Y138.075 F5400
G1 X213.945 Y140.916 E137.0839 F2400
G0 X214.511 Y140.916 F5400
G1 X211.670 Y138.075 E137.2510 F2400
G0 X212.235 Y138.075 F5400
G1 X215.077 Y140.916 E137.4180 F2400
G0 X215.643 Y140.916 F5400
G1 X212.801 Y138.075 E137.5851 F2400
G0 X213.367 Y138.075 F5400
G1 X216.208 Y140.916 E137.7522 F2400
G0 X216.774 Y140.916 F5400
G1 X213.932 Y138.075 E137.9192 F2400
G0 X214.498 Y138.075 F5400
G1 X217.340 Y140.916 E138.0863 F2400
G0 X217.905 Y140.917 F5400
G1 X215.064 Y138.075 E138.2534 F2400
G0 X215.630 Y138.075 F5400
G1 X218.471 Y140.916 E138.4204 F2400
G0 X219.037 Y140.916 F5400
G1 X216.195 Y138.075 E138.5875 F2400
G0 X216.761 Y138.075 F5400
G1 X219.602 Y140.917 E138.7546 F2400
G0 X220.168 Y140.917 F5400
G1 X217.327 Y138.075 E138.9216 F2400
G0 X217.892 Y138.075 F5400
G1 X220.734 Y140.917 E139.0887 F2400
G0 X221.287 Y140.905 F5400
G1 X218.458 Y138.075 E139.2551 F2400
G0 X219.024 Y138.075 F5400
G1 X221.812 Y140.863 E139.4190 F2400
G0 X222.295 Y140.780 F5400
G1 X219.589 Y138.075 E139.5781 F2400
G0 X220.155 Y138.075 F5400
G1 X222.751 Y140.671 E139.7307 F2400
G0 X223.162 Y140.516 F5400
G1 X220.721 Y138.075 E139.8742 F2400
G0 X221.258 Y138.046 F5400
G1 X223.562 Y140.350 E140.0097 F2400
G0 X223.920 Y140.143 F5400
G1 X221.720 Y137.943 E140.1390 F2400
G0 X222.123 Y137.780 F5400
G1 X224.270 Y139.928 E140.2653 F2400
G0 X224.585 Y139.676 F5400
G1 X222.478 Y137.570 E140.3891 F2400
G0 X222.792 Y137.318 F5400
G1 X224.890 Y139.416 E140.5125 F2400
G0 X225.164 Y139.124 F5400
G1 X223.066 Y137.026 E140.6358 F2400
G0 X223.300 Y136.695 F5400
G1 X225.424 Y138.819 E140.7607 F2400
G0 X225.658 Y138.487 F5400
G1 X223.492 Y136.321 E140.8881 F2400
G0 X223.633 Y135.896 F5400
G1 X225.873 Y138.136 E141.0198 F2400
G0 X226.062 Y137.760 F5400
G1 X223.710 Y135.407 E141.1581 F2400
G0 X223.722 Y134.854 F5400
G1 X226.228 Y137.360 E141.3054 F2400
G0 X226.361 Y136.927 F5400
G1 X223.722 Y134.289 E141.4605 F2400
G0 X223.722 Y133.723 F5400
G1 X226.470 Y136.471 E141.6221 F2400
G0 X226.527 Y135.961 F5400
G1 X223.722 Y133.157 E141.7869 F2400
G0 X223.722 Y132.592 F5400
G1 X226.564 Y135.433 E141.9540 F2400
G0 X226.564 Y134.867 F5400
G1 X223.722 Y132.026 E142.1211 F2400
G0 X223.722 Y131.460 F5400
G1 X226.564 Y134.302 E142.2882 F2400
G0 X226.564 Y133.736 F5400
G1 X223.722 Y130.895 E142.4552 F2400
G0 X223.722 Y130.329 F5400
G1 X226.564 Y133.170 E142.6223 F2400
G0 X226.564 Y132.605 F5400
G1 X223.722 Y129.763 E142.7894 F2400
G0 X223.722 Y129.197 F5400
G1 X226.564 Y132.039 E142.9564 F2400
G0 X226.564 Y131.473 F5400
G1 X223.722 Y128.632 E143.1235 F2400
G0 X223.722 Y128.066 F5400
G1 X226.564 Y130.908 E143.2906 F2400
G0 X226.564 Y130.342 F5400
G1 X223.722 Y127.500 E143.4576 F2400
G0 X223.722 Y126.935 F5400
G1 X226.564 Y129.776 E143.6247 F2400
G0 X226.564 Y129.210 F5400
G1 X223.722 Y126.369 E143.7918 F2400
G0 X223.722 Y125.803 F5400
G1 X226.564 Y128.645 E143.9588 F2400
G0 X226.564 Y128.079 F5400
G1 X223.722 Y125.238 E144.1259 F2400
G0 X223.722 Y124.672 F5400
G1 X226.564 Y127.513 E144.2930 F2400
G0 X226.564 Y126.948 F5400
G1 X223.722 Y124.106 E144.4600 F2400
G0 X223.722 Y123.541 F5400
G1 X226.564 Y126.382 E144.6271 F2400
G0 X226.564 Y125.816 F5400
G1 X223.722 Y122.975 E144.7942 F2400
G0 X223.722 Y122.409 F5400
G1 X226.564 Y125.251 E144.9612 F2400
G0 X226.564 Y124.685 F5400
G1 X223.722 Y121.844 E145.1283 F2400
G0 X223.722 Y121.278 F5400
G1 X226.564 Y124.119 E145.2954 F2400
G0 X226.564 Y123.554 F5400
G1 X223.722 Y120.712 E145.4625 F2400
G0 X223.722 Y120.146 F5400
G1 X226.564 Y122.988 E145.6295 F2400
G0 X226.564 Y122.422 F5400
G1 X223.722 Y119.581 E145.7966 F2400
G0 X223.722 Y119.015 F5400
G1 X226.564 Y121.857 E145.9637 F2400
G0 X226.564 Y121.291 F5400
G1 X223.722 Y118.449 E146.1307 F2400
G0 X223.722 Y117.884 F5400
G1 X226.564 Y120.725 E146.2978 F2400
G0 X226.564 Y120.159 F5400
G1 X223.722 Y117.318 E146.4649 F2400
G0 X223.722 Y116.752 F5400
G1 X226.564 Y119.594 E146.6319 F2400
G0 X226.564 Y119.028 F5400
G1 X223.722 Y116.187 E146.7990 F2400
G0 X223.722 Y115.621 F5400
G1 X226.564 Y118.462 E146.9661 F2400
G0 X226.564 Y117.897 F5400
G1 X223.722 Y115.055 E147.1331 F2400
G0 X223.722 Y114.490 F5400
G1 X226.564 Y117.331 E147.3002 F2400
G0 X226.564 Y116.765 F5400
G1 X223.722 Y113.924 E147.4673 F2400
G0 X223.722 Y113.358 F5400
G1 X226.564 Y116.200 E147.6343 F2400
G0 X226.564 Y115.634 F5400
G1 X223.722 Y112.793 E147.8014 F2400
G0 X223.722 Y112.227 F5400
G1 X226.564 Y115.068 E147.9685 F2400
G0 X226.564 Y114.503 F5400
G1 X223.722 Y111.661 E148.1356 F2400
G0 X223.722 Y111.095 F5400
G1 X226.564 Y113.937 E148.3026 F2400
G0 X226.564 Y113.371 F5400
G1 X223.722 Y110.530 E148.4697 F2400
G0 X223.722 Y109.964 F5400
G1 X226.564 Y112.806 E148.6368 F2400
G0 X226.564 Y112.240 F5400
G1 X223.722 Y109.398 E148.8038 F2400
G0 X223.722 Y108.833 F5400
G1 X226.564 Y111.674 E148.9709 F2400
G0 X226.564 Y111.108 F5400
G1 X223.722 Y108.267 E149.1380 F2400
G0 X223.722 Y107.701 F5400
G1 X226.564 Y110.543 E149.3050 F2400
G0 X226.564 Y109.977 F5400
G1 X223.722 Y107.136 E149.4721 F2400
G0 X223.722 Y106.570 F5400
G1 X226.564 Y109.411 E149.6392 F2400
G0 X226.564 Y108.846 F5400
G1 X223.722 Y106.004 E149.8062 F2400
G0 X223.722 Y105.439 F5400
G1 X226.564 Y108.280 E149.9733 F2400
G0 X226.564 Y107.714 F5400
G1 X223.722 Y104.873 E150.1404 F2400
G0 X223.722 Y104.307 F5400
G1 X226.564 Y107.149 E150.3074 F2400
G0 X226.564 Y106.583 F5400
G1 X223.722 Y103.742 E150.4745 F2400
G0 X223.722 Y103.176 F5400
G1 X226.564 Y106.017 E150.6416 F2400
G0 X226.564 Y105.452 F5400
G1 X223.722 Y102.610 E150.8086 F2400
G0 X223.722 Y102.044 F5400
G1 X226.564 Y104.886 E150.9757 F2400
G0 X226.564 Y104.320 F5400
G1 X223.722 Y101.479 E151.1428 F2400
G0 X223.722 Y100.913 F5400
G1 X226.564 Y103.755 E151.3099 F2400
G0 X226.564 Y103.189 F5400
G1 X223.722 Y100.347 E151.4769 F2400
G0 X223.722 Y99.782 F5400
G1 X226.564 Y102.623 E151.6440 F2400
G0 X226.564 Y102.057 F5400
G1 X223.722 Y99.216 E151.8111 F2400
G0 X223.722 Y98.650 F5400
G1 X226.564 Y101.492 E151.9781 F2400
G0 X226.564 Y100.926 F5400
G1 X223.722 Y98.085 E152.1452 F2400
G0 X223.722 Y97.519 F5400
G1 X226.564 Y100.360 E152.3123 F2400
G0 X226.564 Y99.795 F5400
G1 X223.722 Y96.953 E152.4793 F2400
G0 X223.722 Y96.388 F5400
G1 X226.564 Y99.229 E152.6464 F2400
G0 X226.564 Y98.663 F5400
G1 X223.722 Y95.822 E152.8135 F2400
G0 X223.722 Y95.256 F5400
G1 X226.564 Y98.098 E152.9805 F2400
G0 X226.564 Y97.532 F5400
G1 X223.722 Y94.691 E153.1476 F2400
G0 X223.722 Y94.125 F5400
G1 X226.564 Y96.966 E153.3147 F2400
G0 X226.564 Y96.401 F5400
G1 X223.874 Y93.711 E153.4728 F2400
G0 X224.379 Y93.650 F5400
G1 X226.564 Y95.835 E153.6013 F2400
G0 X226.564 Y95.269 F5400
G1 X224.945 Y93.650 E153.6965 F2400
G0 X225.511 Y93.650 F5400
G1 X226.564 Y94.704 E153.7584 F2400
G0 X226.564 Y94.138 F5400
G1 X226.076 Y93.650 E153.7871 F2400
G0 F3000 E152.7871
G0 X226.852 Y93.692 F5400
G0 X223.553 Y93.514
G0 X223.553 Y93.514
G0 X223.496 Y93.571
G0 X223.403 Y93.753
G0 X223.362 Y94.007
G0 X223.362 Y135.233
G0 X223.333 Y135.601
G0 X223.241 Y135.984
G0 X223.091 Y136.348
G0 X222.885 Y136.683
G0 X222.630 Y136.982
G0 X222.331 Y137.238
G0 X221.995 Y137.443
G0 X221.632 Y137.594
G0 X221.249 Y137.686
G0 X220.881 Y137.715
G0 X187.813 Y137.715
G0 X187.445 Y137.686
G0 X187.067 Y137.595
G0 X186.699 Y137.444
G0 X186.363 Y137.238
G0 X186.065 Y136.983
G0 X185.809 Y136.684
G0 X185.603 Y136.348
G0 X185.452 Y135.984
G0 X185.361 Y135.602
G0 X185.332 Y135.233
G0 X185.332 Y102.166
G0 X185.361 Y101.797
G0 X185.452 Y101.415
G0 X185.603 Y101.051
G0 X185.809 Y100.716
G0 X186.064 Y100.417
G0 X186.363 Y100.161
G0 X186.699 Y99.955
G0 X187.062 Y99.805
G0 X187.445 Y99.713
G0 X187.813 Y99.684
G0 X190.965 Y99.684
G0 X191.217 Y99.644
G0 X191.401 Y99.550
G0 X191.548 Y99.404
G0 X191.642 Y99.219
G0 X191.682 Y98.967
G0 X191.682 Y92.102
G0 X191.642 Y91.850
G0 X191.611 Y91.789
G0 X190.796 Y91.745
G0 F3000 E153.7871
G1 X191.322 Y92.271 E153.8180 F2400
G0 X191.322 Y92.837 F5400
G1 X190.230 Y91.745 E153.8821 F2400
G0 X189.664 Y91.745 F5400
G1 X191.322 Y93.402 E153.9796 F2400
G0 X191.322 Y93.968 F5400
G1 X189.099 Y91.745 E154.1103 F2400
G0 X188.533 Y91.745 F5400
G1 X191.322 Y94.534 E154.2742 F2400
G0 X191.322 Y95.099 F5400
G1 X187.967 Y91.745 E154.4714 F2400
G0 X187.402 Y91.745 F5400
G1 X191.322 Y95.665 E154.7019 F2400
G0 X191.322 Y96.231 F5400
G1 X186.836 Y91.745 E154.9656 F2400
G0 X186.270 Y91.745 F5400
G1 X191.322 Y96.797 E155.2626 F2400
G0 X191.322 Y97.362 F5400
G1 X185.705 Y91.745 E155.5928 F2400
G0 X185.139 Y91.745 F5400
G1 X191.322 Y97.928 E155.9564 F2400
G0 X191.322 Y98.494 F5400
G1 X184.573 Y91.745 E156.3531 F2400
G0 X184.008 Y91.745 F5400
G1 X191.305 Y99.043 E156.7822 F2400
G0 X191.009 Y99.312 F5400
G1 X183.442 Y91.745 E157.2271 F2400
G0 X182.876 Y91.745 F5400
G1 X190.455 Y99.324 E157.6727 F2400
G0 X189.889 Y99.324 F5400
G1 X182.348 Y91.783 E158.1161 F2400
G0 X182.130 Y92.130 F5400
G1 X189.323 Y99.324 E158.5390 F2400
G0 X188.758 Y99.324 F5400
G1 X182.130 Y92.696 E158.9287 F2400
G0 X182.130 Y93.262 F5400
G1 X188.192 Y99.324 E159.2851 F2400
G0 X187.639 Y99.337 F5400
G1 X182.130 Y93.828 E159.6090 F2400
G0 X182.130 Y94.393 F5400
G1 X187.150 Y99.413 E159.9042 F2400
G0 X186.726 Y99.555 F5400
G1 X182.130 Y94.959 E160.1744 F2400
G0 X182.130 Y95.525 F5400
G1 X186.351 Y99.746 E160.4226 F2400
G0 X186.020 Y99.980 F5400
G1 X182.130 Y96.090 E160.6513 F2400
G0 X182.130 Y96.656 F5400
G1 X185.729 Y100.255 E160.8629 F2400
G0 X185.477 Y100.568 F5400
G1 X182.130 Y97.222 E161.0596 F2400
G0 X182.130 Y97.787 F5400
G1 X185.266 Y100.923 E161.2440 F2400
G0 X185.103 Y101.326 F5400
G1 X182.130 Y98.353 E161.4188 F2400
G0 X182.130 Y98.919 F5400
G1 X185.000 Y101.789 E161.5876 F2400
G0 X184.972 Y102.326 F5400
G1 X182.130 Y99.484 E161.7546 F2400
G0 X182.130 Y100.050 F5400
G1 X184.972 Y102.892 E161.9217 F2400
G0 X184.972 Y103.457 F5400
G1 X182.130 Y100.616 E162.0888 F2400
G0 X182.130 Y101.182 F5400
G1 X184.972 Y104.023 E162.2559 F2400
G0 X184.972 Y104.589 F5400
G1 X182.130 Y101.747 E162.4229 F2400
G0 X182.130 Y102.313 F5400
G1 X184.972 Y105.154 E162.5900 F2400
G0 X184.972 Y105.720 F5400
G1 X182.130 Y102.879 E162.7571 F2400
G0 X182.130 Y103.444 F5400
G1 X184.972 Y106.286 E162.9241 F2400
G0 X184.972 Y106.851 F5400
G1 X182.130 Y104.010 E163.0912 F2400
G0 X182.130 Y104.576 F5400
G1 X184.972 Y107.417 E163.2583 F2400
G0 X184.972 Y107.983 F5400
G1 X182.130 Y105.141 E163.4253 F2400
G0 X182.130 Y105.707 F5400
G1 X184.972 Y108.548 E163.5924 F2400
G0 X184.972 Y109.114 F5400
G1 X182.130 Y106.273 E163.7595 F2400
G0 X182.130 Y106.838 F5400
G1 X184.972 Y109.680 E163.9265 F2400
G0 X184.972 Y110.246 F5400
G1 X182.130 Y107.404 E164.0936 F2400
G0 X182.130 Y107.970 F5400
G1 X184.972 Y110.811 E164.2607 F2400
G0 X184.972 Y111.377 F5400
G1 X182.130 Y108.535 E164.4277 F2400
G0 X182.130 Y109.101 F5400
G1 X184.972 Y111.943 E164.5948 F2400
G0 X184.972 Y112.508 F5400
G1 X182.130 Y109.667 E164.7619 F2400
G0 X182.130 Y110.232 F5400
G1 X184.972 Y113.074 E164.9289 F2400
G0 X184.972 Y113.640 F5400
G1 X182.130 Y110.798 E165.0960 F2400
G0 X182.130 Y111.364 F5400
G1 X184.972 Y114.205 E165.2631 F2400
G0 X184.971 Y114.771 F5400
G1 X182.130 Y111.930 E165.4302 F2400
G0 X182.130 Y112.495 F5400
G1 X184.972 Y115.337 E165.5972 F2400
G0 X184.971 Y115.902 F5400
G1 X182.130 Y113.061 E165.7643 F2400
G0 X182.130 Y113.627 F5400
G1 X184.971 Y116.468 E165.9314 F2400
G0 X184.971 Y117.034 F5400
G1 X182.130 Y114.192 E166.0984 F2400
G0 X182.130 Y114.758 F5400
G1 X184.971 Y117.599 E166.2655 F2400
G0 X184.971 Y118.165 F5400
G1 X182.130 Y115.324 E166.4326 F2400
G0 X182.130 Y115.889 F5400
G1 X184.971 Y118.731 E166.5996 F2400
G0 X184.971 Y119.296 F5400
G1 X182.130 Y116.455 E166.7667 F2400
G0 X182.130 Y117.021 F5400
G1 X184.971 Y119.862 E166.9338 F2400
G0 X184.971 Y120.428 F5400
G1 X182.130 Y117.586 E167.1008 F2400
G0 X182.130 Y118.152 F5400
G1 X184.971 Y120.993 E167.2679 F2400
G0 X184.971 Y121.559 F5400
G1 X182.130 Y118.718 E167.4350 F2400
G0 X182.130 Y119.283 F5400
G1 X184.971 Y122.125 E167.6020 F2400
G0 X184.971 Y122.691 F5400
G1 X182.130 Y119.849 E167.7691 F2400
G0 X182.130 Y120.415 F5400
G1 X184.971 Y123.256 E167.9362 F2400
G0 X184.971 Y123.822 F5400
G1 X182.130 Y120.980 E168.1032 F2400
G0 X182.130 Y121.546 F5400
G1 X184.971 Y124.388 E168.2703 F2400
G0 X184.971 Y124.953 F5400
G1 X182.130 Y122.112 E168.4374 F2400
G0 X182.130 Y122.678 F5400
G1 X184.971 Y125.519 E168.6045 F2400
G0 X184.971 Y126.085 F5400
G1 X182.130 Y123.243 E168.7715 F2400
G0 X182.130 Y123.809 F5400
G1 X184.971 Y126.650 E168.9386 F2400
G0 X184.971 Y127.216 F5400
G1 X182.130 Y124.375 E169.1057 F2400
G0 X182.130 Y124.940 F5400
G1 X184.971 Y127.782 E169.2727 F2400
G0 X184.971 Y128.347 F5400
G1 X182.130 Y125.506 E169.4398 F2400
G0 X182.130 Y126.072 F5400
G1 X184.971 Y128.913 E169.6069 F2400
G0 X184.971 Y129.479 F5400
G1 X182.130 Y126.637 E169.7739 F2400
G0 X182.130 Y127.203 F5400
G1 X184.971 Y130.044 E169.9410 F2400
G0 X184.971 Y130.610 F5400
G1 X182.130 Y127.769 E170.1081 F2400
G0 X182.130 Y128.334 F5400
G1 X184.971 Y131.176 E170.2751 F2400
G0 X184.971 Y131.742 F5400
G1 X182.130 Y128.900 E170.4422 F2400
G0 X182.130 Y129.466 F5400
G1 X184.971 Y132.307 E170.6093 F2400
G0 X184.971 Y132.873 F5400
G1 X182.130 Y130.031 E170.7763 F2400
G0 X182.130 Y130.597 F5400
G1 X184.971 Y133.439 E170.9434 F2400
G0 X184.971 Y134.004 F5400
G1 X182.130 Y131.163 E171.1105 F2400
G0 X182.130 Y131.728 F5400
G1 X184.971 Y134.570 E171.2775 F2400
G0 X184.971 Y135.136 F5400
G1 X182.130 Y132.294 E171.4446 F2400
G0 X182.130 Y132.860 F5400
G1 X185.028 Y135.758 E171.6150 F2400
G0 X185.384 Y136.680 F5400
G1 X182.130 Y133.426 E171.8063 F2400
G0 F3000 E170.8063
G0 X164.276 Y133.107 F5400
G0 F3000 E171.8063
G1 X161.434 Y130.266 E171.9734 F2400
G0 X160.868 Y130.266 F5400
G1 X163.710 Y133.107 E172.1405 F2400
G0 X163.144 Y133.107 F5400
G1 X160.325 Y130.288 E172.3063 F2400
G0 X159.832 Y130.278 F5400
;segType:Perimeter
G1 X159.625 Y129.506 E172.3395 F1439
G1 X177.143 Y129.506 E173.0678
G1 X177.143 Y133.868 E173.2492
G1 X159.565 Y133.868 E173.9800
G1 X159.565 Y129.566 E174.1589
G0 X160.337 Y129.773 F5400
G0 X160.665 Y129.906
;segType:Loop
G1 X176.743 Y129.906 E174.8274 F2400
G1 X176.743 Y133.468 E174.9754
G1 X159.965 Y133.468 E175.6730
G1 X159.965 Y129.906 E175.8211
G1 X160.465 Y129.906 E175.8419
G0 X160.325 Y130.854 F5400
;segType:HShell
G1 X162.579 Y133.107 E175.9744 F2400
G0 X162.013 Y133.107 F5400
G1 X160.325 Y131.419 E176.0736 F2400
G0 X160.325 Y131.985 F5400
G1 X161.447 Y133.107 E176.1396 F2400
G0 X160.882 Y133.107 F5400
G1 X160.325 Y132.551 E176.1724 F2400
G0 X164.841 Y133.107 F5400
G1 X162.000 Y130.266 E176.3394 F2400
G0 X162.565 Y130.266 F5400
G1 X165.407 Y133.107 E176.5065 F2400
G0 X165.973 Y133.107 F5400
G1 X163.131 Y130.266 E176.6736 F2400
G0 X163.697 Y130.266 F5400
G1 X166.538 Y133.107 E176.8407 F2400
G0 X167.104 Y133.107 F5400
G1 X164.262 Y130.266 E177.0078 F2400
G0 X164.828 Y130.266 F5400
G1 X167.670 Y133.107 E177.1749 F2400
G0 X168.235 Y133.107 F5400
G1 X165.394 Y130.266 E177.3419 F2400
G0 X165.959 Y130.266 F5400
G1 X168.801 Y133.107 E177.5090 F2400
G0 X169.367 Y133.107 F5400
G1 X166.525 Y130.266 E177.6761 F2400
G0 X167.091 Y130.266 F5400
G1 X169.932 Y133.107 E177.8432 F2400
G0 X170.498 Y133.107 F5400
G1 X167.656 Y130.266 E178.0103 F2400
G0 X168.222 Y130.266 F5400
G1 X171.064 Y133.107 E178.1774 F2400
G0 X171.630 Y133.107 F5400
G1 X168.788 Y130.266 E178.3444 F2400
G0 X169.354 Y130.266 F5400
G1 X172.195 Y133.107 E178.5115 F2400
G0 X172.761 Y133.107 F5400
G1 X169.919 Y130.266 E178.6786 F2400
G0 X170.485 Y130.266 F5400
G1 X173.327 Y133.107 E178.8457 F2400
G0 X173.892 Y133.107 F5400
G1 X171.051 Y130.266 E179.0128 F2400
G0 X171.616 Y130.266 F5400
G1 X174.458 Y133.107 E179.1799 F2400
G0 X175.024 Y133.107 F5400
G1 X172.182 Y130.266 E179.3469 F2400
G0 X172.748 Y130.266 F5400
G1 X175.589 Y133.107 E179.5140 F2400
G0 X176.155 Y133.107 F5400
G1 X173.313 Y130.266 E179.6811 F2400
G0 X173.879 Y130.266 F5400
G1 X176.383 Y132.770 E179.8284 F2400
G0 X176.383 Y132.204 F5400
G1 X174.445 Y130.266 E179.9423 F2400
G0 X175.010 Y130.266 F5400
G1 X176.383 Y131.639 E180.0231 F2400
G0 X176.383 Y131.073 F5400
G1 X175.576 Y130.266 E180.0705 F2400
; ------------------------------------
; Layer #1
; ------------------------------------
M106 S0 ;turn off fan
G92 E0 ;reset extr
G0 F3000 E-1.0000
G0 F1200 Z0.500
G0 X153.750 Y138.750 F7200
G0 F3000 E0.0000
;segType:Support
G1 X161.250 Y138.750 E0.2650 F5400
G1 X161.250 Y141.250 E0.3534
G1 X153.750 Y141.250 E0.6184
G0 F3000 E-0.3816
G0 X134.720 Y138.075 F7200
G0 F3000 E0.6184
;segType:HShell
G1 X131.879 Y140.916 E0.7855 F3600
G0 X131.699 Y140.530 F7200
G1 X134.155 Y138.075 E0.9299 F3600
G0 X133.589 Y138.075 F7200
G1 X131.699 Y139.965 E1.0409 F3600
G0 X131.699 Y139.399 F7200
G1 X133.023 Y138.075 E1.1188 F3600
G0 X132.457 Y138.075 F7200
G1 X131.699 Y138.833 E1.1634 F3600
G0 X131.206 Y138.088 F7200
;segType:Perimeter
G1 X130.999 Y137.315 E1.1966 F2159
G1 X149.231 Y137.315 E1.9546
G1 X149.231 Y141.677 E2.1359
G1 X130.939 Y141.677 E2.8964
G1 X130.939 Y137.375 E3.0752
G0 X131.712 Y137.582 F7200
G0 X132.039 Y137.715
;segType:Loop
G1 X148.831 Y137.715 E3.7734 F3600
G1 X148.831 Y141.277 E3.9214
G1 X131.339 Y141.277 E4.6486
G1 X131.339 Y137.715 E4.7967
G1 X131.839 Y137.715 E4.8175
G0 F3000 E3.8175
G0 X131.839 Y137.715 F7200
G0 X132.513 Y141.277
G0 X132.444 Y140.916
G0 F3000 E4.8175
;segType:HShell
G1 X135.286 Y138.075 E4.9846 F3600
G0 X135.852 Y138.075 F7200
G1 X133.010 Y140.916 E5.1516 F3600
G0 X133.576 Y140.916 F7200
G1 X136.417 Y138.075 E5.3187 F3600
G0 X136.983 Y138.075 F7200
G1 X134.142 Y140.916 E5.4858 F3600
G0 X134.707 Y140.916 F7200
G1 X137.549 Y138.075 E5.6528 F3600
G0 X138.114 Y138.075 F7200
G1 X135.273 Y140.916 E5.8199 F3600
G0 X135.839 Y140.916 F7200
G1 X138.680 Y138.075 E5.9870 F3600
G0 X139.246 Y138.075 F7200
G1 X136.404 Y140.916 E6.1540 F3600
G0 X136.970 Y140.916 F7200
G1 X139.811 Y138.075 E6.3211 F3600
G0 X140.377 Y138.075 F7200
G1 X137.536 Y140.916 E6.4882 F3600
G0 X138.101 Y140.916 F7200
G1 X140.943 Y138.075 E6.6552 F3600
G0 X141.508 Y138.075 F7200
G1 X138.667 Y140.916 E6.8223 F3600
G0 X139.233 Y140.916 F7200
G1 X142.074 Y138.075 E6.9893 F3600
G0 X142.640 Y138.075 F7200
G1 X139.798 Y140.916 E7.1564 F3600
G0 X140.364 Y140.916 F7200
G1 X143.205 Y138.075 E7.3235 F3600
G0 X143.771 Y138.075 F7200
G1 X140.930 Y140.916 E7.4905 F3600
G0 X141.495 Y140.916 F7200
G1 X144.337 Y138.075 E7.6576 F3600
G0 X144.903 Y138.075 F7200
G1 X142.061 Y140.916 E7.8247 F3600
G0 X142.627 Y140.916 F7200
G1 X145.468 Y138.075 E7.9917 F3600
G0 X146.034 Y138.075 F7200
G1 X143.192 Y140.916 E8.1588 F3600
G0 X143.758 Y140.916 F7200
G1 X146.600 Y138.075 E8.3259 F3600
G0 X147.165 Y138.075 F7200
G1 X144.324 Y140.916 E8.4929 F3600
G0 X144.890 Y140.916 F7200
G1 X147.731 Y138.075 E8.6600 F3600
G0 X148.297 Y138.075 F7200
G1 X145.455 Y140.916 E8.8271 F3600
G0 X146.021 Y140.916 F7200
G1 X148.471 Y138.467 E8.9711 F3600
G0 X148.471 Y139.033 F7200
G1 X146.587 Y140.916 E9.0819 F3600
G0 X147.152 Y140.916 F7200
G1 X148.471 Y139.598 E9.1594 F3600
G0 X148.471 Y140.164 F7200
G1 X147.718 Y140.916 E9.2036 F3600
G0 F3000 E8.2036
G0 X125.546 Y133.107 F7200
G0 F3000 E9.2036
G1 X128.387 Y130.266 E9.3707 F3600
G0 X127.822 Y130.266 F7200
G1 X124.980 Y133.107 E9.5378 F3600
G0 X124.414 Y133.107 F7200
G1 X127.256 Y130.266 E9.7048 F3600
G0 X127.129 Y129.506 F7200
G0 X127.069 Y129.506
G0 X127.069 Y129.146
G0 X127.129 Y129.506
;segType:Perimeter
G1 X146.131 Y129.506 E10.4948 F2159
G1 X146.131 Y133.868 E10.6762
G1 X86.764 Y133.868 E13.1443
G1 X85.954 Y133.804 E13.1782
G1 X85.170 Y133.616 E13.2116
G1 X84.426 Y133.307 E13.2451
G1 X83.739 Y132.886 E13.2786
G1 X83.127 Y132.363 E13.3121
G1 X82.604 Y131.751 E13.3456
G1 X82.183 Y131.064 E13.3791
G1 X81.875 Y130.320 E13.4126
G1 X81.687 Y129.537 E13.4461
G1 X81.623 Y128.726 E13.4799
G1 X81.623 Y84.515 E15.3179
G1 X81.678 Y84.170 E15.3325
G1 X81.829 Y83.872 E15.3464
G1 X82.065 Y83.636 E15.3602
G1 X82.363 Y83.485 E15.3741
G1 X82.708 Y83.430 E15.3887
G1 X84.645 Y83.430 E15.4692
G1 X84.991 Y83.485 E15.4837
G1 X85.288 Y83.636 E15.4976
G1 X85.524 Y83.872 E15.5115
G1 X85.676 Y84.170 E15.5254
G1 X85.730 Y84.515 E15.5399
G1 X85.730 Y127.662 E17.3338
G1 X85.756 Y127.984 E17.3472
G1 X85.833 Y128.305 E17.3609
G1 X85.959 Y128.611 E17.3746
G1 X86.132 Y128.892 E17.3884
G1 X86.347 Y129.144 E17.4021
G1 X86.598 Y129.358 E17.4159
G1 X86.880 Y129.531 E17.4296
G1 X87.185 Y129.657 E17.4433
G1 X87.507 Y129.734 E17.4571
G1 X87.828 Y129.760 E17.4705
G1 X120.864 Y129.760 E18.8440
G1 X121.185 Y129.734 E18.8574
G1 X121.507 Y129.657 E18.8711
G1 X121.812 Y129.531 E18.8848
G1 X122.092 Y129.359 E18.8985
G1 X122.345 Y129.144 E18.9123
G1 X122.560 Y128.892 E18.9261
G1 X122.735 Y128.604 E18.9401
G1 X122.857 Y128.310 E18.9533
G1 X122.936 Y127.984 E18.9673
G1 X122.962 Y127.662 E18.9807
G1 X122.962 Y94.626 E20.3542
G1 X122.936 Y94.305 E20.3676
G1 X122.859 Y93.984 E20.3813
G1 X122.733 Y93.678 E20.3951
G1 X122.560 Y93.396 E20.4088
G1 X122.345 Y93.145 E20.4225
G1 X122.094 Y92.931 E20.4363
G1 X121.812 Y92.758 E20.4500
G1 X121.507 Y92.631 E20.4637
G1 X121.185 Y92.554 E20.4775
G1 X120.864 Y92.529 E20.4909
G1 X117.697 Y92.529 E20.6226
G1 X117.351 Y92.474 E20.6371
G1 X117.054 Y92.323 E20.6510
G1 X116.818 Y92.087 E20.6649
G1 X116.666 Y91.789 E20.6788
G1 X116.611 Y91.444 E20.6933
G1 X116.611 Y84.515 E20.9813
G1 X116.666 Y84.170 E20.9959
G1 X116.818 Y83.872 E21.0098
G1 X117.054 Y83.636 E21.0236
G1 X117.351 Y83.485 E21.0375
G1 X117.697 Y83.430 E21.0521
G1 X125.984 Y83.430 E21.3966
G1 X126.329 Y83.485 E21.4111
G1 X126.627 Y83.636 E21.4250
G1 X126.863 Y83.872 E21.4389
G1 X127.014 Y84.170 E21.4528
G1 X127.069 Y84.515 E21.4673
G1 X127.069 Y129.446 E23.3353
G0 X126.669 Y129.278 F7200
G0 X126.669 Y129.906
G0 X128.169 Y129.906
G0 X128.169 Y129.906
;segType:Loop
G1 X145.731 Y129.906 E24.0654 F3600
G1 X145.731 Y133.468 E24.2135
G1 X86.780 Y133.468 E26.6644
G1 X86.016 Y133.407 E26.6963
G1 X85.294 Y133.234 E26.7271
G1 X84.608 Y132.950 E26.7580
G1 X83.975 Y132.562 E26.7889
G1 X83.411 Y132.080 E26.8197
G1 X82.928 Y131.515 E26.8506
G1 X82.541 Y130.882 E26.8815
G1 X82.256 Y130.196 E26.9123
G1 X82.083 Y129.474 E26.9432
G1 X82.023 Y128.710 E26.9751
G1 X82.023 Y84.547 E28.8112
G1 X82.063 Y84.295 E28.8218
G1 X82.157 Y84.110 E28.8304
G1 X82.303 Y83.964 E28.8390
G1 X82.488 Y83.870 E28.8476
G1 X82.740 Y83.830 E28.8582
G1 X84.614 Y83.830 E28.9361
G1 X84.866 Y83.870 E28.9467
G1 X85.050 Y83.964 E28.9553
G1 X85.197 Y84.111 E28.9639
G1 X85.291 Y84.295 E28.9725
G1 X85.330 Y84.547 E28.9831
G1 X85.330 Y127.678 E30.7763
G1 X85.360 Y128.047 E30.7917
G1 X85.451 Y128.429 E30.8080
G1 X85.602 Y128.793 E30.8244
G1 X85.808 Y129.128 E30.8408
G1 X86.063 Y129.427 E30.8571
G1 X86.362 Y129.683 E30.8735
G1 X86.698 Y129.888 E30.8898
G1 X87.061 Y130.039 E30.9062
G1 X87.444 Y130.131 E30.9226
G1 X87.813 Y130.160 E30.9379
G1 X120.880 Y130.160 E32.3127
G1 X121.248 Y130.131 E32.3281
G1 X121.631 Y130.039 E32.3444
G1 X121.994 Y129.888 E32.3608
G1 X122.328 Y129.684 E32.3770
G1 X122.629 Y129.427 E32.3935
G1 X122.885 Y129.127 E32.4099
G1 X123.093 Y128.786 E32.4265
G1 X123.239 Y128.434 E32.4423
G1 X123.332 Y128.047 E32.4589
G1 X123.362 Y127.678 E32.4743
G1 X123.362 Y94.611 E33.8491
G1 X123.332 Y94.242 E33.8645
G1 X123.241 Y93.860 E33.8808
G1 X123.090 Y93.496 E33.8972
G1 X122.884 Y93.160 E33.9135
G1 X122.629 Y92.861 E33.9299
G1 X122.330 Y92.606 E33.9462
G1 X121.994 Y92.400 E33.9626
G1 X121.631 Y92.250 E33.9790
G1 X121.248 Y92.158 E33.9953
G1 X120.880 Y92.129 E34.0107
G1 X117.728 Y92.129 E34.1417
G1 X117.476 Y92.089 E34.1523
G1 X117.292 Y91.995 E34.1609
G1 X117.145 Y91.849 E34.1695
G1 X117.051 Y91.664 E34.1781
G1 X117.011 Y91.412 E34.1887
G1 X117.011 Y84.547 E34.4742
G1 X117.051 Y84.295 E34.4848
G1 X117.145 Y84.110 E34.4934
G1 X117.292 Y83.964 E34.5020
G1 X117.476 Y83.870 E34.5106
G1 X117.728 Y83.830 E34.5212
G1 X125.952 Y83.830 E34.8631
G1 X126.204 Y83.870 E34.8737
G1 X126.389 Y83.964 E34.8823
G1 X126.535 Y84.111 E34.8909
G1 X126.629 Y84.295 E34.8996
G1 X126.669 Y84.547 E34.9101
G1 X126.669 Y129.906 E36.7959
G1 X127.969 Y129.906 E36.8500
G0 X126.690 Y130.266 F7200
;segType:HShell
G1 X123.849 Y133.107 E37.0171 F3600
G0 X123.283 Y133.107 F7200
G1 X126.309 Y130.081 E37.1950 F3600
G0 X126.309 Y129.516 F7200
G1 X122.717 Y133.107 E37.4062 F3600
G0 X122.152 Y133.107 F7200
G1 X126.309 Y128.950 E37.6506 F3600
G0 X126.309 Y128.384 F7200
G1 X121.586 Y133.107 E37.9283 F3600
G0 X121.020 Y133.107 F7200
G1 X126.309 Y127.819 E38.2393 F3600
G0 X126.309 Y127.253 F7200
G1 X120.455 Y133.107 E38.5835 F3600
G0 X119.889 Y133.107 F7200
G1 X126.309 Y126.687 E38.9609 F3600
G0 X126.309 Y126.122 F7200
G1 X123.312 Y129.118 E39.1371 F3600
G0 X123.666 Y128.199 F7200
G1 X126.309 Y125.556 E39.2925 F3600
G0 X126.309 Y124.990 F7200
G1 X123.722 Y127.577 E39.4446 F3600
G0 X123.722 Y127.012 F7200
G1 X126.309 Y124.425 E39.5968 F3600
G0 X126.309 Y123.859 F7200
G1 X123.722 Y126.446 E39.7489 F3600
G0 X123.722 Y125.880 F7200
G1 X126.309 Y123.293 E39.9010 F3600
G0 X126.309 Y122.727 F7200
G1 X123.722 Y125.315 E40.0531 F3600
G0 X123.722 Y124.749 F7200
G1 X126.309 Y122.162 E40.2052 F3600
G0 X126.309 Y121.596 F7200
G1 X123.722 Y124.183 E40.3574 F3600
G0 X123.722 Y123.618 F7200
G1 X126.309 Y121.030 E40.5095 F3600
G0 X126.309 Y120.465 F7200
G1 X123.722 Y123.052 E40.6616 F3600
G0 X123.722 Y122.486 F7200
G1 X126.309 Y119.899 E40.8137 F3600
G0 X126.309 Y119.333 F7200
G1 X123.722 Y121.921 E40.9658 F3600
G0 X123.722 Y121.355 F7200
G1 X126.309 Y118.768 E41.1179 F3600
G0 X126.309 Y118.202 F7200
G1 X123.722 Y120.789 E41.2701 F3600
G0 X123.722 Y120.224 F7200
G1 X126.309 Y117.636 E41.4222 F3600
G0 X126.309 Y117.071 F7200
G1 X123.722 Y119.658 E41.5743 F3600
G0 X123.722 Y119.092 F7200
G1 X126.309 Y116.505 E41.7264 F3600
G0 X126.309 Y115.939 F7200
G1 X123.722 Y118.526 E41.8785 F3600
G0 X123.722 Y117.961 F7200
G1 X126.309 Y115.374 E42.0307 F3600
G0 X126.309 Y114.808 F7200
G1 X123.722 Y117.395 E42.1828 F3600
G0 X123.722 Y116.829 F7200
G1 X126.309 Y114.242 E42.3349 F3600
G0 X126.309 Y113.677 F7200
G1 X123.722 Y116.264 E42.4870 F3600
G0 X123.722 Y115.698 F7200
G1 X126.309 Y113.111 E42.6391 F3600
G0 X126.309 Y112.545 F7200
G1 X123.722 Y115.132 E42.7912 F3600
G0 X123.722 Y114.567 F7200
G1 X126.309 Y111.979 E42.9434 F3600
G0 X126.309 Y111.414 F7200
G1 X123.722 Y114.001 E43.0955 F3600
G0 X123.722 Y113.435 F7200
G1 X126.309 Y110.848 E43.2476 F3600
G0 X126.309 Y110.282 F7200
G1 X123.722 Y112.870 E43.3997 F3600
G0 X123.722 Y112.304 F7200
G1 X126.309 Y109.717 E43.5518 F3600
G0 X126.309 Y109.151 F7200
G1 X123.722 Y111.738 E43.7040 F3600
G0 X123.722 Y111.173 F7200
G1 X126.309 Y108.585 E43.8561 F3600
G0 X126.309 Y108.020 F7200
G1 X123.722 Y110.607 E44.0082 F3600
G0 X123.722 Y110.041 F7200
G1 X126.309 Y107.454 E44.1603 F3600
G0 X126.309 Y106.888 F7200
G1 X123.722 Y109.476 E44.3124 F3600
G0 X123.722 Y108.910 F7200
G1 X126.309 Y106.323 E44.4646 F3600
G0 X126.309 Y105.757 F7200
G1 X123.722 Y108.344 E44.6167 F3600
G0 X123.722 Y107.778 F7200
G1 X126.309 Y105.191 E44.7688 F3600
G0 X126.309 Y104.626 F7200
G1 X123.722 Y107.213 E44.9209 F3600
G0 X123.722 Y106.647 F7200
G1 X126.309 Y104.060 E45.0730 F3600
G0 X126.309 Y103.494 F7200
G1 X123.722 Y106.081 E45.2251 F3600
G0 X123.722 Y105.516 F7200
G1 X126.309 Y102.929 E45.3773 F3600
G0 X126.309 Y102.363 F7200
G1 X123.722 Y104.950 E45.5294 F3600
G0 X123.722 Y104.384 F7200
G1 X126.309 Y101.797 E45.6815 F3600
G0 X126.309 Y101.231 F7200
G1 X123.722 Y103.819 E45.8336 F3600
G0 X123.722 Y103.253 F7200
G1 X126.309 Y100.666 E45.9857 F3600
G0 X126.309 Y100.100 F7200
G1 X123.722 Y102.687 E46.1379 F3600
G0 X123.722 Y102.122 F7200
G1 X126.309 Y99.534 E46.2900 F3600
G0 X126.309 Y98.969 F7200
G1 X123.722 Y101.556 E46.4421 F3600
G0 X123.722 Y100.990 F7200
G1 X126.309 Y98.403 E46.5942 F3600
G0 X126.309 Y97.837 F7200
G1 X123.722 Y100.425 E46.7463 F3600
G0 X123.722 Y99.859 F7200
G1 X126.309 Y97.272 E46.8985 F3600
G0 X126.309 Y96.706 F7200
G1 X123.722 Y99.293 E47.0506 F3600
G0 X123.722 Y98.728 F7200
G1 X126.309 Y96.140 E47.2027 F3600
G0 X126.309 Y95.575 F7200
G1 X123.722 Y98.162 E47.3548 F3600
G0 X123.722 Y97.596 F7200
G1 X126.309 Y95.009 E47.5069 F3600
G0 X126.309 Y94.443 F7200
G1 X123.722 Y97.030 E47.6590 F3600
G0 X123.722 Y96.465 F7200
G1 X126.309 Y93.878 E47.8112 F3600
G0 X126.309 Y93.312 F7200
G1 X123.722 Y95.899 E47.9633 F3600
G0 X123.722 Y95.333 F7200
G1 X126.309 Y92.746 E48.1154 F3600
G0 X126.309 Y92.181 F7200
G1 X123.722 Y94.768 E48.2675 F3600
G0 X123.693 Y94.231 F7200
G1 X126.309 Y91.615 E48.4213 F3600
G0 X126.309 Y91.049 F7200
G1 X123.589 Y93.769 E48.5812 F3600
G0 X123.426 Y93.366 F7200
G1 X126.309 Y90.483 E48.7507 F3600
G0 X126.309 Y89.918 F7200
G1 X123.215 Y93.011 E48.9326 F3600
G0 X122.963 Y92.698 F7200
G1 X126.309 Y89.352 E49.1294 F3600
G0 X126.309 Y88.786 F7200
G1 X122.671 Y92.424 E49.3432 F3600
G0 X122.340 Y92.190 F7200
G1 X126.309 Y88.221 E49.5766 F3600
G0 X126.309 Y87.655 F7200
G1 X121.965 Y91.999 E49.8320 F3600
G0 X121.540 Y91.858 F7200
G1 X126.309 Y87.089 E50.1124 F3600
G0 X126.309 Y86.524 F7200
G1 X121.051 Y91.781 E50.4215 F3600
G0 X120.498 Y91.769 F7200
G1 X126.309 Y85.958 E50.7631 F3600
G0 X126.309 Y85.392 F7200
G1 X119.932 Y91.769 E51.1381 F3600
G0 X119.367 Y91.769 F7200
G1 X126.309 Y84.827 E51.5462 F3600
G0 X126.242 Y84.328 F7200
G1 X118.801 Y91.769 E51.9837 F3600
G0 X118.235 Y91.769 F7200
G1 X125.814 Y84.190 E52.4293 F3600
G0 X125.248 Y84.190 F7200
G1 X117.696 Y91.743 E52.8734 F3600
G0 X117.388 Y91.485 F7200
G1 X124.683 Y84.190 E53.3023 F3600
G0 X124.117 Y84.190 F7200
G1 X117.372 Y90.935 E53.6989 F3600
G0 X117.372 Y90.370 F7200
G1 X123.551 Y84.190 E54.0622 F3600
G0 X122.985 Y84.190 F7200
G1 X117.372 Y89.804 E54.3923 F3600
G0 X117.372 Y89.238 F7200
G1 X122.420 Y84.190 E54.6891 F3600
G0 X121.854 Y84.190 F7200
G1 X117.372 Y88.673 E54.9527 F3600
G0 X117.372 Y88.107 F7200
G1 X121.288 Y84.190 E55.1830 F3600
G0 X120.723 Y84.190 F7200
G1 X117.372 Y87.541 E55.3800 F3600
G0 X117.372 Y86.976 F7200
G1 X120.157 Y84.190 E55.5438 F3600
G0 X119.591 Y84.190 F7200
G1 X117.372 Y86.410 E55.6743 F3600
G0 X117.372 Y85.844 F7200
G1 X119.026 Y84.190 E55.7716 F3600
G0 X118.460 Y84.190 F7200
G1 X117.372 Y85.279 E55.8356 F3600
G0 X117.372 Y84.713 F7200
G1 X117.894 Y84.190 E55.8663 F3600
G0 F3000 E54.8663
G0 X117.105 Y84.190 F7200
G0 X117.051 Y84.295
G0 X117.011 Y84.547
G0 X117.011 Y91.412
G0 X117.051 Y91.664
G0 X117.145 Y91.849
G0 X117.292 Y91.995
G0 X117.476 Y92.089
G0 X117.728 Y92.129
G0 X120.880 Y92.129
G0 X121.248 Y92.158
G0 X121.631 Y92.250
G0 X121.994 Y92.400
G0 X122.330 Y92.606
G0 X122.629 Y92.861
G0 X122.884 Y93.160
G0 X123.090 Y93.496
G0 X123.241 Y93.860
G0 X123.332 Y94.242
G0 X123.362 Y94.611
G0 X123.362 Y127.678
G0 X123.332 Y128.047
G0 X123.239 Y128.434
G0 X123.093 Y128.786
G0 X122.885 Y129.127
G0 X122.629 Y129.427
G0 X122.328 Y129.684
G0 X121.994 Y129.888
G0 X121.631 Y130.039
G0 X121.248 Y130.131
G0 X120.880 Y130.160
G0 X87.813 Y130.160
G0 X87.444 Y130.131
G0 X87.061 Y130.039
G0 X86.698 Y129.888
G0 X86.362 Y129.683
G0 X86.063 Y129.427
G0 X85.808 Y129.128
G0 X85.602 Y128.793
G0 X85.451 Y128.429
G0 X85.360 Y128.047
G0 X85.330 Y127.678
G0 X85.330 Y84.547
G0 X85.291 Y84.295
G0 X85.237 Y84.190
G0 X85.237 Y84.190
G0 X82.116 Y84.190
G0 X82.822 Y84.190
G0 F3000 E55.8663
G1 X82.383 Y84.629 E55.8921 F3600
G0 X82.383 Y85.195 F7200
G1 X83.388 Y84.190 E55.9511 F3600
G0 X83.953 Y84.190 F7200
G1 X82.383 Y85.760 E56.0435 F3600
G0 X82.383 Y86.326 F7200
G1 X84.519 Y84.190 E56.1690 F3600
G0 X84.918 Y84.357 F7200
G1 X82.383 Y86.892 E56.3181 F3600
G0 X82.383 Y87.457 F7200
G1 X84.970 Y84.870 E56.4702 F3600
G0 X84.970 Y85.436 F7200
G1 X82.383 Y88.023 E56.6223 F3600
G0 X82.383 Y88.589 F7200
G1 X84.970 Y86.001 E56.7744 F3600
G0 X84.970 Y86.567 F7200
G1 X82.383 Y89.154 E56.9266 F3600
G0 X82.383 Y89.720 F7200
G1 X84.970 Y87.133 E57.0787 F3600
G0 X84.970 Y87.699 F7200
G1 X82.383 Y90.286 E57.2308 F3600
G0 X82.383 Y90.851 F7200
G1 X84.970 Y88.264 E57.3829 F3600
G0 X84.970 Y88.830 F7200
G1 X82.383 Y91.417 E57.5351 F3600
G0 X82.383 Y91.983 F7200
G1 X84.970 Y89.396 E57.6872 F3600
G0 X84.970 Y89.961 F7200
G1 X82.383 Y92.549 E57.8393 F3600
G0 X82.383 Y93.114 F7200
G1 X84.970 Y90.527 E57.9914 F3600
G0 X84.970 Y91.093 F7200
G1 X82.383 Y93.680 E58.1436 F3600
G0 X82.383 Y94.246 F7200
G1 X84.970 Y91.658 E58.2957 F3600
G0 X84.970 Y92.224 F7200
G1 X82.383 Y94.811 E58.4478 F3600
G0 X82.383 Y95.377 F7200
G1 X84.970 Y92.790 E58.5999 F3600
G0 X84.970 Y93.355 F7200
G1 X82.383 Y95.943 E58.7520 F3600
G0 X82.383 Y96.508 F7200
G1 X84.970 Y93.921 E58.9042 F3600
G0 X84.970 Y94.487 F7200
G1 X82.383 Y97.074 E59.0563 F3600
G0 X82.383 Y97.640 F7200
G1 X84.970 Y95.052 E59.2084 F3600
G0 X84.970 Y95.618 F7200
G1 X82.383 Y98.205 E59.3605 F3600
G0 X82.383 Y98.771 F7200
G1 X84.970 Y96.184 E59.5127 F3600
G0 X84.970 Y96.749 F7200
G1 X82.383 Y99.337 E59.6648 F3600
G0 X82.383 Y99.902 F7200
G1 X84.970 Y97.315 E59.8169 F3600
G0 X84.970 Y97.881 F7200
G1 X82.383 Y100.468 E59.9690 F3600
G0 X82.383 Y101.034 F7200
G1 X84.970 Y98.447 E60.1211 F3600
G0 X84.970 Y99.012 F7200
G1 X82.383 Y101.600 E60.2733 F3600
G0 X82.383 Y102.165 F7200
G1 X84.970 Y99.578 E60.4254 F3600
G0 X84.970 Y100.144 F7200
G1 X82.383 Y102.731 E60.5775 F3600
G0 X82.383 Y103.297 F7200
G1 X84.970 Y100.709 E60.7296 F3600
G0 X84.970 Y101.275 F7200
G1 X82.383 Y103.862 E60.8818 F3600
G0 X82.383 Y104.428 F7200
G1 X84.970 Y101.841 E61.0339 F3600
G0 X84.970 Y102.406 F7200
G1 X82.383 Y104.994 E61.1860 F3600
G0 X82.383 Y105.559 F7200
G1 X84.970 Y102.972 E61.3381 F3600
G0 X84.970 Y103.538 F7200
G1 X82.383 Y106.125 E61.4902 F3600
G0 X82.383 Y106.691 F7200
G1 X84.970 Y104.103 E61.6424 F3600
G0 X84.970 Y104.669 F7200
G1 X82.383 Y107.256 E61.7945 F3600
G0 X82.383 Y107.822 F7200
G1 X84.970 Y105.235 E61.9466 F3600
G0 X84.970 Y105.800 F7200
G1 X82.383 Y108.388 E62.0987 F3600
G0 X82.383 Y108.953 F7200
G1 X84.970 Y106.366 E62.2509 F3600
G0 X84.970 Y106.932 F7200
G1 X82.383 Y109.519 E62.4030 F3600
G0 X82.383 Y110.085 F7200
G1 X84.970 Y107.498 E62.5551 F3600
G0 X84.970 Y108.063 F7200
G1 X82.383 Y110.650 E62.7072 F3600
G0 X82.383 Y111.216 F7200
G1 X84.970 Y108.629 E62.8593 F3600
G0 X84.970 Y109.195 F7200
G1 X82.383 Y111.782 E63.0115 F3600
G0 X82.383 Y112.348 F7200
G1 X84.970 Y109.760 E63.1636 F3600
G0 X84.970 Y110.326 F7200
G1 X82.383 Y112.913 E63.3157 F3600
G0 X82.383 Y113.479 F7200
G1 X84.970 Y110.892 E63.4678 F3600
G0 X84.970 Y111.457 F7200
G1 X82.383 Y114.045 E63.6200 F3600
G0 X82.383 Y114.610 F7200
G1 X84.970 Y112.023 E63.7721 F3600
G0 X84.970 Y112.589 F7200
G1 X82.383 Y115.176 E63.9242 F3600
G0 X82.383 Y115.742 F7200
G1 X84.970 Y113.154 E64.0763 F3600
G0 X84.970 Y113.720 F7200
G1 X82.383 Y116.307 E64.2285 F3600
G0 X82.383 Y116.873 F7200
G1 X84.970 Y114.286 E64.3806 F3600
G0 X84.970 Y114.851 F7200
G1 X82.383 Y117.439 E64.5327 F3600
G0 X82.383 Y118.004 F7200
G1 X84.970 Y115.417 E64.6848 F3600
G0 X84.970 Y115.983 F7200
G1 X82.383 Y118.570 E64.8369 F3600
G0 X82.383 Y119.136 F7200
G1 X84.970 Y116.548 E64.9891 F3600
G0 X84.970 Y117.114 F7200
G1 X82.383 Y119.701 E65.1412 F3600
G0 X82.383 Y120.267 F7200
G1 X84.970 Y117.680 E65.2933 F3600
G0 X84.970 Y118.246 F7200
G1 X82.383 Y120.833 E65.4454 F3600
G0 X82.383 Y121.399 F7200
G1 X84.970 Y118.811 E65.5976 F3600
G0 X84.970 Y119.377 F7200
G1 X82.383 Y121.964 E65.7497 F3600
G0 X82.383 Y122.530 F7200
G1 X84.970 Y119.943 E65.9018 F3600
G0 X84.970 Y120.508 F7200
G1 X82.383 Y123.096 E66.0539 F3600
G0 X82.383 Y123.661 F7200
G1 X84.970 Y121.074 E66.2060 F3600
G0 X84.970 Y121.640 F7200
G1 X82.383 Y124.227 E66.3582 F3600
G0 X82.383 Y124.793 F7200
G1 X84.970 Y122.205 E66.5103 F3600
G0 X84.970 Y122.771 F7200
G1 X82.383 Y125.358 E66.6624 F3600
G0 X82.383 Y125.924 F7200
G1 X84.970 Y123.337 E66.8145 F3600
G0 X84.970 Y123.902 F7200
G1 X82.383 Y126.490 E66.9667 F3600
G0 X82.383 Y127.055 F7200
G1 X84.970 Y124.468 E67.1188 F3600
G0 X84.970 Y125.034 F7200
G1 X82.383 Y127.621 E67.2709 F3600
G0 X82.383 Y128.187 F7200
G1 X84.970 Y125.599 E67.4230 F3600
G0 X84.970 Y126.165 F7200
G1 X82.387 Y128.748 E67.5749 F3600
G0 X82.428 Y129.273 F7200
G1 X84.970 Y126.731 E67.7244 F3600
G0 X84.970 Y127.297 F7200
G1 X82.519 Y129.748 E67.8685 F3600
G0 X82.643 Y130.189 F7200
G1 X84.983 Y127.850 E68.0060 F3600
G0 X85.059 Y128.339 F7200
G1 X82.809 Y130.589 E68.1383 F3600
G0 X83.008 Y130.956 F7200
G1 X85.200 Y128.764 E68.2672 F3600
G0 X85.391 Y129.138 F7200
G1 X83.224 Y131.306 E68.3947 F3600
G0 X83.484 Y131.611 F7200
G1 X85.626 Y129.470 E68.5206 F3600
G0 X85.900 Y129.761 F7200
G1 X83.758 Y131.903 E68.6465 F3600
G0 X84.063 Y132.163 F7200
G1 X86.213 Y130.014 E68.7729 F3600
G0 X86.568 Y130.224 F7200
G1 X84.395 Y132.397 E68.9007 F3600
G0 X84.746 Y132.612 F7200
G1 X86.971 Y130.387 E69.0315 F3600
G0 X87.433 Y130.491 F7200
G1 X85.142 Y132.781 E69.1661 F3600
G0 X85.562 Y132.928 F7200
G1 X87.970 Y130.520 E69.3077 F3600
G0 X88.535 Y130.520 F7200
G1 X86.018 Y133.037 E69.4557 F3600
G0 X86.534 Y133.087 F7200
G1 X89.101 Y130.520 E69.6066 F3600
G0 X89.667 Y130.520 F7200
G1 X87.079 Y133.107 E69.7588 F3600
G0 X87.645 Y133.107 F7200
G1 X90.232 Y130.520 E69.9109 F3600
G0 X90.798 Y130.520 F7200
G1 X88.210 Y133.107 E70.0631 F3600
G0 X88.776 Y133.107 F7200
G1 X91.364 Y130.520 E70.2152 F3600
G0 X91.929 Y130.520 F7200
G1 X89.342 Y133.107 E70.3673 F3600
G0 X89.908 Y133.107 F7200
G1 X92.495 Y130.520 E70.5195 F3600
G0 X93.061 Y130.520 F7200
G1 X90.473 Y133.107 E70.6716 F3600
G0 X91.039 Y133.107 F7200
G1 X93.626 Y130.520 E70.8237 F3600
G0 X94.192 Y130.520 F7200
G1 X91.605 Y133.107 E70.9759 F3600
G0 X92.170 Y133.107 F7200
G1 X94.758 Y130.520 E71.1280 F3600
G0 X95.323 Y130.520 F7200
G1 X92.736 Y133.107 E71.2802 F3600
G0 X93.302 Y133.107 F7200
G1 X95.889 Y130.520 E71.4323 F3600
G0 X96.455 Y130.520 F7200
G1 X93.867 Y133.107 E71.5844 F3600
G0 X94.433 Y133.107 F7200
G1 X97.021 Y130.520 E71.7366 F3600
G0 X97.586 Y130.520 F7200
G1 X94.999 Y133.107 E71.8887 F3600
G0 X95.564 Y133.107 F7200
G1 X98.152 Y130.520 E72.0408 F3600
G0 X98.718 Y130.520 F7200
G1 X96.130 Y133.107 E72.1930 F3600
G0 X96.696 Y133.107 F7200
G1 X99.283 Y130.520 E72.3451 F3600
G0 X99.849 Y130.520 F7200
G1 X97.261 Y133.107 E72.4973 F3600
G0 X97.827 Y133.107 F7200
G1 X100.415 Y130.520 E72.6494 F3600
G0 X100.980 Y130.520 F7200
G1 X98.393 Y133.107 E72.8015 F3600
G0 X98.958 Y133.107 F7200
G1 X101.546 Y130.520 E72.9537 F3600
G0 X102.112 Y130.520 F7200
G1 X99.524 Y133.107 E73.1058 F3600
G0 X100.090 Y133.107 F7200
G1 X102.677 Y130.520 E73.2579 F3600
G0 X103.243 Y130.520 F7200
G1 X100.656 Y133.107 E73.4101 F3600
G0 X101.221 Y133.107 F7200
G1 X103.809 Y130.520 E73.5622 F3600
G0 X104.374 Y130.520 F7200
G1 X101.787 Y133.107 E73.7144 F3600
G0 X102.353 Y133.107 F7200
G1 X104.940 Y130.520 E73.8665 F3600
G0 X105.506 Y130.520 F7200
G1 X102.918 Y133.107 E74.0186 F3600
G0 X103.484 Y133.107 F7200
G1 X106.072 Y130.520 E74.1708 F3600
G0 X106.637 Y130.520 F7200
G1 X104.050 Y133.107 E74.3229 F3600
G0 X104.615 Y133.107 F7200
G1 X107.203 Y130.520 E74.4750 F3600
G0 X107.769 Y130.520 F7200
G1 X105.181 Y133.107 E74.6272 F3600
G0 X105.747 Y133.107 F7200
G1 X108.334 Y130.520 E74.7793 F3600
G0 X108.900 Y130.520 F7200
G1 X106.312 Y133.107 E74.9315 F3600
G0 X106.878 Y133.107 F7200
G1 X109.466 Y130.520 E75.0836 F3600
G0 X110.031 Y130.520 F7200
G1 X107.444 Y133.107 E75.2357 F3600
G0 X108.009 Y133.107 F7200
G1 X110.597 Y130.520 E75.3879 F3600
G0 X111.163 Y130.520 F7200
G1 X108.575 Y133.107 E75.5400 F3600
G0 X109.141 Y133.107 F7200
G1 X111.728 Y130.520 E75.6921 F3600
G0 X112.294 Y130.520 F7200
G1 X109.707 Y133.107 E75.8443 F3600
G0 X110.272 Y133.107 F7200
G1 X112.860 Y130.520 E75.9964 F3600
G0 X113.425 Y130.520 F7200
G1 X110.838 Y133.107 E76.1486 F3600
G0 X111.404 Y133.107 F7200
G1 X113.991 Y130.520 E76.3007 F3600
G0 X114.557 Y130.520 F7200
G1 X111.969 Y133.107 E76.4528 F3600
G0 X112.535 Y133.107 F7200
G1 X115.122 Y130.520 E76.6050 F3600
G0 X115.688 Y130.520 F7200
G1 X113.101 Y133.107 E76.7571 F3600
G0 X113.666 Y133.107 F7200
G1 X116.254 Y130.520 E76.9093 F3600
G0 X116.820 Y130.520 F7200
G1 X114.232 Y133.107 E77.0614 F3600
G0 X114.798 Y133.107 F7200
G1 X117.385 Y130.520 E77.2135 F3600
G0 X117.951 Y130.520 F7200
G1 X115.363 Y133.107 E77.3657 F3600
G0 X115.929 Y133.107 F7200
G1 X118.517 Y130.520 E77.5178 F3600
G0 X119.082 Y130.520 F7200
G1 X116.495 Y133.107 E77.6699 F3600
G0 X117.060 Y133.107 F7200
G1 X119.648 Y130.520 E77.8221 F3600
G0 X120.214 Y130.520 F7200
G1 X117.626 Y133.107 E77.9742 F3600
G0 X118.192 Y133.107 F7200
G1 X120.779 Y130.520 E78.1264 F3600
G0 X121.400 Y130.464 F7200
G1 X118.757 Y133.107 E78.2817 F3600
G0 X119.323 Y133.107 F7200
G1 X122.318 Y130.112 E78.4579 F3600
G0 X126.111 Y133.107 F7200
G1 X128.953 Y130.266 E78.6249 F3600
G0 X129.519 Y130.266 F7200
G1 X126.677 Y133.107 E78.7920 F3600
G0 X127.243 Y133.107 F7200
G1 X130.084 Y130.266 E78.9591 F3600
G0 X130.650 Y130.266 F7200
G1 X127.808 Y133.107 E79.1262 F3600
G0 X128.374 Y133.107 F7200
G1 X131.216 Y130.266 E79.2932 F3600
G0 X131.781 Y130.266 F7200
G1 X128.940 Y133.107 E79.4603 F3600
G0 X129.505 Y133.107 F7200
G1 X132.347 Y130.266 E79.6274 F3600
G0 X132.913 Y130.266 F7200
G1 X130.071 Y133.107 E79.7945 F3600
G0 X130.637 Y133.107 F7200
G1 X133.479 Y130.266 E79.9615 F3600
G0 X134.044 Y130.266 F7200
G1 X131.203 Y133.107 E80.1286 F3600
G0 X131.768 Y133.107 F7200
G1 X134.610 Y130.266 E80.2957 F3600
G0 X135.176 Y130.266 F7200
G1 X132.334 Y133.107 E80.4628 F3600
G0 X132.900 Y133.107 F7200
G1 X135.741 Y130.266 E80.6298 F3600
G0 X136.307 Y130.266 F7200
G1 X133.465 Y133.107 E80.7969 F3600
G0 X134.031 Y133.107 F7200
G1 X136.873 Y130.266 E80.9640 F3600
G0 X137.438 Y130.266 F7200
G1 X134.597 Y133.107 E81.1311 F3600
G0 X135.162 Y133.107 F7200
G1 X138.004 Y130.266 E81.2982 F3600
G0 X138.570 Y130.266 F7200
G1 X135.728 Y133.107 E81.4652 F3600
G0 X136.294 Y133.107 F7200
G1 X139.135 Y130.266 E81.6323 F3600
G0 X139.701 Y130.266 F7200
G1 X136.859 Y133.107 E81.7994 F3600
G0 X137.425 Y133.107 F7200
G1 X140.267 Y130.266 E81.9665 F3600
G0 X140.832 Y130.266 F7200
G1 X137.991 Y133.107 E82.1335 F3600
G0 X138.556 Y133.107 F7200
G1 X141.398 Y130.266 E82.3006 F3600
G0 X141.964 Y130.266 F7200
G1 X139.122 Y133.107 E82.4677 F3600
G0 X139.688 Y133.107 F7200
G1 X142.529 Y130.266 E82.6348 F3600
G0 X143.095 Y130.266 F7200
G1 X140.253 Y133.107 E82.8019 F3600
G0 X140.819 Y133.107 F7200
G1 X143.661 Y130.266 E82.9689 F3600
G0 X144.227 Y130.266 F7200
G1 X141.385 Y133.107 E83.1360 F3600
G0 X141.951 Y133.107 F7200
G1 X144.792 Y130.266 E83.3031 F3600
G0 X145.358 Y130.266 F7200
G1 X142.516 Y133.107 E83.4702 F3600
G0 X143.082 Y133.107 F7200
G1 X145.370 Y130.819 E83.6047 F3600
G0 X145.370 Y131.385 F7200
G1 X143.648 Y133.107 E83.7060 F3600
G0 X144.213 Y133.107 F7200
G1 X145.370 Y131.950 E83.7741 F3600
G0 X145.370 Y132.516 F7200
G1 X144.779 Y133.107 E83.8088 F3600
G0 F3000 E82.8088
G0 X148.750 Y128.750 F7200
G0 F3000 E83.8088
;segType:Support
G1 X156.250 Y128.750 E84.0739 F5400
G0 F3000 E83.0739
G0 X162.894 Y130.266 F7200
G0 F3000 E84.0739
;segType:HShell
G1 X160.052 Y133.107 E84.2410 F3600
G0 X159.968 Y132.626 F7200
G1 X162.328 Y130.266 E84.3797 F3600
G0 X161.763 Y130.266 F7200
G1 X159.968 Y132.060 E84.4852 F3600
G0 X159.968 Y131.494 F7200
G1 X161.197 Y130.266 E84.5575 F3600
G0 X160.631 Y130.266 F7200
G1 X159.968 Y130.929 E84.5965 F3600
G0 X159.475 Y130.278 F7200
;segType:Perimeter
G1 X159.268 Y129.506 E84.6297 F2159
G1 X177.500 Y129.506 E85.3877
G1 X177.500 Y133.868 E85.5690
G1 X159.208 Y133.868 E86.3295
G1 X159.208 Y129.566 E86.5084
G0 X159.981 Y129.773 F7200
G0 X160.308 Y129.906
;segType:Loop
G1 X177.100 Y129.906 E87.2065 F3600
G1 X177.100 Y133.468 E87.3546
G1 X159.608 Y133.468 E88.0818
G1 X159.608 Y129.906 E88.2299
G1 X160.108 Y129.906 E88.2506
G0 F3000 E87.2506
G0 X160.108 Y129.906 F7200
G0 X160.676 Y133.468
G0 X160.618 Y133.107
G0 F3000 E88.2506
;segType:HShell
G1 X163.460 Y130.266 E88.4177 F3600
G0 X164.026 Y130.266 F7200
G1 X161.184 Y133.107 E88.5848 F3600
G0 X161.750 Y133.107 F7200
G1 X164.591 Y130.266 E88.7519 F3600
G0 X165.157 Y130.266 F7200
G1 X162.315 Y133.107 E88.9190 F3600
G0 X162.881 Y133.107 F7200
G1 X165.723 Y130.266 E89.0861 F3600
G0 X166.288 Y130.266 F7200
G1 X163.447 Y133.107 E89.2531 F3600
G0 X164.012 Y133.107 F7200
G1 X166.854 Y130.266 E89.4202 F3600
G0 X167.420 Y130.266 F7200
G1 X164.578 Y133.107 E89.5873 F3600
G0 X165.144 Y133.107 F7200
G1 X167.985 Y130.266 E89.7544 F3600
G0 X168.551 Y130.266 F7200
G1 X165.709 Y133.107 E89.9215 F3600
G0 X166.275 Y133.107 F7200
G1 X169.117 Y130.266 E90.0886 F3600
G0 X169.682 Y130.266 F7200
G1 X166.841 Y133.107 E90.2556 F3600
G0 X167.406 Y133.107 F7200
G1 X170.248 Y130.266 E90.4227 F3600
G0 X170.814 Y130.266 F7200
G1 X167.972 Y133.107 E90.5898 F3600
G0 X168.538 Y133.107 F7200
G1 X171.379 Y130.266 E90.7569 F3600
G0 X171.945 Y130.266 F7200
G1 X169.103 Y133.107 E90.9240 F3600
G0 X169.669 Y133.107 F7200
G1 X172.511 Y130.266 E91.0911 F3600
G0 X173.077 Y130.266 F7200
G1 X170.235 Y133.107 E91.2582 F3600
G0 X170.801 Y133.107 F7200
G1 X173.642 Y130.266 E91.4252 F3600
G0 X174.208 Y130.266 F7200
G1 X171.366 Y133.107 E91.5923 F3600
G0 X171.932 Y133.107 F7200
G1 X174.774 Y130.266 E91.7594 F3600
G0 X175.339 Y130.266 F7200
G1 X172.498 Y133.107 E91.9265 F3600
G0 X173.063 Y133.107 F7200
G1 X175.905 Y130.266 E92.0936 F3600
G0 X176.471 Y130.266 F7200
G1 X173.629 Y133.107 E92.2607 F3600
G0 X174.195 Y133.107 F7200
G1 X176.740 Y130.562 E92.4103 F3600
G0 X176.740 Y131.128 F7200
G1 X174.760 Y133.107 E92.5267 F3600
G0 X175.326 Y133.107 F7200
G1 X176.740 Y131.694 E92.6098 F3600
G0 X176.740 Y132.259 F7200
G1 X175.892 Y133.107 E92.6596 F3600
G0 F3000 E91.6596
G0 X165.833 Y138.075 F7200
G0 F3000 E92.6596
G1 X163.068 Y140.839 E92.8222 F3600
G0 X163.068 Y140.274 F7200
G1 X165.267 Y138.075 E92.9514 F3600
G0 X164.702 Y138.075 F7200
G1 X163.068 Y139.708 E93.0475 F3600
G0 X163.068 Y139.142 F7200
G1 X164.136 Y138.075 E93.1102 F3600
G0 X163.570 Y138.075 F7200
G1 X163.068 Y138.577 E93.1397 F3600
G0 X162.575 Y138.088 F7200
;segType:Perimeter
G1 X162.368 Y137.315 E93.1730 F2159
G1 X179.272 Y137.315 E93.8758
G1 X179.596 Y137.289 E93.8893
G1 X179.915 Y137.212 E93.9029
G1 X180.220 Y137.086 E93.9167
G1 X180.502 Y136.913 E93.9304
G1 X180.759 Y136.693 E93.9444
G1 X180.965 Y136.451 E93.9577
G1 X181.141 Y136.166 E93.9716
G1 X181.267 Y135.860 E93.9854
G1 X181.345 Y135.539 E93.9991
G1 X181.370 Y135.217 E94.0125
G1 X181.370 Y92.071 E95.8063
G1 X181.425 Y91.725 E95.8209
G1 X181.576 Y91.428 E95.8348
G1 X181.812 Y91.191 E95.8486
G1 X182.110 Y91.040 E95.8625
G1 X182.455 Y90.985 E95.8771
G1 X190.996 Y90.985 E96.2321
G1 X191.342 Y91.040 E96.2467
G1 X191.639 Y91.191 E96.2606
G1 X191.875 Y91.428 E96.2745
G1 X192.027 Y91.725 E96.2883
G1 X192.082 Y92.071 E96.3029
G1 X192.082 Y98.998 E96.5909
G1 X192.027 Y99.344 E96.6055
G1 X191.875 Y99.642 E96.6193
G1 X191.639 Y99.878 E96.6332
G1 X191.342 Y100.029 E96.6471
G1 X190.996 Y100.084 E96.6616
G1 X187.829 Y100.084 E96.7933
G1 X187.507 Y100.109 E96.8067
G1 X187.186 Y100.187 E96.8205
G1 X186.881 Y100.313 E96.8342
G1 X186.599 Y100.485 E96.8479
G1 X186.348 Y100.700 E96.8617
G1 X186.133 Y100.951 E96.8754
G1 X185.961 Y101.233 E96.8892
G1 X185.834 Y101.539 E96.9029
G1 X185.757 Y101.860 E96.9167
G1 X185.732 Y102.182 E96.9301
G1 X185.732 Y135.217 E98.3035
G1 X185.757 Y135.539 E98.3169
G1 X185.834 Y135.861 E98.3307
G1 X185.964 Y136.172 E98.3447
G1 X186.134 Y136.449 E98.3582
G1 X186.348 Y136.698 E98.3719
G1 X186.599 Y136.913 E98.3856
G1 X186.881 Y137.086 E98.3994
G1 X187.186 Y137.212 E98.4131
G1 X187.507 Y137.289 E98.4269
G1 X187.829 Y137.315 E98.4403
G1 X220.865 Y137.315 E99.8137
G1 X221.186 Y137.289 E99.8271
G1 X221.508 Y137.212 E99.8409
G1 X221.813 Y137.086 E99.8546
G1 X222.095 Y136.913 E99.8684
G1 X222.346 Y136.699 E99.8821
G1 X222.561 Y136.447 E99.8958
G1 X222.733 Y136.165 E99.9096
G1 X222.860 Y135.860 E99.9233
G1 X222.937 Y135.539 E99.9371
G1 X222.962 Y135.217 E99.9505
G1 X222.962 Y93.975 E101.6651
G1 X223.017 Y93.630 E101.6797
G1 X223.169 Y93.333 E101.6935
G1 X223.405 Y93.096 E101.7074
G1 X223.702 Y92.945 E101.7213
G1 X224.048 Y92.890 E101.7358
G1 X226.239 Y92.890 E101.8269
G1 X226.584 Y92.945 E101.8415
G1 X226.882 Y93.096 E101.8553
G1 X227.118 Y93.333 E101.8692
G1 X227.269 Y93.630 E101.8831
G1 X227.324 Y93.975 E101.8976
G1 X227.324 Y135.519 E103.6248
G1 X227.248 Y136.489 E103.6653
G1 X227.023 Y137.427 E103.7054
G1 X226.653 Y138.318 E103.7455
G1 X226.149 Y139.141 E103.7856
G1 X225.522 Y139.875 E103.8257
G1 X224.789 Y140.501 E103.8658
G1 X223.966 Y141.006 E103.9059
G1 X223.075 Y141.375 E103.9461
G1 X222.136 Y141.600 E103.9862
G1 X221.166 Y141.677 E104.0266
G1 X162.308 Y141.677 E106.4737
G1 X162.308 Y137.375 E106.6525
G0 X163.081 Y137.582 F7200
G0 X163.408 Y137.715
;segType:Loop
G1 X179.288 Y137.715 E107.3127 F3600
G1 X179.659 Y137.685 E107.3282
G1 X180.040 Y137.594 E107.3445
G1 X180.403 Y137.443 E107.3608
G1 X180.739 Y137.237 E107.3772
G1 X181.043 Y136.976 E107.3938
G1 X181.290 Y136.687 E107.4097
G1 X181.498 Y136.348 E107.4262
G1 X181.649 Y135.984 E107.4426
G1 X181.741 Y135.602 E107.4589
G1 X181.770 Y135.233 E107.4743
G1 X181.770 Y92.102 E109.2675
G1 X181.810 Y91.850 E109.2781
G1 X181.904 Y91.666 E109.2867
G1 X182.050 Y91.519 E109.2953
G1 X182.235 Y91.425 E109.3039
G1 X182.487 Y91.385 E109.3145
G1 X190.965 Y91.385 E109.6670
G1 X191.217 Y91.425 E109.6776
G1 X191.401 Y91.519 E109.6862
G1 X191.548 Y91.666 E109.6948
G1 X191.642 Y91.850 E109.7034
G1 X191.682 Y92.102 E109.7140
G1 X191.682 Y98.967 E109.9995
G1 X191.642 Y99.219 E110.0101
G1 X191.548 Y99.404 E110.0187
G1 X191.401 Y99.550 E110.0273
G1 X191.217 Y99.644 E110.0359
G1 X190.965 Y99.684 E110.0465
G1 X187.813 Y99.684 E110.1775
G1 X187.445 Y99.713 E110.1929
G1 X187.062 Y99.805 E110.2093
G1 X186.699 Y99.955 E110.2256
G1 X186.363 Y100.161 E110.2420
G1 X186.064 Y100.417 E110.2583
G1 X185.809 Y100.716 E110.2747
G1 X185.603 Y101.051 E110.2910
G1 X185.452 Y101.415 E110.3074
G1 X185.361 Y101.797 E110.3238
G1 X185.332 Y102.166 E110.3391
G1 X185.332 Y135.233 E111.7139
G1 X185.361 Y135.602 E111.7293
G1 X185.453 Y135.985 E111.7457
G1 X185.607 Y136.355 E111.7624
G1 X185.810 Y136.685 E111.7784
G1 X186.064 Y136.982 E111.7947
G1 X186.363 Y137.238 E111.8111
G1 X186.699 Y137.443 E111.8274
G1 X187.062 Y137.594 E111.8438
G1 X187.445 Y137.686 E111.8601
G1 X187.813 Y137.715 E111.8755
G1 X220.881 Y137.715 E113.2503
G1 X221.249 Y137.686 E113.2657
G1 X221.632 Y137.594 E113.2820
G1 X221.995 Y137.443 E113.2984
G1 X222.331 Y137.238 E113.3147
G1 X222.630 Y136.982 E113.3311
G1 X222.885 Y136.683 E113.3475
G1 X223.091 Y136.348 E113.3638
G1 X223.241 Y135.984 E113.3802
G1 X223.333 Y135.601 E113.3965
G1 X223.362 Y135.233 E113.4119
G1 X223.362 Y94.007 E115.1259
G1 X223.402 Y93.755 E115.1365
G1 X223.496 Y93.570 E115.1451
G1 X223.643 Y93.424 E115.1537
G1 X223.827 Y93.330 E115.1623
G1 X224.079 Y93.290 E115.1729
G1 X226.207 Y93.290 E115.2614
G1 X226.459 Y93.330 E115.2720
G1 X226.643 Y93.424 E115.2806
G1 X226.790 Y93.571 E115.2892
G1 X226.884 Y93.756 E115.2978
G1 X226.924 Y94.007 E115.3084
G1 X226.924 Y135.503 E117.0336
G1 X226.851 Y136.426 E117.0721
G1 X226.641 Y137.303 E117.1096
G1 X226.296 Y138.136 E117.1471
G1 X225.824 Y138.905 E117.1846
G1 X225.239 Y139.591 E117.2221
G1 X224.553 Y140.177 E117.2596
G1 X223.784 Y140.648 E117.2971
G1 X222.951 Y140.993 E117.3346
G1 X222.074 Y141.204 E117.3721
G1 X221.151 Y141.277 E117.4106
G1 X162.708 Y141.277 E119.8403
G1 X162.708 Y137.715 E119.9884
G1 X163.208 Y137.715 E120.0092
G0 F3000 E119.0092
G0 X163.208 Y137.715 F7200
G0 X163.596 Y141.277
G0 X163.557 Y140.916
G0 F3000 E120.0092
;segType:HShell
G1 X166.399 Y138.075 E120.1763 F3600
G0 X166.964 Y138.075 F7200
G1 X164.123 Y140.916 E120.3433 F3600
G0 X164.689 Y140.916 F7200
G1 X167.530 Y138.075 E120.5104 F3600
G0 X168.096 Y138.075 F7200
G1 X165.254 Y140.916 E120.6775 F3600
G0 X165.820 Y140.916 F7200
G1 X168.661 Y138.075 E120.8445 F3600
G0 X169.227 Y138.075 F7200
G1 X166.386 Y140.916 E121.0116 F3600
G0 X166.951 Y140.916 F7200
G1 X169.793 Y138.075 E121.1787 F3600
G0 X170.358 Y138.075 F7200
G1 X167.517 Y140.916 E121.3457 F3600
G0 X168.083 Y140.916 F7200
G1 X170.924 Y138.075 E121.5128 F3600
G0 X171.490 Y138.075 F7200
G1 X168.648 Y140.916 E121.6799 F3600
G0 X169.214 Y140.916 F7200
G1 X172.055 Y138.075 E121.8469 F3600
G0 X172.621 Y138.075 F7200
G1 X169.780 Y140.916 E122.0140 F3600
G0 X170.345 Y140.916 F7200
G1 X173.187 Y138.075 E122.1811 F3600
G0 X173.753 Y138.075 F7200
G1 X170.911 Y140.916 E122.3481 F3600
G0 X171.477 Y140.916 F7200
G1 X174.318 Y138.075 E122.5152 F3600
G0 X174.884 Y138.075 F7200
G1 X172.042 Y140.916 E122.6823 F3600
G0 X172.608 Y140.916 F7200
G1 X175.450 Y138.075 E122.8493 F3600
G0 X176.015 Y138.075 F7200
G1 X173.174 Y140.916 E123.0164 F3600
G0 X173.740 Y140.916 F7200
G1 X176.581 Y138.075 E123.1835 F3600
G0 X177.147 Y138.075 F7200
G1 X174.305 Y140.916 E123.3505 F3600
G0 X174.871 Y140.916 F7200
G1 X177.712 Y138.075 E123.5176 F3600
G0 X178.278 Y138.075 F7200
G1 X175.437 Y140.916 E123.6847 F3600
G0 X176.002 Y140.916 F7200
G1 X178.844 Y138.075 E123.8517 F3600
G0 X179.419 Y138.066 F7200
G1 X176.568 Y140.916 E124.0193 F3600
G0 X177.134 Y140.916 F7200
G1 X180.101 Y137.949 E124.1938 F3600
G0 F3000 E123.1938
G0 X185.332 Y132.718 F7200
G0 X185.332 Y135.233
G0 X185.361 Y135.602
G0 X185.453 Y135.985
G0 X185.607 Y136.355
G0 X185.810 Y136.685
G0 X186.064 Y136.982
G0 X186.363 Y137.238
G0 X186.699 Y137.443
G0 X187.062 Y137.594
G0 X187.445 Y137.686
G0 X187.813 Y137.715
G0 X220.881 Y137.715
G0 X221.249 Y137.686
G0 X221.632 Y137.594
G0 X221.995 Y137.443
G0 X222.331 Y137.238
G0 X222.630 Y136.982
G0 X222.885 Y136.683
G0 X223.091 Y136.348
G0 X223.241 Y135.984
G0 X223.333 Y135.601
G0 X223.362 Y135.233
G0 X223.362 Y94.688
G0 X223.362 Y94.688
G0 X224.760 Y93.290
G0 X224.400 Y93.650
G0 F3000 E124.1938
G1 X223.722 Y94.328 E124.2336 F3600
G0 X223.722 Y94.893 F7200
G1 X224.965 Y93.650 E124.3067 F3600
G0 X225.531 Y93.650 F7200
G1 X223.722 Y95.459 E124.4130 F3600
G0 X223.722 Y96.025 F7200
G1 X226.097 Y93.650 E124.5526 F3600
G0 X226.498 Y93.814 F7200
G1 X223.722 Y96.590 E124.7158 F3600
G0 X223.722 Y97.156 F7200
G1 X226.564 Y94.315 E124.8829 F3600
G0 X226.564 Y94.880 F7200
G1 X223.722 Y97.722 E125.0500 F3600
G0 X223.722 Y98.287 F7200
G1 X226.564 Y95.446 E125.2170 F3600
G0 X226.564 Y96.012 F7200
G1 X223.722 Y98.853 E125.3841 F3600
G0 X223.722 Y99.419 F7200
G1 X226.564 Y96.577 E125.5512 F3600
G0 X226.564 Y97.143 F7200
G1 X223.722 Y99.984 E125.7182 F3600
G0 X223.722 Y100.550 F7200
G1 X226.564 Y97.709 E125.8853 F3600
G0 X226.564 Y98.274 F7200
G1 X223.722 Y101.116 E126.0524 F3600
G0 X223.722 Y101.681 F7200
G1 X226.564 Y98.840 E126.2195 F3600
G0 X226.564 Y99.406 F7200
G1 X223.722 Y102.247 E126.3865 F3600
G0 X223.722 Y102.813 F7200
G1 X226.564 Y99.971 E126.5536 F3600
G0 X226.564 Y100.537 F7200
G1 X223.722 Y103.379 E126.7207 F3600
G0 X223.722 Y103.944 F7200
G1 X226.564 Y101.103 E126.8877 F3600
G0 X226.564 Y101.668 F7200
G1 X223.722 Y104.510 E127.0548 F3600
G0 X223.722 Y105.076 F7200
G1 X226.564 Y102.234 E127.2219 F3600
G0 X226.564 Y102.800 F7200
G1 X223.722 Y105.641 E127.3889 F3600
G0 X223.722 Y106.207 F7200
G1 X226.564 Y103.365 E127.5560 F3600
G0 X226.564 Y103.931 F7200
G1 X223.722 Y106.773 E127.7231 F3600
G0 X223.722 Y107.338 F7200
G1 X226.564 Y104.497 E127.8901 F3600
G0 X226.564 Y105.063 F7200
G1 X223.722 Y107.904 E128.0572 F3600
G0 X223.722 Y108.470 F7200
G1 X226.564 Y105.628 E128.2243 F3600
G0 X226.564 Y106.194 F7200
G1 X223.722 Y109.035 E128.3913 F3600
G0 X223.722 Y109.601 F7200
G1 X226.564 Y106.760 E128.5584 F3600
G0 X226.564 Y107.325 F7200
G1 X223.722 Y110.167 E128.7255 F3600
G0 X223.722 Y110.732 F7200
G1 X226.564 Y107.891 E128.8926 F3600
G0 X226.564 Y108.457 F7200
G1 X223.722 Y111.298 E129.0596 F3600
G0 X223.722 Y111.864 F7200
G1 X226.564 Y109.022 E129.2267 F3600
G0 X226.564 Y109.588 F7200
G1 X223.722 Y112.430 E129.3938 F3600
G0 X223.722 Y112.995 F7200
G1 X226.564 Y110.154 E129.5608 F3600
G0 X226.564 Y110.719 F7200
G1 X223.722 Y113.561 E129.7279 F3600
G0 X223.722 Y114.127 F7200
G1 X226.564 Y111.285 E129.8950 F3600
G0 X226.564 Y111.851 F7200
G1 X223.722 Y114.692 E130.0620 F3600
G0 X223.722 Y115.258 F7200
G1 X226.564 Y112.416 E130.2291 F3600
G0 X226.564 Y112.982 F7200
G1 X223.722 Y115.824 E130.3962 F3600
G0 X223.722 Y116.389 F7200
G1 X226.564 Y113.548 E130.5632 F3600
G0 X226.564 Y114.114 F7200
G1 X223.722 Y116.955 E130.7303 F3600
G0 X223.722 Y117.521 F7200
G1 X226.564 Y114.679 E130.8974 F3600
G0 X226.564 Y115.245 F7200
G1 X223.722 Y118.086 E131.0644 F3600
G0 X223.722 Y118.652 F7200
G1 X226.564 Y115.811 E131.2315 F3600
G0 X226.564 Y116.376 F7200
G1 X223.722 Y119.218 E131.3986 F3600
G0 X223.722 Y119.783 F7200
G1 X226.564 Y116.942 E131.5656 F3600
G0 X226.564 Y117.508 F7200
G1 X223.722 Y120.349 E131.7327 F3600
G0 X223.722 Y120.915 F7200
G1 X226.564 Y118.073 E131.8998 F3600
G0 X226.564 Y118.639 F7200
G1 X223.722 Y121.481 E132.0669 F3600
G0 X223.722 Y122.046 F7200
G1 X226.564 Y119.205 E132.2339 F3600
G0 X226.564 Y119.770 F7200
G1 X223.722 Y122.612 E132.4010 F3600
G0 X223.722 Y123.178 F7200
G1 X226.564 Y120.336 E132.5681 F3600
G0 X226.564 Y120.902 F7200
G1 X223.722 Y123.743 E132.7351 F3600
G0 X223.722 Y124.309 F7200
G1 X226.564 Y121.467 E132.9022 F3600
G0 X226.564 Y122.033 F7200
G1 X223.722 Y124.875 E133.0693 F3600
G0 X223.722 Y125.440 F7200
G1 X226.564 Y122.599 E133.2363 F3600
G0 X226.564 Y123.165 F7200
G1 X223.722 Y126.006 E133.4034 F3600
G0 X223.722 Y126.572 F7200
G1 X226.564 Y123.730 E133.5705 F3600
G0 X226.564 Y124.296 F7200
G1 X223.722 Y127.137 E133.7375 F3600
G0 X223.722 Y127.703 F7200
G1 X226.564 Y124.862 E133.9046 F3600
G0 X226.564 Y125.427 F7200
G1 X223.722 Y128.269 E134.0717 F3600
G0 X223.722 Y128.834 F7200
G1 X226.564 Y125.993 E134.2387 F3600
G0 X226.564 Y126.559 F7200
G1 X223.722 Y129.400 E134.4058 F3600
G0 X223.722 Y129.966 F7200
G1 X226.564 Y127.124 E134.5729 F3600
G0 X226.564 Y127.690 F7200
G1 X223.722 Y130.532 E134.7400 F3600
G0 X223.722 Y131.097 F7200
G1 X226.564 Y128.256 E134.9070 F3600
G0 X226.564 Y128.821 F7200
G1 X223.722 Y131.663 E135.0741 F3600
G0 X223.722 Y132.229 F7200
G1 X226.564 Y129.387 E135.2412 F3600
G0 X226.564 Y129.953 F7200
G1 X223.722 Y132.794 E135.4082 F3600
G0 X223.722 Y133.360 F7200
G1 X226.564 Y130.518 E135.5753 F3600
G0 X226.564 Y131.084 F7200
G1 X223.722 Y133.926 E135.7424 F3600
G0 X223.722 Y134.491 F7200
G1 X226.564 Y131.650 E135.9094 F3600
G0 X226.564 Y132.216 F7200
G1 X223.722 Y135.057 E136.0765 F3600
G0 X223.690 Y135.655 F7200
G1 X226.564 Y132.781 E136.2454 F3600
G0 X226.564 Y133.347 F7200
G1 X223.422 Y136.488 E136.4302 F3600
G0 X226.564 Y133.913 F7200
G1 X219.560 Y140.916 E136.8419 F3600
G0 X220.126 Y140.916 F7200
G1 X226.564 Y134.478 E137.2205 F3600
G0 X226.564 Y135.044 F7200
G1 X220.692 Y140.916 E137.5657 F3600
G0 X221.267 Y140.906 F7200
G1 X226.554 Y135.620 E137.8765 F3600
G0 X226.505 Y136.234 F7200
G1 X221.881 Y140.858 E138.1484 F3600
G0 X222.597 Y140.708 F7200
G1 X226.355 Y136.950 E138.3694 F3600
G0 X226.027 Y137.843 F7200
G1 X223.491 Y140.380 E138.5185 F3600
G0 F3000 E137.5185
G0 X223.658 Y140.701 F7200
G0 X221.969 Y137.454
G0 X222.136 Y137.775
G0 F3000 E138.5185
G1 X218.994 Y140.916 E138.7032 F3600
G0 X218.429 Y140.916 F7200
G1 X221.302 Y138.043 E138.8722 F3600
G0 X220.705 Y138.075 F7200
G1 X217.863 Y140.916 E139.0392 F3600
G0 X217.297 Y140.916 F7200
G1 X220.139 Y138.075 E139.2063 F3600
G0 X219.573 Y138.075 F7200
G1 X216.732 Y140.916 E139.3734 F3600
G0 X216.166 Y140.916 F7200
G1 X219.007 Y138.075 E139.5404 F3600
G0 X218.442 Y138.075 F7200
G1 X215.600 Y140.916 E139.7075 F3600
G0 X215.035 Y140.916 F7200
G1 X217.876 Y138.075 E139.8746 F3600
G0 X217.310 Y138.075 F7200
G1 X214.469 Y140.916 E140.0416 F3600
G0 X213.903 Y140.916 F7200
G1 X216.745 Y138.075 E140.2087 F3600
G0 X216.179 Y138.075 F7200
G1 X213.338 Y140.916 E140.3758 F3600
G0 X212.772 Y140.916 F7200
G1 X215.613 Y138.075 E140.5429 F3600
G0 X215.048 Y138.075 F7200
G1 X212.206 Y140.916 E140.7099 F3600
G0 X211.641 Y140.916 F7200
G1 X214.482 Y138.075 E140.8770 F3600
G0 X213.916 Y138.075 F7200
G1 X211.075 Y140.916 E141.0441 F3600
G0 X210.509 Y140.916 F7200
G1 X213.351 Y138.075 E141.2111 F3600
G0 X212.785 Y138.075 F7200
G1 X209.943 Y140.916 E141.3782 F3600
G0 X209.378 Y140.916 F7200
G1 X212.219 Y138.075 E141.5453 F3600
G0 X211.654 Y138.075 F7200
G1 X208.812 Y140.916 E141.7123 F3600
G0 X208.246 Y140.916 F7200
G1 X211.088 Y138.075 E141.8794 F3600
G0 X210.522 Y138.075 F7200
G1 X207.681 Y140.916 E142.0465 F3600
G0 X207.115 Y140.916 F7200
G1 X209.956 Y138.075 E142.2135 F3600
G0 X209.391 Y138.075 F7200
G1 X206.549 Y140.916 E142.3806 F3600
G0 X205.984 Y140.916 F7200
G1 X208.825 Y138.075 E142.5477 F3600
G0 X208.259 Y138.075 F7200
G1 X205.418 Y140.916 E142.7147 F3600
G0 X204.852 Y140.916 F7200
G1 X207.694 Y138.075 E142.8818 F3600
G0 X207.128 Y138.075 F7200
G1 X204.287 Y140.916 E143.0489 F3600
G0 X203.721 Y140.916 F7200
G1 X206.562 Y138.075 E143.2159 F3600
G0 X205.997 Y138.075 F7200
G1 X203.155 Y140.916 E143.3830 F3600
G0 X202.590 Y140.916 F7200
G1 X205.431 Y138.075 E143.5501 F3600
G0 X204.865 Y138.075 F7200
G1 X202.024 Y140.916 E143.7172 F3600
G0 X201.458 Y140.916 F7200
G1 X204.300 Y138.075 E143.8842 F3600
G0 X203.734 Y138.075 F7200
G1 X200.892 Y140.916 E144.0513 F3600
G0 X200.327 Y140.916 F7200
G1 X203.168 Y138.075 E144.2184 F3600
G0 X202.603 Y138.075 F7200
G1 X199.761 Y140.916 E144.3854 F3600
G0 X199.195 Y140.916 F7200
G1 X202.037 Y138.075 E144.5525 F3600
G0 X201.471 Y138.075 F7200
G1 X198.630 Y140.916 E144.7196 F3600
