; GCode generated by CraftWare

G28 X0 Y0
G28 Z0


M104 S215 ;set head temp (no wait)
M190 S60 ;set bed temp (wait)
M109 S215 ;set head temp (wait)
; ------------------------------------
; Layer #0
; ------------------------------------
M106 S0 ;turn off fan
G21 ; mm
G90 ; abs
G92 E0 ;reset extr
G0 F1200 Z0.250
;segType:Skirt
G0 F3000 E-1.0000
G0 X116.292 Y84.411 F5400
G0 F3000 E0.0000
G1 X118.006 Y86.125 E0.1008 F2400
G1 X118.387 Y86.760 E0.1315
G1 X118.641 Y87.013 E0.1465
G1 X119.021 Y88.156 E0.1965
G1 X119.021 Y88.410 E0.2071
G1 X119.148 Y88.536 E0.2145
G1 X119.148 Y96.152 E0.5311
G1 X119.592 Y96.215 E0.5498
G1 X127.208 Y96.215 E0.8664
G1 X127.525 Y96.279 E0.8798
G1 X127.969 Y96.215 E0.8985
G1 X137.362 Y96.215 E1.2890
G1 X137.488 Y96.342 E1.2965
G1 X137.615 Y96.215 E1.3039
G1 X140.662 Y96.215 E1.4306
G1 X140.725 Y95.771 E1.4492
G1 X140.725 Y88.663 E1.7447
G1 X140.852 Y88.283 E1.7614
G1 X140.852 Y88.029 E1.7720
G1 X140.979 Y87.902 E1.7794
G1 X140.979 Y87.648 E1.7900
G1 X141.106 Y87.521 E1.7974
G1 X141.106 Y87.267 E1.8080
G1 X141.486 Y86.633 E1.8388
G1 X141.994 Y86.125 E1.8686
G1 X142.185 Y85.807 E1.8840
G1 X145.738 Y82.253 E2.0930
G1 X146.056 Y82.063 E2.1083
G1 X146.309 Y81.809 E2.1233
G1 X146.627 Y81.619 E2.1387
G1 X146.881 Y81.365 E2.1536
G1 X147.135 Y81.365 E2.1641
G1 X147.452 Y81.175 E2.1795
G1 X147.896 Y81.111 E2.1982
G1 X148.023 Y80.984 E2.2056
G1 X148.531 Y80.984 E2.2267
G1 X148.912 Y80.857 E2.2434
G1 X151.958 Y80.857 E2.3701
G1 X152.846 Y80.984 E2.4074
G1 X153.100 Y80.984 E2.4179
G1 X153.227 Y81.111 E2.4254
G1 X153.671 Y81.175 E2.4441
G1 X154.052 Y81.302 E2.4608
G1 X154.687 Y81.683 E2.4915
G1 X154.941 Y81.936 E2.5065
G1 X155.258 Y82.127 E2.5218
G1 X159.065 Y85.934 E2.7457
G1 X159.256 Y86.252 E2.7611
G1 X159.764 Y86.760 E2.7909
G1 X159.891 Y87.140 E2.8076
G1 X160.081 Y87.457 E2.8230
G1 X160.208 Y87.838 E2.8397
G1 X160.271 Y88.283 E2.8584
G1 X160.398 Y88.410 E2.8658
G1 X160.398 Y94.375 E3.1138
G0 X160.398 Y94.629 F5400
G1 X160.398 Y103.006 E3.4621 F2400
G1 X156.591 Y106.813 E3.6860
G1 X156.146 Y106.877 E3.7047
G1 X144.977 Y106.877 E4.1690
G1 X144.532 Y106.813 E4.1877
G1 X141.740 Y104.021 E4.3519
G1 X141.423 Y103.831 E4.3672
G1 X118.323 Y103.831 E5.3276
G1 X115.277 Y106.877 E5.5067
G1 X103.600 Y106.877 E5.9922
G1 X103.282 Y106.813 E6.0057
G1 X99.475 Y103.006 E6.2295
G1 X99.475 Y88.790 E6.8205
G1 X99.602 Y87.902 E6.8579
G1 X99.729 Y87.775 E6.8653
G1 X99.729 Y87.521 E6.8759
G1 X100.490 Y86.252 E6.9374
G1 X104.552 Y82.190 E7.1762
G1 X104.869 Y82.000 E7.1916
G1 X105.123 Y81.746 E7.2065
G1 X105.758 Y81.365 E7.2373
G1 X106.138 Y81.238 E7.2540
G1 X106.265 Y81.111 E7.2615
G1 X106.519 Y81.111 E7.2720
G1 X106.646 Y80.984 E7.2795
G1 X107.408 Y80.984 E7.3111
G1 X107.535 Y80.857 E7.3186
G1 X111.088 Y80.857 E7.4663
G1 X111.215 Y80.984 E7.4738
G1 X111.723 Y80.984 E7.4949
G1 X112.104 Y81.111 E7.5116
G1 X112.358 Y81.111 E7.5222
G1 X112.992 Y81.492 E7.5529
G1 X113.373 Y81.619 E7.5696
G1 X113.881 Y82.127 E7.5995
G1 X114.198 Y82.317 E7.6149
G1 X116.229 Y84.348 E7.7343
G0 X118.260 Y85.998 F5400
G1 X118.450 Y86.315 E7.7496 F2400
G1 X118.704 Y86.569 E7.7646
G1 X119.085 Y87.203 E7.7953
G1 X119.338 Y87.965 E7.8287
G1 X119.402 Y88.410 E7.8474
G1 X119.529 Y88.536 E7.8548
G1 X119.529 Y95.644 E8.1503
G1 X119.592 Y95.834 E8.1587
G1 X127.208 Y95.834 E8.4753
G1 X127.525 Y95.898 E8.4887
G1 X127.969 Y95.834 E8.5074
G1 X137.362 Y95.834 E8.8979
G1 X137.488 Y95.961 E8.9053
G1 X137.615 Y95.834 E8.9128
G1 X140.154 Y95.834 E9.0183
G1 X140.344 Y95.771 E9.0267
G1 X140.344 Y88.663 E9.3222
G1 X140.471 Y88.283 E9.3389
G1 X140.471 Y88.029 E9.3494
G1 X140.598 Y87.902 E9.3569
G1 X140.598 Y87.648 E9.3674
G1 X140.725 Y87.521 E9.3749
G1 X140.725 Y87.267 E9.3854
G1 X141.106 Y86.633 E9.4162
G1 X141.613 Y86.125 E9.4461
G1 X141.804 Y85.807 E9.4615
G1 X145.865 Y81.746 E9.7003
G1 X146.182 Y81.556 E9.7156
G1 X146.436 Y81.302 E9.7306
G1 X146.881 Y80.984 E9.7533
G1 X147.135 Y80.984 E9.7638
G1 X147.452 Y80.794 E9.7792
G1 X147.896 Y80.730 E9.7979
G1 X148.023 Y80.603 E9.8053
G1 X148.531 Y80.603 E9.8264
G1 X148.912 Y80.477 E9.8431
G1 X151.958 Y80.477 E9.9698
G1 X152.846 Y80.603 E10.0071
G1 X153.100 Y80.603 E10.0176
G1 X153.227 Y80.730 E10.0251
G1 X153.671 Y80.794 E10.0438
G1 X154.052 Y80.921 E10.0604
G1 X154.687 Y81.302 E10.0912
G1 X154.941 Y81.556 E10.1061
G1 X155.258 Y81.746 E10.1215
G1 X159.573 Y86.061 E10.3752
G1 X159.764 Y86.379 E10.3906
G1 X160.018 Y86.633 E10.4056
G1 X160.098 Y86.767 E10.4121
G0 F3000 E9.4121
G0 X113.525 Y96.413 F5400
G0 X105.200 Y98.137
G0 X105.561 Y98.062
G0 F3000 E10.4121
;segType:HShell
G1 X108.343 Y100.844 E10.5756 F2400
G0 X107.777 Y100.844 F5400
G1 X105.561 Y98.628 E10.7060 F2400
G0 X105.561 Y99.193 F5400
G1 X107.211 Y100.844 E10.8030 F2400
G0 X106.646 Y100.844 F5400
G1 X105.561 Y99.759 E10.8668 F2400
G0 X105.561 Y100.325 F5400
G1 X106.080 Y100.844 E10.8973 F2400
G0 X105.573 Y101.337 F5400
;segType:Perimeter
G1 X104.800 Y101.544 E10.9306 F1439
G1 X104.800 Y90.382 E11.3947
G1 X104.853 Y89.711 E11.4227
G1 X105.009 Y89.063 E11.4503
G1 X105.264 Y88.448 E11.4780
G1 X105.611 Y87.880 E11.5057
G1 X106.044 Y87.374 E11.5334
G1 X106.550 Y86.941 E11.5611
G1 X107.118 Y86.593 E11.5888
G1 X107.734 Y86.338 E11.6165
G1 X108.381 Y86.183 E11.6442
G1 X109.053 Y86.130 E11.6722
G1 X109.672 Y86.130 E11.6979
G1 X110.344 Y86.183 E11.7259
G1 X110.991 Y86.338 E11.7536
G1 X111.607 Y86.593 E11.7813
G1 X112.175 Y86.941 E11.8090
G1 X112.681 Y87.374 E11.8367
G1 X113.114 Y87.880 E11.8644
G1 X113.461 Y88.448 E11.8921
G1 X113.716 Y89.063 E11.9198
G1 X113.872 Y89.711 E11.9474
G1 X113.925 Y90.382 E11.9754
G1 X113.925 Y101.604 E12.4420
G1 X104.860 Y101.604 E12.8188
G0 X105.067 Y100.831 F5400
G0 X105.200 Y100.504
;segType:Loop
G1 X105.200 Y90.398 E13.2390 F2400
G1 X105.250 Y89.774 E13.2650
G1 X105.390 Y89.187 E13.2901
G1 X105.621 Y88.630 E13.3152
G1 X105.936 Y88.116 E13.3402
G1 X106.328 Y87.657 E13.3653
G1 X106.786 Y87.266 E13.3904
G1 X107.300 Y86.951 E13.4155
G1 X107.858 Y86.720 E13.4405
G1 X108.444 Y86.579 E13.4656
G1 X109.069 Y86.530 E13.4917
G1 X109.656 Y86.530 E13.5161
G1 X110.281 Y86.579 E13.5421
G1 X110.867 Y86.720 E13.5672
G1 X111.425 Y86.951 E13.5923
G1 X111.939 Y87.266 E13.6174
G1 X112.397 Y87.657 E13.6424
G1 X112.789 Y88.116 E13.6675
G1 X113.104 Y88.630 E13.6926
G1 X113.335 Y89.187 E13.7176
G1 X113.475 Y89.773 E13.7427
G1 X113.525 Y90.398 E13.7688
G1 X113.525 Y101.204 E14.2180
G1 X105.200 Y101.204 E14.5641
G1 X105.200 Y100.704 E14.5849
G0 F3000 E13.5849
G0 X105.200 Y100.704 F5400
G0 X113.525 Y98.204
G0 X113.164 Y98.312
G0 F3000 E14.5849
;segType:HShell
G1 X109.914 Y95.062 E14.7760 F2400
G0 X110.381 Y94.963 F5400
G1 X113.164 Y97.746 E14.9396 F2400
G0 X113.164 Y97.181 F5400
G1 X110.799 Y94.815 E15.0787 F2400
G0 X110.624 Y94.225 F5400
;segType:Perimeter
G1 X110.026 Y94.272 E15.1036 F1439
G1 X109.600 Y94.344 E15.1216
G1 X109.119 Y94.344 E15.1416
G1 X108.640 Y94.262 E15.1618
G1 X108.181 Y94.100 E15.1820
G1 X107.756 Y93.862 E15.2022
G1 X107.378 Y93.557 E15.2225
G1 X107.057 Y93.192 E15.2427
G1 X106.801 Y92.777 E15.2629
G1 X106.620 Y92.326 E15.2831
G1 X106.518 Y91.850 E15.3034
G1 X106.497 Y91.364 E15.3236
G1 X106.559 Y90.882 E15.3438
G1 X106.701 Y90.417 E15.3640
G1 X106.920 Y89.982 E15.3843
G1 X107.209 Y89.591 E15.4045
G1 X107.561 Y89.254 E15.4247
G1 X107.964 Y88.982 E15.4449
G1 X108.407 Y88.782 E15.4652
G1 X108.878 Y88.659 E15.4854
G1 X109.363 Y88.618 E15.5056
G1 X109.847 Y88.659 E15.5258
G1 X110.318 Y88.782 E15.5461
G1 X110.761 Y88.982 E15.5663
G1 X111.164 Y89.254 E15.5865
G1 X111.516 Y89.591 E15.6067
G1 X111.805 Y89.982 E15.6270
G1 X112.024 Y90.417 E15.6472
G1 X112.166 Y90.882 E15.6674
G1 X112.228 Y91.364 E15.6877
G1 X112.207 Y91.850 E15.7079
G1 X112.105 Y92.326 E15.7281
G1 X111.923 Y92.777 E15.7483
G1 X111.668 Y93.192 E15.7686
G1 X111.347 Y93.556 E15.7888
G1 X110.969 Y93.862 E15.8090
G1 X110.544 Y94.100 E15.8292
G1 X110.142 Y94.242 E15.8470
G0 X109.596 Y94.492 F5400
G0 X108.987 Y94.727
;segType:Loop
G1 X108.539 Y94.650 E15.8659 F2400
G1 X108.016 Y94.465 E15.8889
G1 X107.532 Y94.195 E15.9120
G1 X107.100 Y93.846 E15.9350
G1 X106.734 Y93.430 E15.9581
G1 X106.443 Y92.958 E15.9811
G1 X106.236 Y92.444 E16.0042
G1 X106.119 Y91.901 E16.0272
G1 X106.096 Y91.347 E16.0503
G1 X106.166 Y90.797 E16.0734
G1 X106.329 Y90.267 E16.0964
G1 X106.578 Y89.772 E16.1195
G1 X106.908 Y89.326 E16.1425
G1 X107.309 Y88.942 E16.1656
G1 X107.768 Y88.632 E16.1886
G1 X108.273 Y88.403 E16.2117
G1 X108.810 Y88.263 E16.2348
G1 X109.363 Y88.216 E16.2578
G1 X109.915 Y88.263 E16.2809
G1 X110.452 Y88.403 E16.3039
G1 X110.957 Y88.632 E16.3270
G1 X111.416 Y88.942 E16.3500
G1 X111.817 Y89.326 E16.3731
G1 X112.147 Y89.772 E16.3961
G1 X112.396 Y90.267 E16.4192
G1 X112.559 Y90.797 E16.4423
G1 X112.629 Y91.347 E16.4653
G1 X112.606 Y91.901 E16.4884
G1 X112.489 Y92.443 E16.5114
G1 X112.282 Y92.958 E16.5345
G1 X111.991 Y93.430 E16.5575
G1 X111.625 Y93.846 E16.5806
G1 X111.193 Y94.195 E16.6036
G1 X110.709 Y94.465 E16.6267
G1 X110.186 Y94.650 E16.6498
G1 X109.634 Y94.744 E16.6731
G1 X109.185 Y94.744 E16.6917
G0 X107.996 Y94.840 F5400
;segType:HShell
G1 X113.164 Y100.009 E16.9956 F2400
G0 X113.164 Y99.443 F5400
G1 X108.778 Y95.056 E17.2536 F2400
G0 X109.391 Y95.104 F5400
G1 X113.164 Y98.878 E17.4754 F2400
G0 X108.908 Y100.844 F5400
G1 X105.561 Y97.496 E17.6723 F2400
G0 X105.561 Y96.931 F5400
G1 X109.474 Y100.844 E17.9024 F2400
G0 X110.040 Y100.844 F5400
G1 X105.561 Y96.365 E18.1657 F2400
G0 X105.561 Y95.799 F5400
G1 X110.605 Y100.844 E18.4623 F2400
G0 X111.171 Y100.844 F5400
G1 X105.561 Y95.234 E18.7922 F2400
G0 X105.561 Y94.668 F5400
G1 X111.737 Y100.844 E19.1554 F2400
G0 X112.302 Y100.844 F5400
G1 X105.561 Y94.102 E19.5518 F2400
G0 X105.561 Y93.537 F5400
G1 X112.868 Y100.844 E19.9814 F2400
G0 X113.164 Y100.575 F5400
G1 X105.561 Y92.971 E20.4285 F2400
G0 X105.561 Y92.405 F5400
G1 X106.016 Y92.860 E20.4552 F2400
G0 X105.580 Y90.162 F5400
G0 X105.682 Y90.547
G1 X105.841 Y89.857 E20.4749 F2400
G1 X105.996 Y89.446 E20.4977
G1 X106.193 Y89.077 E20.5245
G1 X106.424 Y88.743 E20.5550
G0 X106.993 Y88.746 F5400
G1 X106.388 Y88.141 E20.5906 F2400
G0 X106.660 Y87.847 F5400
G1 X107.315 Y88.503 E20.6291 F2400
G0 X107.662 Y88.284 F5400
G1 X106.965 Y87.587 E20.6701 F2400
G0 X107.311 Y87.367 F5400
G1 X108.052 Y88.108 E20.7137 F2400
G0 X108.485 Y87.976 F5400
G1 X107.689 Y87.180 E20.7605 F2400
G0 X108.106 Y87.031 F5400
G1 X108.964 Y87.889 E20.8110 F2400
G0 X109.508 Y87.867 F5400
G1 X108.571 Y86.930 E20.8660 F2400
G0 X109.097 Y86.890 F5400
G1 X110.162 Y87.955 E20.9287 F2400
G0 X111.051 Y88.279 F5400
G1 X109.664 Y86.892 E21.0102 F2400
G0 X110.289 Y86.952 F5400
G1 X113.103 Y89.765 E21.1756 F2400
G0 X112.842 Y88.938 F5400
G1 X111.116 Y87.213 E21.2771 F2400
G0 X112.556 Y89.784 F5400
G1 X113.163 Y90.391 E21.3127 F2400
G0 X112.874 Y92.365 F5400
G0 X113.054 Y92.262
G1 X112.950 Y93.007 E21.3336 F2400
G0 X112.564 Y93.186 F5400
G1 X113.164 Y93.786 E21.3689 F2400
G0 X113.164 Y94.352 F5400
G1 X112.349 Y93.536 E21.4168 F2400
G0 X112.099 Y93.853 F5400
G1 X113.164 Y94.918 E21.4795 F2400
G0 X113.164 Y95.484 F5400
G1 X111.827 Y94.146 E21.5581 F2400
G0 X111.514 Y94.399 F5400
G1 X113.164 Y96.049 E21.6552 F2400
G0 X113.164 Y96.615 F5400
G1 X111.170 Y94.620 E21.7724 F2400
G0 F3000 E20.7724
G0 X111.007 Y94.299 F5400
G0 X113.525 Y99.273
G0 X114.525 Y101.250
G0 F3000 E21.7724
;segType:Support
G1 X145.475 Y101.250 E22.8662 F3600
G0 F3000 E21.8662
G0 X146.836 Y98.042 F5400
G0 F3000 E22.8662
;segType:HShell
G1 X149.638 Y100.844 E23.0309 F2400
G0 X149.072 Y100.844 F5400
G1 X146.836 Y98.608 E23.1624 F2400
G0 X146.836 Y99.173 F5400
G1 X148.506 Y100.844 E23.2606 F2400
G0 X147.941 Y100.844 F5400
G1 X146.836 Y99.739 E23.3256 F2400
G0 X146.836 Y100.305 F5400
G1 X147.375 Y100.844 E23.3573 F2400
G0 X146.848 Y101.337 F5400
;segType:Perimeter
G1 X146.075 Y101.544 E23.3906 F1439
G1 X146.075 Y90.382 E23.8546
G1 X146.128 Y89.711 E23.8826
G1 X146.284 Y89.063 E23.9103
G1 X146.539 Y88.448 E23.9380
G1 X146.886 Y87.880 E23.9657
G1 X147.319 Y87.374 E23.9934
G1 X147.825 Y86.941 E24.0211
G1 X148.393 Y86.593 E24.0488
G1 X149.009 Y86.338 E24.0765
G1 X149.656 Y86.183 E24.1041
G1 X150.328 Y86.130 E24.1322
G1 X150.947 Y86.130 E24.1579
G1 X151.619 Y86.183 E24.1859
G1 X152.266 Y86.338 E24.2136
G1 X152.882 Y86.593 E24.2413
G1 X153.450 Y86.941 E24.2690
G1 X153.956 Y87.374 E24.2967
G1 X154.389 Y87.880 E24.3244
G1 X154.736 Y88.448 E24.3520
G1 X154.991 Y89.063 E24.3797
G1 X155.147 Y89.711 E24.4074
G1 X155.200 Y90.382 E24.4354
G1 X155.200 Y101.604 E24.9020
G1 X146.135 Y101.604 E25.2788
G0 X146.343 Y100.831 F5400
G0 X146.475 Y100.504
;segType:Loop
G1 X146.475 Y90.398 E25.6990 F2400
G1 X146.525 Y89.773 E25.7250
G1 X146.665 Y89.187 E25.7501
G1 X146.896 Y88.630 E25.7752
G1 X147.211 Y88.116 E25.8002
G1 X147.603 Y87.657 E25.8253
G1 X148.061 Y87.266 E25.8504
G1 X148.575 Y86.951 E25.8754
G1 X149.133 Y86.720 E25.9005
G1 X149.719 Y86.579 E25.9256
G1 X150.344 Y86.530 E25.9516
G1 X150.931 Y86.530 E25.9761
G1 X151.556 Y86.579 E26.0021
G1 X152.142 Y86.720 E26.0272
G1 X152.700 Y86.951 E26.0523
G1 X153.214 Y87.266 E26.0773
G1 X153.672 Y87.657 E26.1024
G1 X154.064 Y88.116 E26.1275
G1 X154.379 Y88.630 E26.1525
G1 X154.610 Y89.187 E26.1776
G1 X154.750 Y89.774 E26.2027
G1 X154.800 Y90.398 E26.2287
G1 X154.800 Y101.204 E26.6780
G1 X146.475 Y101.204 E27.0241
G1 X146.475 Y100.704 E27.0449
G0 F3000 E26.0449
G0 X146.475 Y100.704 F5400
G0 X148.209 Y93.658
G0 X148.209 Y93.658
G0 X148.009 Y93.430
G0 X147.718 Y92.958
G0 X147.511 Y92.444
G0 X147.394 Y91.901
G0 X147.371 Y91.347
G0 X147.441 Y90.797
G0 X147.604 Y90.267
G0 X147.853 Y89.772
G0 X148.183 Y89.326
G0 X148.584 Y88.942
G0 X149.043 Y88.632
G0 X149.496 Y88.427
G0 X149.496 Y88.427
G0 X149.955 Y86.561
G0 X149.865 Y86.929
G0 F3000 E27.0449
;segType:HShell
G1 X150.805 Y87.869 E27.1002 F2400
G0 X150.257 Y87.887 F5400
G1 X149.397 Y87.027 E27.1507 F2400
G0 X148.978 Y87.174 F5400
G1 X149.776 Y87.972 E27.1976 F2400
G0 X149.340 Y88.102 F5400
G1 X148.598 Y87.359 E27.2413 F2400
G0 X148.251 Y87.578 F5400
G1 X148.951 Y88.278 E27.2825 F2400
G0 X148.602 Y88.495 F5400
G1 X147.946 Y87.838 E27.3211 F2400
G0 X147.672 Y88.131 F5400
G1 X148.278 Y88.736 E27.3567 F2400
G0 X147.825 Y88.566 F5400
G1 X147.475 Y89.064 E27.3897 F2400
G1 X147.277 Y89.432 E27.4204
G1 X147.121 Y89.842 E27.4473
G0 X147.169 Y90.456 F5400
G1 X146.857 Y90.144 E27.4656 F2400
G0 X147.624 Y91.380 F5400
;segType:Perimeter
G1 X147.851 Y90.824 E27.4906 F1439
G1 X147.976 Y90.417 E27.5083
G1 X148.195 Y89.982 E27.5285
G1 X148.484 Y89.591 E27.5488
G1 X148.836 Y89.254 E27.5690
G1 X149.239 Y88.982 E27.5892
G1 X149.682 Y88.782 E27.6094
G1 X150.153 Y88.659 E27.6297
G1 X150.637 Y88.618 E27.6499
G1 X151.122 Y88.659 E27.6701
G1 X151.593 Y88.782 E27.6903
G1 X152.036 Y88.982 E27.7106
G1 X152.439 Y89.255 E27.7308
G1 X152.791 Y89.591 E27.7510
G1 X153.080 Y89.982 E27.7712
G1 X153.299 Y90.417 E27.7915
G1 X153.441 Y90.882 E27.8117
G1 X153.503 Y91.364 E27.8319
G1 X153.482 Y91.850 E27.8521
G1 X153.380 Y92.326 E27.8724
G1 X153.199 Y92.777 E27.8926
G1 X152.943 Y93.192 E27.9128
G1 X152.622 Y93.557 E27.9330
G1 X152.244 Y93.862 E27.9533
G1 X151.819 Y94.100 E27.9735
G1 X151.360 Y94.262 E27.9937
G1 X150.881 Y94.344 E28.0139
G1 X150.394 Y94.344 E28.0342
G1 X149.915 Y94.262 E28.0544
G1 X149.456 Y94.100 E28.0746
G1 X149.031 Y93.862 E28.0948
G1 X148.653 Y93.557 E28.1151
G1 X148.332 Y93.192 E28.1353
G1 X148.077 Y92.777 E28.1555
G1 X147.895 Y92.326 E28.1757
G1 X147.793 Y91.850 E28.1960
G1 X147.772 Y91.364 E28.2162
G1 X147.826 Y90.941 E28.2339
G0 X147.847 Y90.342 F5400
G0 X147.913 Y89.691
;segType:Loop
G1 X148.183 Y89.326 E28.2528 F2400
G1 X148.584 Y88.942 E28.2759
G1 X149.043 Y88.632 E28.2989
G1 X149.548 Y88.403 E28.3220
G1 X150.085 Y88.263 E28.3450
G1 X150.637 Y88.216 E28.3681
G1 X151.190 Y88.263 E28.3911
G1 X151.727 Y88.403 E28.4142
G1 X152.232 Y88.632 E28.4373
G1 X152.691 Y88.942 E28.4603
G1 X153.092 Y89.326 E28.4834
G1 X153.422 Y89.772 E28.5064
G1 X153.671 Y90.267 E28.5295
G1 X153.834 Y90.797 E28.5525
G1 X153.904 Y91.347 E28.5756
G1 X153.881 Y91.901 E28.5987
G1 X153.764 Y92.444 E28.6217
G1 X153.557 Y92.958 E28.6448
G1 X153.266 Y93.430 E28.6678
G1 X152.900 Y93.846 E28.6909
G1 X152.468 Y94.195 E28.7139
G1 X151.984 Y94.465 E28.7370
G1 X151.461 Y94.650 E28.7601
G1 X150.915 Y94.744 E28.7831
G1 X150.360 Y94.744 E28.8062
G1 X149.814 Y94.650 E28.8292
G1 X149.291 Y94.465 E28.8523
G1 X148.807 Y94.195 E28.8753
G1 X148.375 Y93.846 E28.8984
G1 X148.009 Y93.430 E28.9214
G1 X147.718 Y92.958 E28.9445
G1 X147.511 Y92.444 E28.9675
G1 X147.394 Y91.901 E28.9906
G1 X147.371 Y91.347 E29.0137
G1 X147.441 Y90.797 E29.0367
G1 X147.604 Y90.267 E29.0598
G1 X147.808 Y89.861 E29.0787
G0 F3000 E28.0787
G0 X147.277 Y92.827 F5400
G0 F3000 E29.0787
;segType:HShell
G1 X146.836 Y92.385 E29.1046 F2400
G0 X146.836 Y92.951 F5400
G1 X154.439 Y100.555 E29.5517 F2400
G0 X154.163 Y100.844 F5400
G1 X146.836 Y93.516 E29.9826 F2400
G0 X146.836 Y94.082 F5400
G1 X153.597 Y100.844 E30.3801 F2400
G0 X153.032 Y100.844 F5400
G1 X146.836 Y94.648 E30.7444 F2400
G0 X146.836 Y95.214 F5400
G1 X152.466 Y100.844 E31.0755 F2400
G0 X151.900 Y100.844 F5400
G1 X146.836 Y95.779 E31.3733 F2400
G0 X146.836 Y96.345 F5400
G1 X151.335 Y100.844 E31.6378 F2400
G0 X150.769 Y100.844 F5400
G1 X146.836 Y96.911 E31.8691 F2400
G0 X146.836 Y97.476 F5400
G1 X150.203 Y100.844 E32.0671 F2400
G0 X149.302 Y94.851 F5400
G1 X154.439 Y99.989 E32.3692 F2400
G0 X154.439 Y99.423 F5400
G1 X150.077 Y95.061 E32.6257 F2400
G0 X150.686 Y95.104 F5400
G1 X154.439 Y98.858 E32.8464 F2400
G0 X154.439 Y98.292 F5400
G1 X151.207 Y95.059 E33.0365 F2400
G0 X151.671 Y94.958 F5400
G1 X154.439 Y97.726 E33.1993 F2400
G0 X154.439 Y97.161 F5400
G1 X152.089 Y94.810 E33.3375 F2400
G0 X152.458 Y94.613 F5400
G1 X154.439 Y96.595 E33.4540 F2400
G0 X154.439 Y96.029 F5400
G1 X152.800 Y94.390 E33.5504 F2400
G0 X153.113 Y94.137 F5400
G1 X154.439 Y95.464 E33.6283 F2400
G0 X154.439 Y94.898 F5400
G1 X153.384 Y93.842 E33.6904 F2400
G0 X153.631 Y93.524 F5400
G1 X154.439 Y94.332 E33.7379 F2400
G0 X154.439 Y93.766 F5400
G1 X153.847 Y93.174 E33.7728 F2400
G0 X154.194 Y93.239 F5400
G1 X154.296 Y92.492 E33.7976 F2400
G0 X154.436 Y90.369 F5400
G1 X153.811 Y89.744 E33.8343 F2400
G0 X152.426 Y87.227 F5400
G1 X154.103 Y88.904 E33.9330 F2400
G0 X154.372 Y89.739 F5400
G1 X151.591 Y86.958 E34.0965 F2400
G0 X150.961 Y86.894 F5400
G1 X152.363 Y88.295 E34.1789 F2400
G0 X151.464 Y87.962 F5400
G1 X150.392 Y86.890 E34.2419 F2400
G0 F3000 E33.2419
G0 X150.541 Y86.530 F5400
G0 X149.791 Y88.340
G0 X149.791 Y88.340
G0 X149.548 Y88.403
G0 X149.043 Y88.632
G0 X148.584 Y88.942
G0 X148.183 Y89.326
G0 X147.853 Y89.772
G0 X147.604 Y90.267
G0 X147.441 Y90.797
G0 X147.371 Y91.347
G0 X147.394 Y91.901
G0 X147.511 Y92.444
G0 X147.718 Y92.958
G0 X147.813 Y93.111
G0 X147.813 Y93.111
G0 X146.475 Y96.337
G0 X145.475 Y98.750
G0 F3000 E34.2419
;segType:Support
G1 X114.525 Y98.750 E35.3357 F3600
; ------------------------------------
; Layer #1
; ------------------------------------
M106 S0 ;turn off fan
G92 E0 ;reset extr
G0 F3000 E-1.0000
G0 F1200 Z0.500
G0 X113.164 Y93.325 F7200
G0 F3000 E0.0000
;segType:HShell
G1 X105.646 Y100.844 E0.4421 F3600
G0 X105.573 Y101.337 F7200
;segType:Perimeter
G1 X104.800 Y101.544 E0.4753 F2159
G1 X104.800 Y90.382 E0.9394
G1 X104.853 Y89.711 E0.9674
G1 X105.009 Y89.063 E0.9951
G1 X105.264 Y88.448 E1.0228
G1 X105.611 Y87.880 E1.0505
G1 X106.044 Y87.374 E1.0782
G1 X106.550 Y86.941 E1.1058
G1 X107.118 Y86.593 E1.1335
G1 X107.734 Y86.338 E1.1612
G1 X108.381 Y86.183 E1.1889
G1 X109.053 Y86.130 E1.2169
G1 X109.672 Y86.130 E1.2427
G1 X110.344 Y86.183 E1.2707
G1 X110.991 Y86.338 E1.2984
G1 X111.607 Y86.593 E1.3261
G1 X112.175 Y86.941 E1.3537
G1 X112.681 Y87.374 E1.3814
G1 X113.114 Y87.880 E1.4091
G1 X113.461 Y88.448 E1.4368
G1 X113.716 Y89.063 E1.4645
G1 X113.872 Y89.711 E1.4922
G1 X113.925 Y90.382 E1.5202
G1 X113.925 Y101.604 E1.9867
G1 X104.860 Y101.604 E2.3636
G0 X105.067 Y100.831 F7200
G0 X105.200 Y100.504
;segType:Loop
G1 X105.200 Y90.398 E2.7837 F3600
G1 X105.250 Y89.774 E2.8098
G1 X105.390 Y89.187 E2.8349
G1 X105.621 Y88.630 E2.8599
G1 X105.936 Y88.116 E2.8850
G1 X106.328 Y87.657 E2.9101
G1 X106.786 Y87.266 E2.9351
G1 X107.300 Y86.951 E2.9602
G1 X107.858 Y86.720 E2.9853
G1 X108.444 Y86.579 E3.0103
G1 X109.069 Y86.530 E3.0364
G1 X109.656 Y86.530 E3.0608
G1 X110.281 Y86.579 E3.0869
G1 X110.867 Y86.720 E3.1120
G1 X111.425 Y86.951 E3.1370
G1 X111.939 Y87.266 E3.1621
G1 X112.397 Y87.657 E3.1872
G1 X112.789 Y88.116 E3.2122
G1 X113.104 Y88.630 E3.2373
G1 X113.335 Y89.187 E3.2624
G1 X113.475 Y89.773 E3.2874
G1 X113.525 Y90.398 E3.3135
G1 X113.525 Y101.204 E3.7628
G1 X105.200 Y101.204 E4.1088
G1 X105.200 Y100.704 E4.1296
G0 F3000 E3.1296
G0 X111.572 Y94.352 F7200
G0 F3000 E4.1296
;segType:HShell
G1 X105.561 Y100.363 E4.4831 F3600
G0 X105.561 Y99.798 F7200
G1 X110.403 Y94.956 E4.7678 F3600
G0 X110.624 Y94.225 F7200
;segType:Perimeter
G1 X110.026 Y94.272 E4.7927 F2159
G1 X109.606 Y94.344 E4.8104
G1 X109.119 Y94.344 E4.8307
G1 X108.640 Y94.262 E4.8509
G1 X108.181 Y94.100 E4.8711
G1 X107.756 Y93.862 E4.8913
G1 X107.378 Y93.557 E4.9116
G1 X107.057 Y93.192 E4.9318
G1 X106.801 Y92.777 E4.9520
G1 X106.620 Y92.326 E4.9722
G1 X106.518 Y91.850 E4.9925
G1 X106.497 Y91.364 E5.0127
G1 X106.559 Y90.882 E5.0329
G1 X106.701 Y90.417 E5.0531
G1 X106.920 Y89.982 E5.0734
G1 X107.209 Y89.591 E5.0936
G1 X107.561 Y89.254 E5.1138
G1 X107.964 Y88.982 E5.1340
G1 X108.407 Y88.782 E5.1543
G1 X108.878 Y88.659 E5.1745
G1 X109.363 Y88.618 E5.1947
G1 X109.847 Y88.659 E5.2149
G1 X110.318 Y88.782 E5.2352
G1 X110.761 Y88.982 E5.2554
G1 X111.164 Y89.254 E5.2756
G1 X111.516 Y89.591 E5.2958
G1 X111.805 Y89.982 E5.3161
G1 X112.024 Y90.417 E5.3363
G1 X112.166 Y90.882 E5.3565
G1 X112.228 Y91.364 E5.3767
G1 X112.207 Y91.850 E5.3970
G1 X112.105 Y92.326 E5.4172
G1 X111.923 Y92.777 E5.4374
G1 X111.668 Y93.192 E5.4577
G1 X111.347 Y93.556 E5.4779
G1 X110.969 Y93.862 E5.4981
G1 X110.544 Y94.100 E5.5183
G1 X110.142 Y94.242 E5.5361
G0 X109.597 Y94.493 F7200
G0 X108.987 Y94.727
;segType:Loop
G1 X108.539 Y94.650 E5.5550 F3600
G1 X108.016 Y94.465 E5.5780
G1 X107.532 Y94.195 E5.6011
G1 X107.100 Y93.846 E5.6241
G1 X106.734 Y93.430 E5.6472
G1 X106.443 Y92.958 E5.6702
G1 X106.236 Y92.444 E5.6933
G1 X106.119 Y91.901 E5.7163
G1 X106.096 Y91.347 E5.7394
G1 X106.166 Y90.797 E5.7625
G1 X106.329 Y90.267 E5.7855
G1 X106.578 Y89.772 E5.8086
G1 X106.908 Y89.326 E5.8316
G1 X107.309 Y88.942 E5.8547
G1 X107.768 Y88.632 E5.8777
G1 X108.273 Y88.403 E5.9008
G1 X108.810 Y88.263 E5.9239
G1 X109.363 Y88.216 E5.9469
G1 X109.915 Y88.263 E5.9700
G1 X110.452 Y88.403 E5.9930
G1 X110.957 Y88.632 E6.0161
G1 X111.416 Y88.942 E6.0391
G1 X111.817 Y89.326 E6.0622
G1 X112.147 Y89.772 E6.0852
G1 X112.396 Y90.267 E6.1083
G1 X112.559 Y90.797 E6.1314
G1 X112.629 Y91.347 E6.1544
G1 X112.606 Y91.901 E6.1775
G1 X112.489 Y92.443 E6.2005
G1 X112.282 Y92.958 E6.2236
G1 X111.991 Y93.430 E6.2466
G1 X111.625 Y93.846 E6.2697
G1 X111.193 Y94.195 E6.2927
G1 X110.709 Y94.465 E6.3158
G1 X110.186 Y94.650 E6.3389
G1 X109.640 Y94.744 E6.3619
G1 X109.185 Y94.744 E6.3808
G0 X109.693 Y95.100 F7200
;segType:HShell
G1 X105.561 Y99.232 E6.6238 F3600
G0 X105.561 Y98.666 F7200
G1 X109.123 Y95.104 E6.8332 F3600
G0 X108.630 Y95.031 F7200
G1 X105.561 Y98.101 E7.0137 F3600
G0 X105.561 Y97.535 F7200
G1 X108.188 Y94.908 E7.1682 F3600
G0 X107.782 Y94.748 F7200
G1 X105.561 Y96.969 E7.2988 F3600
G0 X105.561 Y96.404 F7200
G1 X107.419 Y94.545 E7.4081 F3600
G0 X107.094 Y94.304 F7200
G1 X105.561 Y95.838 E7.4983 F3600
G0 X105.561 Y95.272 F7200
G1 X106.792 Y94.041 E7.5706 F3600
G0 X106.527 Y93.740 F7200
G1 X105.561 Y94.707 E7.6275 F3600
G0 X105.561 Y94.141 F7200
G1 X106.296 Y93.406 E7.6707 F3600
G0 X105.866 Y93.553 F7200
G1 X105.744 Y92.826 E7.7018 F3600
G0 X105.913 Y90.394 F7200
G1 X105.561 Y90.747 E7.7226 F3600
G0 X105.580 Y90.161 F7200
G1 X106.586 Y89.156 E7.7817 F3600
G0 X107.061 Y88.680 F7200
G1 X108.832 Y86.910 E7.8858 F3600
G0 X108.158 Y87.018 F7200
G1 X105.689 Y89.487 E8.0309 F3600
G0 X106.143 Y88.467 F7200
G1 X107.137 Y87.473 E8.0893 F3600
G0 X109.417 Y86.890 F7200
G1 X108.278 Y88.030 E8.1563 F3600
G0 X108.986 Y87.887 F7200
G1 X109.958 Y86.915 E8.2135 F3600
G0 X110.449 Y86.990 F7200
G1 X109.566 Y87.872 E8.2654 F3600
G0 X110.072 Y87.932 F7200
G1 X110.887 Y87.118 E8.3132 F3600
G0 X111.283 Y87.287 F7200
G1 X110.521 Y88.049 E8.3581 F3600
G0 X110.917 Y88.218 F7200
G1 X111.634 Y87.502 E8.4002 F3600
G0 X111.951 Y87.750 F7200
G1 X111.284 Y88.418 E8.4395 F3600
G0 X111.621 Y88.646 F7200
G1 X112.240 Y88.027 E8.4758 F3600
G0 X112.500 Y88.333 F7200
G1 X111.913 Y88.919 E8.5103 F3600
G0 X112.343 Y88.772 F7200
G1 X112.660 Y89.304 E8.5415 F3600
G1 X112.829 Y89.701 E8.5693
G1 X112.958 Y90.138 E8.5939
G0 X113.164 Y92.194 F7200
G1 X112.841 Y92.517 E8.6129 F3600
G0 X112.286 Y93.638 F7200
G1 X113.164 Y92.760 E8.6645 F3600
G0 X112.434 Y100.844 F7200
G1 X113.164 Y100.113 E8.7074 F3600
G0 X113.164 Y99.548 F7200
G1 X111.868 Y100.844 E8.7837 F3600
G0 X111.302 Y100.844 F7200
G1 X113.164 Y98.982 E8.8931 F3600
G0 X113.164 Y98.416 F7200
G1 X110.737 Y100.844 E9.0359 F3600
G0 X110.171 Y100.844 F7200
G1 X113.164 Y97.851 E9.2119 F3600
G0 X113.164 Y97.285 F7200
G1 X109.605 Y100.844 E9.4211 F3600
G0 X109.040 Y100.844 F7200
G1 X113.164 Y96.719 E9.6636 F3600
G0 X113.164 Y96.154 F7200
G1 X108.474 Y100.844 E9.9394 F3600
G0 X107.908 Y100.844 F7200
G1 X113.164 Y95.588 E10.2484 F3600
G0 X113.164 Y95.022 F7200
G1 X107.343 Y100.844 E10.5907 F3600
G0 X106.777 Y100.844 F7200
G1 X113.164 Y94.457 E10.9663 F3600
G0 X113.164 Y93.891 F7200
G1 X106.211 Y100.844 E11.3751 F3600
G0 F3000 E10.3751
G0 X114.525 Y98.750 F7200
G0 F3000 E11.3751
;segType:Support
G1 X145.475 Y98.750 E12.4689 F5400
G0 F3000 E11.4689
G0 X154.439 Y93.345 F7200
G0 F3000 E12.4689
;segType:HShell
G1 X146.941 Y100.844 E12.9098 F3600
G0 X146.848 Y101.337 F7200
;segType:Perimeter
G1 X146.075 Y101.544 E12.9430 F2159
G1 X146.075 Y90.382 E13.4071
G1 X146.128 Y89.711 E13.4351
G1 X146.284 Y89.063 E13.4628
G1 X146.539 Y88.448 E13.4905
G1 X146.886 Y87.880 E13.5181
G1 X147.319 Y87.374 E13.5458
G1 X147.825 Y86.941 E13.5735
G1 X148.393 Y86.593 E13.6012
G1 X149.009 Y86.338 E13.6289
G1 X149.656 Y86.183 E13.6566
G1 X150.328 Y86.130 E13.6846
G1 X150.947 Y86.130 E13.7103
G1 X151.619 Y86.183 E13.7384
G1 X152.266 Y86.338 E13.7660
G1 X152.882 Y86.593 E13.7937
G1 X153.450 Y86.941 E13.8214
G1 X153.956 Y87.374 E13.8491
G1 X154.389 Y87.880 E13.8768
G1 X154.736 Y88.448 E13.9045
G1 X154.991 Y89.063 E13.9322
G1 X155.147 Y89.711 E13.9598
G1 X155.200 Y90.382 E13.9879
G1 X155.200 Y101.604 E14.4544
G1 X146.135 Y101.604 E14.8313
G0 X146.343 Y100.831 F7200
G0 X146.475 Y100.504
;segType:Loop
G1 X146.475 Y90.398 E15.2514 F3600
G1 X146.525 Y89.773 E15.2775
G1 X146.665 Y89.187 E15.3025
G1 X146.896 Y88.630 E15.3276
G1 X147.211 Y88.116 E15.3527
G1 X147.603 Y87.657 E15.3777
G1 X148.061 Y87.266 E15.4028
G1 X148.575 Y86.951 E15.4279
G1 X149.133 Y86.720 E15.4530
G1 X149.719 Y86.579 E15.4780
G1 X150.344 Y86.530 E15.5041
G1 X150.931 Y86.530 E15.5285
G1 X151.556 Y86.579 E15.5546
G1 X152.142 Y86.720 E15.5796
G1 X152.700 Y86.951 E15.6047
G1 X153.214 Y87.266 E15.6298
G1 X153.672 Y87.657 E15.6548
G1 X154.064 Y88.116 E15.6799
G1 X154.379 Y88.630 E15.7050
G1 X154.610 Y89.187 E15.7301
G1 X154.750 Y89.774 E15.7551
G1 X154.800 Y90.398 E15.7812
G1 X154.800 Y101.204 E16.2304
G1 X146.475 Y101.204 E16.5765
G1 X146.475 Y100.704 E16.5973
G0 F3000 E15.5973
G0 X146.475 Y100.704 F7200
G0 X148.202 Y93.650
G0 X148.202 Y93.650
G0 X148.009 Y93.430
G0 X147.718 Y92.958
G0 X147.511 Y92.444
G0 X147.394 Y91.901
G0 X147.371 Y91.347
G0 X147.441 Y90.797
G0 X147.604 Y90.267
G0 X147.853 Y89.772
G0 X148.183 Y89.326
G0 X148.584 Y88.942
G0 X149.043 Y88.632
G0 X149.479 Y88.434
G0 X149.580 Y88.023
G0 F3000 E16.5973
;segType:HShell
G1 X150.712 Y86.890 E16.6639 F3600
G0 X150.128 Y86.908 F7200
G1 X148.416 Y88.621 E16.7646 F3600
G0 X146.957 Y89.514 F7200
G1 X149.459 Y87.012 E16.9117 F3600
G0 X148.464 Y87.442 F7200
G1 X147.387 Y88.519 E16.9750 F3600
G0 X147.804 Y89.233 F7200
G1 X146.854 Y90.183 E17.0309 F3600
G0 X146.836 Y90.767 F7200
G1 X147.179 Y90.423 E17.0511 F3600
G0 X147.624 Y91.380 F7200
;segType:Perimeter
G1 X147.851 Y90.824 E17.0760 F2159
G1 X147.976 Y90.417 E17.0937
G1 X148.195 Y89.982 E17.1140
G1 X148.484 Y89.591 E17.1342
G1 X148.836 Y89.254 E17.1544
G1 X149.239 Y88.982 E17.1747
G1 X149.682 Y88.782 E17.1949
G1 X150.153 Y88.659 E17.2151
G1 X150.637 Y88.618 E17.2353
G1 X151.122 Y88.659 E17.2556
G1 X151.593 Y88.782 E17.2758
G1 X152.036 Y88.982 E17.2960
G1 X152.439 Y89.255 E17.3162
G1 X152.791 Y89.591 E17.3365
G1 X153.080 Y89.982 E17.3567
G1 X153.299 Y90.417 E17.3769
G1 X153.441 Y90.882 E17.3971
G1 X153.503 Y91.364 E17.4174
G1 X153.482 Y91.850 E17.4376
G1 X153.380 Y92.326 E17.4578
G1 X153.199 Y92.777 E17.4780
G1 X152.943 Y93.192 E17.4983
G1 X152.622 Y93.557 E17.5185
G1 X152.244 Y93.862 E17.5387
G1 X151.819 Y94.100 E17.5589
G1 X151.360 Y94.262 E17.5792
G1 X150.881 Y94.344 E17.5994
G1 X150.394 Y94.344 E17.6196
G1 X149.915 Y94.262 E17.6398
G1 X149.456 Y94.100 E17.6601
G1 X149.031 Y93.862 E17.6803
G1 X148.653 Y93.557 E17.7005
G1 X148.332 Y93.192 E17.7207
G1 X148.077 Y92.777 E17.7410
G1 X147.895 Y92.326 E17.7612
G1 X147.793 Y91.850 E17.7814
G1 X147.772 Y91.364 E17.8016
G1 X147.826 Y90.941 E17.8194
G0 X147.847 Y90.342 F7200
G0 X147.913 Y89.691
;segType:Loop
G1 X148.183 Y89.326 E17.8383 F3600
G1 X148.584 Y88.942 E17.8613
G1 X149.043 Y88.632 E17.8844
G1 X149.548 Y88.403 E17.9074
G1 X150.085 Y88.263 E17.9305
G1 X150.637 Y88.216 E17.9535
G1 X151.190 Y88.263 E17.9766
G1 X151.727 Y88.403 E17.9997
G1 X152.232 Y88.632 E18.0227
G1 X152.691 Y88.942 E18.0458
G1 X153.092 Y89.326 E18.0688
G1 X153.422 Y89.772 E18.0919
G1 X153.671 Y90.267 E18.1149
G1 X153.834 Y90.797 E18.1380
G1 X153.904 Y91.347 E18.1610
G1 X153.881 Y91.901 E18.1841
G1 X153.764 Y92.444 E18.2072
G1 X153.557 Y92.958 E18.2302
G1 X153.266 Y93.430 E18.2533
G1 X152.900 Y93.846 E18.2763
G1 X152.468 Y94.195 E18.2994
G1 X151.984 Y94.465 E18.3224
G1 X151.461 Y94.650 E18.3455
G1 X150.915 Y94.744 E18.3685
G1 X150.360 Y94.744 E18.3916
G1 X149.814 Y94.650 E18.4146
G1 X149.291 Y94.465 E18.4377
G1 X148.807 Y94.195 E18.4608
G1 X148.375 Y93.846 E18.4838
G1 X148.009 Y93.430 E18.5069
G1 X147.718 Y92.958 E18.5299
G1 X147.511 Y92.444 E18.5530
G1 X147.394 Y91.901 E18.5760
G1 X147.371 Y91.347 E18.5991
G1 X147.441 Y90.797 E18.6222
G1 X147.604 Y90.267 E18.6452
G1 X147.808 Y89.861 E18.6641
G0 F3000 E17.6641
G0 X150.283 Y87.885 F7200
G0 F3000 E18.6641
;segType:HShell
G1 X151.252 Y86.917 E18.7211 F3600
G0 X151.740 Y86.994 F7200
G1 X150.860 Y87.874 E18.7728 F3600
G0 X151.363 Y87.936 F7200
G1 X152.176 Y87.124 E18.8206 F3600
G0 X152.571 Y87.294 F7200
G1 X151.812 Y88.053 E18.8652 F3600
G0 X152.206 Y88.225 F7200
G1 X152.922 Y87.509 E18.9073 F3600
G0 X153.237 Y87.759 F7200
G1 X152.571 Y88.426 E18.9465 F3600
G0 X152.908 Y88.654 F7200
G1 X153.524 Y88.038 E18.9827 F3600
G0 X153.782 Y88.346 F7200
G1 X153.199 Y88.929 E19.0170 F3600
G0 X153.627 Y88.784 F7200
G1 X153.942 Y89.317 E19.0482 F3600
G1 X154.109 Y89.716 E19.0758
G1 X154.236 Y90.155 E19.1002
G0 X154.439 Y92.214 F7200
G1 X154.111 Y92.543 E19.1195 F3600
G0 X154.439 Y92.780 F7200
G1 X153.431 Y93.788 E19.1788 F3600
G0 X152.951 Y94.268 F7200
G1 X146.836 Y100.383 E19.5383 F3600
G0 X146.836 Y99.818 F7200
G1 X151.709 Y94.945 E19.8249 F3600
G0 X150.992 Y95.096 F7200
G1 X146.836 Y99.252 E20.0692 F3600
G0 X146.836 Y98.686 F7200
G1 X150.418 Y95.104 E20.2799 F3600
G0 X149.922 Y95.034 F7200
G1 X146.836 Y98.121 E20.4614 F3600
G0 X146.836 Y97.555 F7200
G1 X149.477 Y94.913 E20.6167 F3600
G0 X149.070 Y94.755 F7200
G1 X146.836 Y96.989 E20.7481 F3600
G0 X146.836 Y96.424 F7200
G1 X148.707 Y94.552 E20.8581 F3600
G0 X148.380 Y94.313 F7200
G1 X146.836 Y95.858 E20.9489 F3600
G0 X146.836 Y95.292 F7200
G1 X148.076 Y94.052 E21.0219 F3600
G0 X147.811 Y93.751 F7200
G1 X146.836 Y94.727 E21.0792 F3600
G0 X146.836 Y94.161 F7200
G1 X147.578 Y93.418 E21.1229 F3600
G0 X147.144 Y93.570 F7200
G1 X147.022 Y92.843 E21.1544 F3600
G0 X153.729 Y100.844 F7200
G1 X154.439 Y100.133 E21.1962 F3600
G0 X154.439 Y99.568 F7200
G1 X153.163 Y100.844 E21.2712 F3600
G0 X152.598 Y100.844 F7200
G1 X154.439 Y99.002 E21.3795 F3600
G0 X154.439 Y98.436 F7200
G1 X152.032 Y100.844 E21.5211 F3600
G0 X151.466 Y100.844 F7200
G1 X154.439 Y97.871 E21.6959 F3600
G0 X154.439 Y97.305 F7200
G1 X150.900 Y100.844 E21.9040 F3600
G0 X150.335 Y100.844 F7200
G1 X154.439 Y96.739 E22.1453 F3600
G0 X154.439 Y96.174 F7200
G1 X149.769 Y100.844 E22.4199 F3600
G0 X149.203 Y100.844 F7200
G1 X154.439 Y95.608 E22.7278 F3600
G0 X154.439 Y95.042 F7200
G1 X148.638 Y100.844 E23.0689 F3600
G0 X148.072 Y100.844 F7200
G1 X154.439 Y94.477 E23.4433 F3600
G0 X154.439 Y93.911 F7200
G1 X147.506 Y100.844 E23.8509 F3600
G0 F3000 E22.8509
G0 X145.475 Y101.250 F7200
G0 F3000 E23.8509
;segType:Support
G1 X114.525 Y101.250 E24.9447 F5400
; ------------------------------------
; Layer #2
; ------------------------------------
M106 S0 ;turn off fan
G92 E0 ;reset extr
G0 F3000 E-1.0000
G0 F1200 Z0.750
G0 X105.561 Y98.062 F7200
G0 F3000 E0.0000
;segType:HShell
G1 X108.343 Y100.844 E0.1636 F3600
G0 X107.777 Y100.844 F7200
G1 X105.561 Y98.628 E0.2939 F3600
G0 X105.561 Y99.193 F7200
G1 X107.211 Y100.844 E0.3909 F3600
G0 X106.646 Y100.844 F7200
G1 X105.561 Y99.759 E0.4547 F3600
G0 X105.561 Y100.325 F7200
G1 X106.080 Y100.844 E0.4853 F3600
G0 X105.573 Y101.337 F7200
;segType:Perimeter
G1 X104.800 Y101.544 E0.5185 F2159
G1 X104.800 Y90.382 E0.9826
G1 X104.853 Y89.711 E1.0106
G1 X105.009 Y89.063 E1.0383
G1 X105.264 Y88.448 E1.0660
G1 X105.611 Y87.880 E1.0937
G1 X106.044 Y87.374 E1.1214
G1 X106.550 Y86.941 E1.1490
G1 X107.118 Y86.593 E1.1767
G1 X107.734 Y86.338 E1.2044
G1 X108.381 Y86.183 E1.2321
G1 X109.053 Y86.130 E1.2601
G1 X109.672 Y86.130 E1.2859
G1 X110.344 Y86.183 E1.3139
G1 X110.991 Y86.338 E1.3416
G1 X111.607 Y86.593 E1.3693
G1 X112.175 Y86.941 E1.3969
G1 X112.681 Y87.374 E1.4246
G1 X113.114 Y87.880 E1.4523
G1 X113.461 Y88.448 E1.4800
G1 X113.716 Y89.063 E1.5077
G1 X113.872 Y89.711 E1.5354
G1 X113.925 Y90.382 E1.5634
G1 X113.925 Y101.604 E2.0299
G1 X104.860 Y101.604 E2.4068
G0 X105.067 Y100.831 F7200
G0 X105.200 Y100.504
;segType:Loop
G1 X105.200 Y90.398 E2.8269 F3600
G1 X105.250 Y89.774 E2.8530
G1 X105.390 Y89.187 E2.8781
G1 X105.621 Y88.630 E2.9031
G1 X105.936 Y88.116 E2.9282
G1 X106.328 Y87.657 E2.9533
G1 X106.786 Y87.266 E2.9783
G1 X107.300 Y86.951 E3.0034
G1 X107.858 Y86.720 E3.0285
G1 X108.444 Y86.579 E3.0535
G1 X109.069 Y86.530 E3.0796
G1 X109.656 Y86.530 E3.1040
G1 X110.281 Y86.579 E3.1301
G1 X110.867 Y86.720 E3.1552
G1 X111.425 Y86.951 E3.1802
G1 X111.939 Y87.266 E3.2053
G1 X112.397 Y87.657 E3.2304
G1 X112.789 Y88.116 E3.2554
G1 X113.104 Y88.630 E3.2805
G1 X113.335 Y89.187 E3.3056
G1 X113.475 Y89.773 E3.3306
G1 X113.525 Y90.398 E3.3567
G1 X113.525 Y101.204 E3.8060
G1 X105.200 Y101.204 E4.1520
G1 X105.200 Y100.704 E4.1728
G0 F3000 E3.1728
G0 X111.827 Y94.146 F7200
G0 F3000 E4.1728
;segType:HShell
G1 X113.164 Y95.484 E4.2515 F3600
G0 X113.164 Y96.049 F7200
G1 X111.514 Y94.399 E4.3485 F3600
G0 X111.170 Y94.620 F7200
G1 X113.164 Y96.615 E4.4658 F3600
G0 X113.164 Y97.181 F7200
G1 X110.799 Y94.815 E4.6048 F3600
G0 X110.624 Y94.225 F7200
;segType:Perimeter
G1 X110.026 Y94.272 E4.6298 F2159
G1 X109.606 Y94.344 E4.6475
G1 X109.148 Y94.345 E4.6665
G1 X108.641 Y94.262 E4.6879
G1 X108.181 Y94.100 E4.7082
G1 X107.756 Y93.862 E4.7284
G1 X107.378 Y93.557 E4.7486
G1 X107.057 Y93.192 E4.7688
G1 X106.801 Y92.777 E4.7891
G1 X106.620 Y92.326 E4.8093
G1 X106.518 Y91.850 E4.8295
G1 X106.497 Y91.364 E4.8497
G1 X106.559 Y90.882 E4.8700
G1 X106.701 Y90.417 E4.8902
G1 X106.920 Y89.982 E4.9104
G1 X107.209 Y89.591 E4.9306
G1 X107.561 Y89.254 E4.9509
G1 X107.964 Y88.982 E4.9711
G1 X108.407 Y88.782 E4.9913
G1 X108.878 Y88.659 E5.0115
G1 X109.363 Y88.618 E5.0318
G1 X109.847 Y88.659 E5.0520
G1 X110.318 Y88.782 E5.0722
G1 X110.761 Y88.982 E5.0924
G1 X111.164 Y89.254 E5.1127
G1 X111.516 Y89.591 E5.1329
G1 X111.805 Y89.982 E5.1531
G1 X112.024 Y90.417 E5.1733
G1 X112.166 Y90.882 E5.1936
G1 X112.228 Y91.364 E5.2138
G1 X112.207 Y91.850 E5.2340
G1 X112.105 Y92.326 E5.2542
G1 X111.923 Y92.777 E5.2745
G1 X111.668 Y93.192 E5.2947
G1 X111.347 Y93.556 E5.3149
G1 X110.969 Y93.862 E5.3351
G1 X110.544 Y94.100 E5.3554
G1 X110.142 Y94.242 E5.3731
G0 X109.597 Y94.493 F7200
G0 X108.929 Y94.715
;segType:Loop
G1 X108.541 Y94.651 E5.3895 F3600
G1 X108.016 Y94.465 E5.4126
G1 X107.532 Y94.195 E5.4357
G1 X107.100 Y93.846 E5.4587
G1 X106.734 Y93.430 E5.4818
G1 X106.443 Y92.958 E5.5048
G1 X106.236 Y92.444 E5.5279
G1 X106.119 Y91.901 E5.5510
G1 X106.096 Y91.347 E5.5740
G1 X106.166 Y90.797 E5.5971
G1 X106.329 Y90.267 E5.6201
G1 X106.578 Y89.772 E5.6432
G1 X106.908 Y89.326 E5.6662
G1 X107.309 Y88.942 E5.6893
G1 X107.768 Y88.632 E5.7123
G1 X108.273 Y88.403 E5.7354
G1 X108.810 Y88.263 E5.7585
G1 X109.363 Y88.216 E5.7815
G1 X109.915 Y88.263 E5.8046
G1 X110.452 Y88.403 E5.8276
G1 X110.957 Y88.632 E5.8507
G1 X111.416 Y88.942 E5.8737
G1 X111.817 Y89.326 E5.8968
G1 X112.147 Y89.772 E5.9199
G1 X112.396 Y90.267 E5.9429
G1 X112.559 Y90.797 E5.9660
G1 X112.629 Y91.347 E5.9890
G1 X112.606 Y91.901 E6.0121
G1 X112.489 Y92.443 E6.0351
G1 X112.282 Y92.958 E6.0582
G1 X111.991 Y93.430 E6.0813
G1 X111.625 Y93.846 E6.1043
G1 X111.193 Y94.195 E6.1274
G1 X110.709 Y94.465 E6.1504
G1 X110.186 Y94.650 E6.1735
G1 X109.641 Y94.744 E6.1965
G1 X109.127 Y94.745 E6.2178
G0 F3000 E5.2178
G0 X106.016 Y92.860 F7200
G0 F3000 E6.2178
;segType:HShell
G1 X105.561 Y92.405 E6.2446 F3600
G0 F3000 E5.2446
G0 X105.200 Y92.676 F7200
G0 X106.135 Y91.973
G0 X106.135 Y91.973
G0 X106.119 Y91.901
G0 X106.096 Y91.347
G0 X106.166 Y90.797
G0 X106.329 Y90.267
G0 X106.578 Y89.772
G0 X106.908 Y89.326
G0 X107.309 Y88.942
G0 X107.768 Y88.632
G0 X108.273 Y88.403
G0 X108.810 Y88.263
G0 X109.363 Y88.216
G0 X109.915 Y88.263
G0 X110.452 Y88.403
G0 X110.723 Y88.526
G0 X111.051 Y88.279
G0 F3000 E6.2446
G1 X109.664 Y86.892 E6.3262 F3600
G0 X109.097 Y86.890 F7200
G1 X110.162 Y87.955 E6.3888 F3600
G0 X109.508 Y87.867 F7200
G1 X108.571 Y86.930 E6.4439 F3600
G0 X108.106 Y87.031 F7200
G1 X108.964 Y87.889 E6.4943 F3600
G0 X108.485 Y87.976 F7200
G1 X107.689 Y87.180 E6.5411 F3600
G0 X107.311 Y87.367 F7200
G1 X108.052 Y88.108 E6.5847 F3600
G0 X107.662 Y88.284 F7200
G1 X106.965 Y87.587 E6.6257 F3600
G0 X106.660 Y87.847 F7200
G1 X107.315 Y88.503 E6.6642 F3600
G0 X106.993 Y88.746 F7200
G1 X106.388 Y88.141 E6.6998 F3600
G0 X106.540 Y88.577 F7200
G1 X106.193 Y89.077 E6.7326 F3600
G1 X105.996 Y89.446 E6.7631
G1 X105.841 Y89.857 E6.7900
G1 X105.735 Y90.317 E6.8128
G0 F3000 E5.8128
G0 X105.200 Y90.623 F7200
G0 X106.293 Y90.382
G0 X106.293 Y90.382
G0 X106.329 Y90.267
G0 X106.578 Y89.772
G0 X106.908 Y89.326
G0 X107.309 Y88.942
G0 X107.768 Y88.632
G0 X108.273 Y88.403
G0 X108.810 Y88.263
G0 X109.363 Y88.216
G0 X109.915 Y88.263
G0 X110.452 Y88.403
G0 X110.957 Y88.632
G0 X111.416 Y88.942
G0 X111.680 Y89.195
G0 X111.680 Y89.195
G0 X113.199 Y88.860
G0 X112.842 Y88.938
G0 F3000 E6.8128
G1 X111.116 Y87.213 E6.9142 F3600
G0 X110.289 Y86.952 F7200
G1 X113.103 Y89.765 E7.0797 F3600
G0 X113.163 Y90.391 F7200
G1 X112.556 Y89.784 E7.1153 F3600
G0 X113.164 Y92.655 F7200
G0 X113.054 Y92.262
G1 X112.950 Y93.007 E7.1362 F3600
G0 X113.164 Y93.786 F7200
G1 X112.564 Y93.186 E7.1715 F3600
G0 X112.349 Y93.536 F7200
G1 X113.164 Y94.352 E7.2194 F3600
G0 X113.164 Y94.918 F7200
G1 X112.099 Y93.853 E7.2821 F3600
G0 X110.381 Y94.963 F7200
G1 X113.164 Y97.746 E7.4457 F3600
G0 X113.164 Y98.312 F7200
G1 X109.915 Y95.062 E7.6368 F3600
G0 X109.391 Y95.104 F7200
G1 X113.164 Y98.878 E7.8586 F3600
G0 X113.164 Y99.443 F7200
G1 X108.775 Y95.054 E8.1167 F3600
G0 X107.996 Y94.840 F7200
G1 X113.164 Y100.009 E8.4206 F3600
G0 X113.164 Y100.575 F7200
G1 X105.561 Y92.971 E8.8677 F3600
G0 X105.561 Y93.537 F7200
G1 X112.868 Y100.844 E9.2973 F3600
G0 X112.302 Y100.844 F7200
G1 X105.561 Y94.102 E9.6937 F3600
G0 X105.561 Y94.668 F7200
G1 X111.737 Y100.844 E10.0569 F3600
G0 X111.171 Y100.844 F7200
G1 X105.561 Y95.234 E10.3867 F3600
G0 X105.561 Y95.799 F7200
G1 X110.605 Y100.844 E10.6834 F3600
G0 X110.040 Y100.844 F7200
G1 X105.561 Y96.365 E10.9467 F3600
G0 X105.561 Y96.931 F7200
G1 X109.474 Y100.844 E11.1768 F3600
G0 X108.908 Y100.844 F7200
G1 X105.561 Y97.496 E11.3737 F3600
G0 F3000 E10.3737
G0 X114.525 Y101.250 F7200
G0 F3000 E11.3737
;segType:Support
G1 X145.475 Y101.250 E12.4674 F5400
G0 F3000 E11.4674
G0 X146.836 Y98.042 F7200
G0 F3000 E12.4674
;segType:HShell
G1 X149.638 Y100.844 E12.6321 F3600
G0 X149.072 Y100.844 F7200
G1 X146.836 Y98.608 E12.7636 F3600
G0 X146.836 Y99.173 F7200
G1 X148.506 Y100.844 E12.8619 F3600
G0 X147.941 Y100.844 F7200
G1 X146.836 Y99.739 E12.9268 F3600
G0 X146.836 Y100.305 F7200
G1 X147.375 Y100.844 E12.9585 F3600
G0 X146.848 Y101.337 F7200
;segType:Perimeter
G1 X146.075 Y101.544 E12.9918 F2159
G1 X146.075 Y90.382 E13.4559
G1 X146.128 Y89.711 E13.4839
G1 X146.284 Y89.063 E13.5115
G1 X146.539 Y88.448 E13.5392
G1 X146.886 Y87.880 E13.5669
G1 X147.319 Y87.374 E13.5946
G1 X147.825 Y86.941 E13.6223
G1 X148.393 Y86.593 E13.6500
G1 X149.009 Y86.338 E13.6777
G1 X149.656 Y86.183 E13.7054
G1 X150.328 Y86.130 E13.7334
G1 X150.947 Y86.130 E13.7591
G1 X151.619 Y86.183 E13.7871
G1 X152.266 Y86.338 E13.8148
G1 X152.882 Y86.593 E13.8425
G1 X153.450 Y86.941 E13.8702
G1 X153.956 Y87.374 E13.8979
G1 X154.389 Y87.880 E13.9256
G1 X154.736 Y88.448 E13.9533
G1 X154.991 Y89.063 E13.9810
G1 X155.147 Y89.711 E14.0086
G1 X155.200 Y90.382 E14.0367
G1 X155.200 Y101.604 E14.5032
G1 X146.135 Y101.604 E14.8800
G0 X146.343 Y100.831 F7200
G0 X146.475 Y100.504
;segType:Loop
G1 X146.475 Y90.398 E15.3002 F3600
G1 X146.525 Y89.773 E15.3263
G1 X146.665 Y89.187 E15.3513
G1 X146.896 Y88.630 E15.3764
G1 X147.211 Y88.116 E15.4015
G1 X147.603 Y87.657 E15.4265
G1 X148.061 Y87.266 E15.4516
G1 X148.575 Y86.951 E15.4767
G1 X149.133 Y86.720 E15.5017
G1 X149.719 Y86.579 E15.5268
G1 X150.344 Y86.530 E15.5529
G1 X150.931 Y86.530 E15.5773
G1 X151.556 Y86.579 E15.6034
G1 X152.142 Y86.720 E15.6284
G1 X152.700 Y86.951 E15.6535
G1 X153.214 Y87.266 E15.6786
G1 X153.672 Y87.657 E15.7036
G1 X154.064 Y88.116 E15.7287
G1 X154.379 Y88.630 E15.7538
G1 X154.610 Y89.187 E15.7788
G1 X154.750 Y89.774 E15.8039
G1 X154.800 Y90.398 E15.8300
G1 X154.800 Y101.204 E16.2792
G1 X146.475 Y101.204 E16.6253
G1 X146.475 Y100.704 E16.6461
G0 F3000 E15.6461
G0 X146.475 Y100.704 F7200
G0 X148.700 Y94.109
G0 X148.700 Y94.109
G0 X148.375 Y93.846
G0 X148.009 Y93.430
G0 X147.718 Y92.958
G0 X147.511 Y92.444
G0 X147.394 Y91.901
G0 X147.371 Y91.347
G0 X147.441 Y90.797
G0 X147.604 Y90.267
G0 X147.853 Y89.772
G0 X148.183 Y89.326
G0 X148.584 Y88.942
G0 X149.043 Y88.632
G0 X149.548 Y88.403
G0 X150.085 Y88.263
G0 X150.637 Y88.216
G0 X150.686 Y88.221
G0 X150.805 Y87.869
G0 F3000 E16.6461
;segType:HShell
G1 X149.865 Y86.929 E16.7014 F3600
G0 X149.397 Y87.027 F7200
G1 X150.257 Y87.887 E16.7520 F3600
G0 X149.776 Y87.972 F7200
G1 X148.978 Y87.174 E16.7989 F3600
G0 X148.598 Y87.359 F7200
G1 X149.340 Y88.102 E16.8425 F3600
G0 X148.951 Y88.278 F7200
G1 X148.251 Y87.578 E16.8837 F3600
G0 X147.946 Y87.838 F7200
G1 X148.602 Y88.495 E16.9223 F3600
G0 X148.278 Y88.736 F7200
G1 X147.672 Y88.131 E16.9579 F3600
G0 X147.825 Y88.566 F7200
G1 X147.475 Y89.064 E16.9909 F3600
G1 X147.277 Y89.432 E17.0216
G1 X147.121 Y89.842 E17.0485
G1 X147.013 Y90.300 E17.0715
G0 X147.624 Y91.380 F7200
;segType:Perimeter
G1 X147.851 Y90.824 E17.0964 F2159
G1 X147.976 Y90.417 E17.1141
G1 X148.195 Y89.982 E17.1344
G1 X148.484 Y89.591 E17.1546
G1 X148.836 Y89.254 E17.1748
G1 X149.239 Y88.982 E17.1950
G1 X149.682 Y88.782 E17.2153
G1 X150.153 Y88.659 E17.2355
G1 X150.637 Y88.618 E17.2557
G1 X151.122 Y88.659 E17.2759
G1 X151.593 Y88.782 E17.2962
G1 X152.036 Y88.982 E17.3164
G1 X152.439 Y89.255 E17.3366
G1 X152.791 Y89.591 E17.3568
G1 X153.080 Y89.982 E17.3771
G1 X153.299 Y90.417 E17.3973
G1 X153.441 Y90.882 E17.4175
G1 X153.503 Y91.364 E17.4377
G1 X153.482 Y91.850 E17.4580
G1 X153.380 Y92.326 E17.4782
G1 X153.199 Y92.777 E17.4984
G1 X152.943 Y93.192 E17.5186
G1 X152.622 Y93.557 E17.5389
G1 X152.244 Y93.862 E17.5591
G1 X151.819 Y94.100 E17.5793
G1 X151.360 Y94.262 E17.5995
G1 X150.881 Y94.344 E17.6198
G1 X150.394 Y94.344 E17.6400
G1 X149.915 Y94.262 E17.6602
G1 X149.456 Y94.100 E17.6804
G1 X149.031 Y93.862 E17.7007
G1 X148.653 Y93.557 E17.7209
G1 X148.332 Y93.192 E17.7411
G1 X148.077 Y92.777 E17.7613
G1 X147.895 Y92.326 E17.7816
G1 X147.793 Y91.850 E17.8018
G1 X147.772 Y91.364 E17.8220
G1 X147.826 Y90.941 E17.8397
G0 X147.847 Y90.342 F7200
G0 X147.913 Y89.691
;segType:Loop
G1 X148.183 Y89.326 E17.8586 F3600
G1 X148.584 Y88.942 E17.8817
G1 X149.043 Y88.632 E17.9048
G1 X149.548 Y88.403 E17.9278
G1 X150.085 Y88.263 E17.9509
G1 X150.637 Y88.216 E17.9739
G1 X151.190 Y88.263 E17.9970
G1 X151.727 Y88.403 E18.0200
G1 X152.232 Y88.632 E18.0431
G1 X152.691 Y88.942 E18.0661
G1 X153.092 Y89.326 E18.0892
G1 X153.422 Y89.772 E18.1123
G1 X153.671 Y90.267 E18.1353
G1 X153.834 Y90.797 E18.1584
G1 X153.904 Y91.347 E18.1814
G1 X153.881 Y91.901 E18.2045
G1 X153.764 Y92.444 E18.2275
G1 X153.557 Y92.958 E18.2506
G1 X153.266 Y93.430 E18.2737
G1 X152.900 Y93.846 E18.2967
G1 X152.468 Y94.195 E18.3198
G1 X151.984 Y94.465 E18.3428
G1 X151.461 Y94.650 E18.3659
G1 X150.915 Y94.744 E18.3889
G1 X150.360 Y94.744 E18.4120
G1 X149.814 Y94.650 E18.4350
G1 X149.291 Y94.465 E18.4581
G1 X148.807 Y94.195 E18.4812
G1 X148.375 Y93.846 E18.5042
G1 X148.009 Y93.430 E18.5273
G1 X147.718 Y92.958 E18.5503
G1 X147.511 Y92.444 E18.5734
G1 X147.394 Y91.901 E18.5964
G1 X147.371 Y91.347 E18.6195
G1 X147.441 Y90.797 E18.6425
G1 X147.604 Y90.267 E18.6656
G1 X147.808 Y89.861 E18.6845
G0 X146.836 Y92.385 F7200
;segType:HShell
G1 X147.277 Y92.827 E18.7105 F3600
G0 X146.836 Y97.476 F7200
G1 X150.203 Y100.844 E18.9085 F3600
G0 X150.769 Y100.844 F7200
G1 X146.836 Y96.911 E19.1397 F3600
G0 X146.836 Y96.345 F7200
G1 X151.335 Y100.844 E19.4043 F3600
G0 X151.900 Y100.844 F7200
G1 X146.836 Y95.779 E19.7021 F3600
G0 X146.836 Y95.214 F7200
G1 X152.466 Y100.844 E20.0331 F3600
G0 X153.032 Y100.844 F7200
G1 X146.836 Y94.648 E20.3974 F3600
G0 X146.836 Y94.082 F7200
G1 X153.597 Y100.844 E20.7950 F3600
G0 X154.163 Y100.844 F7200
G1 X146.836 Y93.516 E21.2258 F3600
G0 X146.836 Y92.951 F7200
G1 X154.439 Y100.555 E21.6729 F3600
G0 X154.439 Y99.989 F7200
G1 X149.302 Y94.851 E21.9750 F3600
G0 X150.077 Y95.061 F7200
G1 X154.439 Y99.423 E22.2315 F3600
G0 X154.439 Y98.858 F7200
G1 X150.686 Y95.104 E22.4522 F3600
G0 X151.207 Y95.059 F7200
G1 X154.439 Y98.292 E22.6423 F3600
G0 X154.439 Y97.726 F7200
G1 X151.671 Y94.958 E22.8051 F3600
G0 X152.089 Y94.810 F7200
G1 X154.439 Y97.161 E22.9433 F3600
G0 X154.439 Y96.595 F7200
G1 X152.458 Y94.613 E23.0598 F3600
G0 X152.800 Y94.390 F7200
G1 X154.439 Y96.029 E23.1562 F3600
G0 X154.439 Y95.464 F7200
G1 X153.113 Y94.137 E23.2342 F3600
G0 X153.384 Y93.842 F7200
G1 X154.439 Y94.898 E23.2962 F3600
G0 X154.439 Y94.332 F7200
G1 X153.631 Y93.524 E23.3438 F3600
G0 X153.847 Y93.174 F7200
G1 X154.439 Y93.766 E23.3786 F3600
G0 X154.194 Y93.239 F7200
G1 X154.296 Y92.492 E23.4034 F3600
G0 X153.811 Y89.744 F7200
G1 X154.436 Y90.369 E23.4402 F3600
G0 X154.372 Y89.739 F7200
G1 X151.591 Y86.958 E23.6037 F3600
G0 X152.426 Y87.227 F7200
G1 X154.103 Y88.904 E23.7023 F3600
G0 X152.363 Y88.295 F7200
G1 X150.961 Y86.894 E23.7847 F3600
G0 X150.392 Y86.890 F7200
G1 X151.464 Y87.962 E23.8477 F3600
G0 F3000 E22.8477
G0 X151.283 Y88.288 F7200
G0 X151.190 Y88.263
G0 X150.637 Y88.216
G0 X150.085 Y88.263
G0 X149.548 Y88.403
G0 X149.043 Y88.632
G0 X148.584 Y88.942
G0 X148.183 Y89.326
G0 X147.853 Y89.772
G0 X147.604 Y90.267
G0 X147.441 Y90.797
G0 X147.371 Y91.347
G0 X147.394 Y91.901
G0 X147.511 Y92.444
G0 X147.718 Y92.958
G0 X148.009 Y93.430
G0 X148.266 Y93.722
G0 X148.266 Y93.722
G0 X146.475 Y96.948
G0 X145.475 Y98.750
G0 F3000 E23.8477
;segType:Support
G1 X114.525 Y98.750 E24.9415 F5400
; ------------------------------------
; Layer #3
; ------------------------------------
M106 S255 ;set fan speed
G92 E0 ;reset extr
G0 F3000 E-1.0000
G0 F1200 Z1.000
G0 X113.164 Y93.325 F7200
G0 F3000 E0.0000
;segType:Infill
G1 X105.646 Y100.844 E0.5305 F4500
G0 X105.573 Y101.337 F7200
;segType:Perimeter
G1 X104.800 Y101.544 E0.5638 F2159
G1 X104.800 Y90.382 E1.0278
G1 X104.853 Y89.711 E1.0558
G1 X105.009 Y89.063 E1.0835
G1 X105.264 Y88.448 E1.1112
G1 X105.611 Y87.880 E1.1389
G1 X106.044 Y87.374 E1.1666
G1 X106.550 Y86.941 E1.1943
G1 X107.118 Y86.593 E1.2219
G1 X107.734 Y86.338 E1.2496
G1 X108.381 Y86.183 E1.2773
G1 X109.053 Y86.130 E1.3053
G1 X109.672 Y86.130 E1.3311
G1 X110.344 Y86.183 E1.3591
G1 X110.991 Y86.338 E1.3868
G1 X111.607 Y86.593 E1.4145
G1 X112.175 Y86.941 E1.4422
G1 X112.681 Y87.374 E1.4698
G1 X113.114 Y87.880 E1.4975
G1 X113.461 Y88.448 E1.5252
G1 X113.716 Y89.063 E1.5529
G1 X113.872 Y89.711 E1.5806
G1 X113.925 Y90.382 E1.6086
G1 X113.925 Y101.604 E2.0751
G1 X104.860 Y101.604 E2.4520
G0 X105.067 Y100.831 F7200
G0 X105.200 Y100.504
;segType:Loop
G1 X105.200 Y90.398 E2.8721 F3600
G1 X105.250 Y89.774 E2.8982
G1 X105.390 Y89.187 E2.9233
G1 X105.621 Y88.630 E2.9483
G1 X105.936 Y88.116 E2.9734
G1 X106.328 Y87.657 E2.9985
G1 X106.786 Y87.266 E3.0235
G1 X107.300 Y86.951 E3.0486
G1 X107.858 Y86.720 E3.0737
G1 X108.444 Y86.579 E3.0988
G1 X109.069 Y86.530 E3.1248
G1 X109.656 Y86.530 E3.1492
G1 X110.281 Y86.579 E3.1753
G1 X110.867 Y86.720 E3.2004
G1 X111.425 Y86.951 E3.2254
G1 X111.939 Y87.266 E3.2505
G1 X112.397 Y87.657 E3.2756
G1 X112.789 Y88.116 E3.3007
G1 X113.104 Y88.630 E3.3257
G1 X113.335 Y89.187 E3.3508
G1 X113.475 Y89.773 E3.3759
G1 X113.525 Y90.398 E3.4019
G1 X113.525 Y101.204 E3.8512
G1 X105.200 Y101.204 E4.1972
G1 X105.200 Y100.704 E4.2180
G0 F3000 E3.2180
G0 X109.122 Y95.105 F7200
G0 F3000 E4.2180
;segType:Infill
G1 X105.561 Y98.666 E4.4693 F4500
G0 X105.561 Y99.798 F7200
G1 X110.403 Y94.956 E4.8109 F4500
G0 X110.624 Y94.225 F7200
;segType:Perimeter
G1 X110.026 Y94.272 E4.8359 F2159
G1 X109.606 Y94.344 E4.8536
G1 X109.119 Y94.344 E4.8738
G1 X108.640 Y94.262 E4.8940
G1 X108.181 Y94.100 E4.9143
G1 X107.756 Y93.862 E4.9345
G1 X107.378 Y93.557 E4.9547
G1 X107.057 Y93.192 E4.9749
G1 X106.801 Y92.777 E4.9952
G1 X106.620 Y92.326 E5.0154
G1 X106.518 Y91.850 E5.0356
G1 X106.497 Y91.364 E5.0559
G1 X106.559 Y90.882 E5.0761
G1 X106.701 Y90.417 E5.0963
G1 X106.920 Y89.982 E5.1165
G1 X107.209 Y89.591 E5.1368
G1 X107.561 Y89.254 E5.1570
G1 X107.964 Y88.982 E5.1772
G1 X108.407 Y88.782 E5.1974
G1 X108.878 Y88.659 E5.2177
G1 X109.363 Y88.618 E5.2379
G1 X109.847 Y88.659 E5.2581
G1 X110.318 Y88.782 E5.2783
G1 X110.761 Y88.982 E5.2986
G1 X111.164 Y89.254 E5.3188
G1 X111.516 Y89.591 E5.3390
G1 X111.805 Y89.982 E5.3592
G1 X112.024 Y90.417 E5.3795
G1 X112.166 Y90.882 E5.3997
G1 X112.228 Y91.364 E5.4199
G1 X112.207 Y91.850 E5.4401
G1 X112.105 Y92.326 E5.4604
G1 X111.923 Y92.777 E5.4806
G1 X111.668 Y93.192 E5.5008
G1 X111.347 Y93.556 E5.5210
G1 X110.969 Y93.862 E5.5413
G1 X110.544 Y94.100 E5.5615
G1 X110.142 Y94.242 E5.5792
G0 X109.597 Y94.493 F7200
G0 X108.987 Y94.727
;segType:Loop
G1 X108.539 Y94.650 E5.5981 F3600
G1 X108.016 Y94.465 E5.6212
G1 X107.532 Y94.195 E5.6442
G1 X107.100 Y93.846 E5.6673
G1 X106.734 Y93.430 E5.6903
G1 X106.443 Y92.958 E5.7134
G1 X106.236 Y92.444 E5.7365
G1 X106.119 Y91.901 E5.7595
G1 X106.096 Y91.347 E5.7826
G1 X106.166 Y90.797 E5.8056
G1 X106.329 Y90.267 E5.8287
G1 X106.578 Y89.772 E5.8517
G1 X106.908 Y89.326 E5.8748
G1 X107.309 Y88.942 E5.8979
G1 X107.768 Y88.632 E5.9209
G1 X108.273 Y88.403 E5.9440
G1 X108.810 Y88.263 E5.9670
G1 X109.363 Y88.216 E5.9901
G1 X109.915 Y88.263 E6.0131
G1 X110.452 Y88.403 E6.0362
G1 X110.957 Y88.632 E6.0592
G1 X111.416 Y88.942 E6.0823
G1 X111.817 Y89.326 E6.1053
G1 X112.147 Y89.772 E6.1284
G1 X112.396 Y90.267 E6.1515
G1 X112.559 Y90.797 E6.1745
G1 X112.629 Y91.347 E6.1976
G1 X112.606 Y91.901 E6.2206
G1 X112.489 Y92.443 E6.2437
G1 X112.282 Y92.958 E6.2668
G1 X111.991 Y93.430 E6.2898
G1 X111.625 Y93.846 E6.3128
G1 X111.193 Y94.195 E6.3359
G1 X110.709 Y94.465 E6.3590
G1 X110.186 Y94.650 E6.3820
G1 X109.640 Y94.744 E6.4051
G1 X109.185 Y94.744 E6.4240
G0 X108.188 Y94.908 F7200
;segType:Infill
G1 X105.561 Y97.535 E6.6093 F4500
G1 X105.561 Y96.404 E6.6658
G1 X107.419 Y94.545 E6.7969
G1 X106.792 Y94.041 E6.8371
G1 X105.561 Y95.272 E6.9239
G1 X105.561 Y94.141 E6.9804
G1 X106.296 Y93.406 E7.0323
G1 X105.928 Y92.642 E7.0745
G1 X105.561 Y93.010 E7.1005
G0 X105.561 Y90.747 F7200
G1 X105.913 Y90.394 E7.1254 F4500
G0 X105.689 Y89.487 F7200
G1 X108.158 Y87.018 E7.2995 F4500
G1 X109.417 Y86.890 E7.3627
G1 X108.278 Y88.030 E7.4431
G0 X109.566 Y87.872 F7200
G1 X110.449 Y86.990 E7.5054 F4500
G1 X111.283 Y87.287 E7.5496
G1 X110.521 Y88.049 E7.6033
G1 X111.284 Y88.418 E7.6456
G1 X111.951 Y87.750 E7.6927
G1 X112.500 Y88.333 E7.7326
G1 X111.913 Y88.919 E7.7740
G1 X112.424 Y89.540 E7.8141
G1 X112.896 Y89.068 E7.8474
G1 X113.129 Y89.966 E7.8937
G1 X112.786 Y90.310 E7.9179
G0 X113.164 Y92.194 F7200
G1 X112.841 Y92.517 E7.9407 F4500
G0 X112.434 Y100.844 F7200
G1 X113.164 Y100.113 E7.9922 F4500
G1 X113.164 Y98.982 E8.0487
G1 X111.302 Y100.844 E8.1801
G1 X110.171 Y100.844 E8.2365
G1 X113.164 Y97.851 E8.4477
G1 X113.164 Y96.719 E8.5041
G1 X109.040 Y100.844 E8.7952
G1 X107.908 Y100.844 E8.8516
G1 X113.164 Y95.588 E9.2225
G1 X113.164 Y94.457 E9.2789
G1 X106.777 Y100.844 E9.7296
G0 F3000 E8.7296
G0 X145.475 Y98.750 F7200
G0 F3000 E9.7296
;segType:Support
G1 X114.525 Y98.750 E10.8233 F5400
G1 X114.525 Y101.250 E10.9117
G1 X145.475 Y101.250 E12.0054
G0 F3000 E11.0054
G0 X148.638 Y100.844 F7200
G0 F3000 E12.0054
;segType:Infill
G1 X154.439 Y95.042 E12.4147 F4500
G1 X154.439 Y93.911 E12.4712
G1 X147.506 Y100.844 E12.9603
G0 X146.848 Y101.337 F7200
;segType:Perimeter
G1 X146.075 Y101.544 E12.9936 F2159
G1 X146.075 Y90.382 E13.4577
G1 X146.128 Y89.711 E13.4857
G1 X146.284 Y89.063 E13.5134
G1 X146.539 Y88.448 E13.5410
G1 X146.886 Y87.880 E13.5687
G1 X147.319 Y87.374 E13.5964
G1 X147.825 Y86.941 E13.6241
G1 X148.393 Y86.593 E13.6518
G1 X149.009 Y86.338 E13.6795
G1 X149.656 Y86.183 E13.7072
G1 X150.328 Y86.130 E13.7352
G1 X150.947 Y86.130 E13.7609
G1 X151.619 Y86.183 E13.7889
G1 X152.266 Y86.338 E13.8166
G1 X152.882 Y86.593 E13.8443
G1 X153.450 Y86.941 E13.8720
G1 X153.956 Y87.374 E13.8997
G1 X154.389 Y87.880 E13.9274
G1 X154.736 Y88.448 E13.9551
G1 X154.991 Y89.063 E13.9828
G1 X155.147 Y89.711 E14.0104
G1 X155.200 Y90.382 E14.0385
G1 X155.200 Y101.604 E14.5050
G1 X146.135 Y101.604 E14.8818
G0 X146.343 Y100.831 F7200
G0 X146.475 Y100.504
;segType:Loop
G1 X146.475 Y90.398 E15.3020 F3600
G1 X146.525 Y89.773 E15.3281
G1 X146.665 Y89.187 E15.3531
G1 X146.896 Y88.630 E15.3782
G1 X147.211 Y88.116 E15.4033
G1 X147.603 Y87.657 E15.4283
G1 X148.061 Y87.266 E15.4534
G1 X148.575 Y86.951 E15.4785
G1 X149.133 Y86.720 E15.5035
G1 X149.719 Y86.579 E15.5286
G1 X150.344 Y86.530 E15.5547
G1 X150.931 Y86.530 E15.5791
G1 X151.556 Y86.579 E15.6052
G1 X152.142 Y86.720 E15.6302
G1 X152.700 Y86.951 E15.6553
G1 X153.214 Y87.266 E15.6804
G1 X153.672 Y87.657 E15.7054
G1 X154.064 Y88.116 E15.7305
G1 X154.379 Y88.630 E15.7556
G1 X154.610 Y89.187 E15.7806
G1 X154.750 Y89.774 E15.8057
G1 X154.800 Y90.398 E15.8318
G1 X154.800 Y101.204 E16.2810
G1 X146.475 Y101.204 E16.6271
G1 X146.475 Y100.704 E16.6479
G0 F3000 E15.6479
G0 X146.475 Y100.704 F7200
G0 X150.224 Y94.720
G0 X150.224 Y94.720
G0 X150.360 Y94.744
G0 X150.915 Y94.744
G0 X151.461 Y94.650
G0 X151.984 Y94.465
G0 X152.468 Y94.195
G0 X152.900 Y93.846
G0 X153.266 Y93.430
G0 X153.557 Y92.958
G0 X153.764 Y92.444
G0 X153.881 Y91.901
G0 X153.904 Y91.347
G0 X153.834 Y90.797
G0 X153.671 Y90.267
G0 X153.422 Y89.772
G0 X153.369 Y89.700
G0 X153.369 Y89.700
G0 X154.211 Y88.355
G0 X153.997 Y88.696
G0 F3000 E16.6479
;segType:Infill
G1 X153.467 Y89.227 E16.6853 F4500
G1 X152.908 Y88.654 E16.7252
G1 X153.524 Y88.038 E16.7687
G1 X152.922 Y87.509 E16.8087
G1 X152.206 Y88.225 E16.8592
G1 X151.363 Y87.936 E16.9036
G1 X152.176 Y87.124 E16.9609
G1 X151.252 Y86.917 E17.0082
G1 X150.283 Y87.885 E17.0765
G0 X150.339 Y88.242 F7200
G0 X150.072 Y86.552
G0 X150.128 Y86.908
G1 X148.416 Y88.621 E17.1974 F4500
G0 X148.464 Y87.442 F7200
G1 X147.387 Y88.519 E17.2733 F4500
G0 X147.804 Y89.233 F7200
G1 X146.854 Y90.183 E17.3404 F4500
G0 X147.624 Y91.380 F7200
;segType:Perimeter
G1 X147.851 Y90.824 E17.3653 F2159
G1 X147.976 Y90.417 E17.3831
G1 X148.195 Y89.982 E17.4033
G1 X148.484 Y89.591 E17.4235
G1 X148.836 Y89.254 E17.4437
G1 X149.239 Y88.982 E17.4640
G1 X149.682 Y88.782 E17.4842
G1 X150.153 Y88.659 E17.5044
G1 X150.637 Y88.618 E17.5246
G1 X151.122 Y88.659 E17.5449
G1 X151.593 Y88.782 E17.5651
G1 X152.036 Y88.982 E17.5853
G1 X152.439 Y89.255 E17.6055
G1 X152.791 Y89.591 E17.6258
G1 X153.080 Y89.982 E17.6460
G1 X153.299 Y90.417 E17.6662
G1 X153.441 Y90.882 E17.6865
G1 X153.503 Y91.364 E17.7067
G1 X153.482 Y91.850 E17.7269
G1 X153.380 Y92.326 E17.7471
G1 X153.199 Y92.777 E17.7674
G1 X152.943 Y93.192 E17.7876
G1 X152.622 Y93.557 E17.8078
G1 X152.244 Y93.862 E17.8280
G1 X151.819 Y94.100 E17.8483
G1 X151.360 Y94.262 E17.8685
G1 X150.881 Y94.344 E17.8887
G1 X150.394 Y94.344 E17.9089
G1 X149.915 Y94.262 E17.9291
G1 X149.456 Y94.100 E17.9494
G1 X149.031 Y93.862 E17.9696
G1 X148.653 Y93.557 E17.9898
G1 X148.332 Y93.192 E18.0101
G1 X148.077 Y92.777 E18.0303
G1 X147.895 Y92.326 E18.0505
G1 X147.793 Y91.850 E18.0707
G1 X147.772 Y91.364 E18.0910
G1 X147.826 Y90.941 E18.1087
G0 X147.847 Y90.342 F7200
G0 X147.913 Y89.691
;segType:Loop
G1 X148.183 Y89.326 E18.1276 F3600
G1 X148.584 Y88.942 E18.1506
G1 X149.043 Y88.632 E18.1737
G1 X149.548 Y88.403 E18.1967
G1 X150.085 Y88.263 E18.2198
G1 X150.637 Y88.216 E18.2429
G1 X151.190 Y88.263 E18.2659
G1 X151.727 Y88.403 E18.2890
G1 X152.232 Y88.632 E18.3120
G1 X152.691 Y88.942 E18.3351
G1 X153.092 Y89.326 E18.3581
G1 X153.422 Y89.772 E18.3812
G1 X153.671 Y90.267 E18.4043
G1 X153.834 Y90.797 E18.4273
G1 X153.904 Y91.347 E18.4504
G1 X153.881 Y91.901 E18.4734
G1 X153.764 Y92.444 E18.4965
G1 X153.557 Y92.958 E18.5195
G1 X153.266 Y93.430 E18.5426
G1 X152.900 Y93.846 E18.5656
G1 X152.468 Y94.195 E18.5887
G1 X151.984 Y94.465 E18.6118
G1 X151.461 Y94.650 E18.6348
G1 X150.915 Y94.744 E18.6579
G1 X150.360 Y94.744 E18.6809
G1 X149.814 Y94.650 E18.7040
G1 X149.291 Y94.465 E18.7270
G1 X148.807 Y94.195 E18.7501
G1 X148.375 Y93.846 E18.7732
G1 X148.009 Y93.430 E18.7962
G1 X147.718 Y92.958 E18.8193
G1 X147.511 Y92.444 E18.8423
G1 X147.394 Y91.901 E18.8654
G1 X147.371 Y91.347 E18.8884
G1 X147.441 Y90.797 E18.9115
G1 X147.604 Y90.267 E18.9345
G1 X147.808 Y89.861 E18.9534
G0 F3000 E17.9534
G0 X147.808 Y89.861 F7200
G0 X147.853 Y89.772
G0 X148.183 Y89.326
G0 X148.584 Y88.942
G0 X149.043 Y88.632
G0 X149.548 Y88.403
G0 X150.085 Y88.263
G0 X150.637 Y88.216
G0 X151.190 Y88.263
G0 X151.727 Y88.403
G0 X152.232 Y88.632
G0 X152.691 Y88.942
G0 X153.092 Y89.326
G0 X153.422 Y89.772
G0 X153.496 Y89.919
G0 X153.901 Y89.923
G0 F3000 E18.9534
;segType:Infill
G1 X154.316 Y89.509 E18.9827 F4500
G0 X154.439 Y92.780 F7200
G1 X153.431 Y93.788 E19.0538 F4500
G0 X152.951 Y94.268 F7200
G1 X146.836 Y100.383 E19.4853 F4500
G0 X146.836 Y99.252 F7200
G1 X150.992 Y95.096 E19.7786 F4500
G1 X149.922 Y95.034 E19.8320
G1 X146.836 Y98.121 E20.0498
G1 X146.836 Y96.989 E20.1062
G1 X149.070 Y94.755 E20.2639
G1 X148.380 Y94.313 E20.3048
G1 X146.836 Y95.858 E20.4137
G1 X146.836 Y94.727 E20.4702
G1 X147.811 Y93.751 E20.5390
G1 X147.371 Y93.060 E20.5799
G1 X146.836 Y93.595 E20.6177
G0 X149.769 Y100.844 F7200
G1 X154.439 Y96.174 E20.9472 F4500
G1 X154.439 Y97.305 E21.0036
G1 X150.900 Y100.844 E21.2533
G1 X152.032 Y100.844 E21.3098
G1 X154.439 Y98.436 E21.4797
G1 X154.439 Y99.568 E21.5361
G1 X153.163 Y100.844 E21.6262
; ------------------------------------
; Layer #4
; ------------------------------------
G92 E0 ;reset extr
G0 F3000 E-1.0000
G0 F1200 Z1.250
G0 X109.474 Y100.844 F7200
G0 F3000 E0.0000
;segType:Infill
G1 X105.561 Y96.931 E0.2761 F4500
G0 X105.561 Y98.062 F7200
G1 X108.343 Y100.844 E0.4724 F4500
G0 X107.211 Y100.844 F7200
G1 X105.561 Y99.193 E0.5889 F4500
G0 X105.561 Y100.325 F7200
G1 X106.080 Y100.844 E0.6255 F4500
G0 X105.573 Y101.337 F7200
;segType:Perimeter
G1 X104.800 Y101.544 E0.6588 F2159
G1 X104.800 Y90.382 E1.1228
G1 X104.853 Y89.711 E1.1508
G1 X105.009 Y89.063 E1.1785
G1 X105.264 Y88.448 E1.2062
G1 X105.611 Y87.880 E1.2339
G1 X106.044 Y87.374 E1.2616
G1 X106.550 Y86.941 E1.2893
G1 X107.118 Y86.593 E1.3170
G1 X107.734 Y86.338 E1.3447
G1 X108.381 Y86.183 E1.3723
G1 X109.053 Y86.130 E1.4004
G1 X109.672 Y86.130 E1.4261
G1 X110.344 Y86.183 E1.4541
G1 X110.991 Y86.338 E1.4818
G1 X111.607 Y86.593 E1.5095
G1 X112.175 Y86.941 E1.5372
G1 X112.681 Y87.374 E1.5649
G1 X113.114 Y87.880 E1.5926
G1 X113.461 Y88.448 E1.6202
G1 X113.716 Y89.063 E1.6479
G1 X113.872 Y89.711 E1.6756
G1 X113.925 Y90.382 E1.7036
G1 X113.925 Y101.604 E2.1702
G1 X104.860 Y101.604 E2.5470
G0 X105.067 Y100.831 F7200
G0 X105.200 Y100.504
;segType:Loop
G1 X105.200 Y90.398 E2.9672 F3600
G1 X105.250 Y89.774 E2.9932
G1 X105.390 Y89.187 E3.0183
G1 X105.621 Y88.630 E3.0434
G1 X105.936 Y88.116 E3.0684
G1 X106.328 Y87.657 E3.0935
G1 X106.786 Y87.266 E3.1186
G1 X107.300 Y86.951 E3.1436
G1 X107.858 Y86.720 E3.1687
G1 X108.444 Y86.579 E3.1938
G1 X109.069 Y86.530 E3.2198
G1 X109.656 Y86.530 E3.2443
G1 X110.281 Y86.579 E3.2703
G1 X110.867 Y86.720 E3.2954
G1 X111.425 Y86.951 E3.3205
G1 X111.939 Y87.266 E3.3455
G1 X112.397 Y87.657 E3.3706
G1 X112.789 Y88.116 E3.3957
G1 X113.104 Y88.630 E3.4207
G1 X113.335 Y89.187 E3.4458
G1 X113.475 Y89.773 E3.4709
G1 X113.525 Y90.398 E3.4969
G1 X113.525 Y101.204 E3.9462
G1 X105.200 Y101.204 E4.2923
G1 X105.200 Y100.704 E4.3131
G0 F3000 E3.3131
G0 X105.200 Y100.704 F7200
G0 X107.596 Y94.231
G0 X107.596 Y94.231
G0 X107.532 Y94.195
G0 X107.100 Y93.846
G0 X106.734 Y93.430
G0 X106.443 Y92.958
G0 X106.236 Y92.444
G0 X106.119 Y91.901
G0 X106.096 Y91.347
G0 X106.166 Y90.797
G0 X106.329 Y90.267
G0 X106.578 Y89.772
G0 X106.908 Y89.326
G0 X107.309 Y88.942
G0 X107.768 Y88.632
G0 X108.273 Y88.403
G0 X108.810 Y88.263
G0 X109.363 Y88.216
G0 X109.807 Y88.254
G0 X109.807 Y88.254
G0 X110.415 Y86.611
G0 X110.289 Y86.952
G0 F3000 E4.3131
;segType:Infill
G1 X113.103 Y89.765 E4.5116 F4500
G0 X112.737 Y92.793 F7200
G1 X113.164 Y93.221 E4.5418 F4500
G1 X113.164 Y94.352 E4.5982
G1 X112.349 Y93.536 E4.6558
G1 X111.827 Y94.146 E4.6958
G1 X113.164 Y95.484 E4.7902
G1 X113.164 Y96.615 E4.8466
G1 X111.170 Y94.620 E4.9873
G0 X110.624 Y94.225 F7200
;segType:Perimeter
G1 X110.026 Y94.272 E5.0123 F2159
G1 X109.606 Y94.344 E5.0300
G1 X109.119 Y94.344 E5.0502
G1 X108.640 Y94.262 E5.0705
G1 X108.181 Y94.100 E5.0907
G1 X107.756 Y93.862 E5.1109
G1 X107.378 Y93.557 E5.1311
G1 X107.057 Y93.192 E5.1514
G1 X106.801 Y92.777 E5.1716
G1 X106.620 Y92.326 E5.1918
G1 X106.518 Y91.850 E5.2120
G1 X106.497 Y91.364 E5.2323
G1 X106.559 Y90.882 E5.2525
G1 X106.701 Y90.417 E5.2727
G1 X106.920 Y89.982 E5.2929
G1 X107.209 Y89.591 E5.3132
G1 X107.561 Y89.254 E5.3334
G1 X107.964 Y88.982 E5.3536
G1 X108.407 Y88.782 E5.3738
G1 X108.878 Y88.659 E5.3941
G1 X109.363 Y88.618 E5.4143
G1 X109.847 Y88.659 E5.4345
G1 X110.318 Y88.782 E5.4547
G1 X110.761 Y88.982 E5.4750
G1 X111.164 Y89.254 E5.4952
G1 X111.516 Y89.591 E5.5154
G1 X111.805 Y89.982 E5.5356
G1 X112.024 Y90.417 E5.5559
G1 X112.166 Y90.882 E5.5761
G1 X112.228 Y91.364 E5.5963
G1 X112.207 Y91.850 E5.6165
G1 X112.105 Y92.326 E5.6368
G1 X111.923 Y92.777 E5.6570
G1 X111.668 Y93.192 E5.6772
G1 X111.347 Y93.556 E5.6974
G1 X110.969 Y93.862 E5.7177
G1 X110.544 Y94.100 E5.7379
G1 X110.142 Y94.242 E5.7556
G0 X109.597 Y94.493 F7200
G0 X108.987 Y94.727
;segType:Loop
G1 X108.539 Y94.650 E5.7745 F3600
G1 X108.016 Y94.465 E5.7976
G1 X107.532 Y94.195 E5.8206
G1 X107.100 Y93.846 E5.8437
G1 X106.734 Y93.430 E5.8667
G1 X106.443 Y92.958 E5.8898
G1 X106.236 Y92.444 E5.9129
G1 X106.119 Y91.901 E5.9359
G1 X106.096 Y91.347 E5.9590
G1 X106.166 Y90.797 E5.9820
G1 X106.329 Y90.267 E6.0051
G1 X106.578 Y89.772 E6.0281
G1 X106.908 Y89.326 E6.0512
G1 X107.309 Y88.942 E6.0743
G1 X107.768 Y88.632 E6.0973
G1 X108.273 Y88.403 E6.1204
G1 X108.810 Y88.263 E6.1434
G1 X109.363 Y88.216 E6.1665
G1 X109.915 Y88.263 E6.1895
G1 X110.452 Y88.403 E6.2126
G1 X110.957 Y88.632 E6.2356
G1 X111.416 Y88.942 E6.2587
G1 X111.817 Y89.326 E6.2817
G1 X112.147 Y89.772 E6.3048
G1 X112.396 Y90.267 E6.3279
G1 X112.559 Y90.797 E6.3509
G1 X112.629 Y91.347 E6.3740
G1 X112.606 Y91.901 E6.3970
G1 X112.489 Y92.443 E6.4201
G1 X112.282 Y92.958 E6.4432
G1 X111.991 Y93.430 E6.4662
G1 X111.625 Y93.846 E6.4893
G1 X111.193 Y94.195 E6.5123
G1 X110.709 Y94.465 E6.5354
G1 X110.186 Y94.650 E6.5584
G1 X109.640 Y94.744 E6.5815
G1 X109.185 Y94.744 E6.6004
G0 X110.381 Y94.963 F7200
;segType:Infill
G1 X113.164 Y97.746 E6.7967 F4500
G1 X113.164 Y98.878 E6.8532
G1 X109.391 Y95.104 E7.1194
G0 X107.996 Y94.840 F7200
G1 X113.164 Y100.009 E7.4841 F4500
G1 X112.868 Y100.844 E7.5283
G1 X105.561 Y93.537 E8.0439
G1 X105.561 Y94.668 E8.1003
G1 X111.737 Y100.844 E8.5361
G1 X110.605 Y100.844 E8.5925
G1 X105.561 Y95.799 E8.9485
G0 X106.016 Y92.860 F7200
G1 X105.561 Y92.405 E8.9806 F4500
G0 F3000 E7.9806
G0 X105.200 Y92.753 F7200
G0 X106.118 Y91.866
G0 X106.118 Y91.866
G0 X106.096 Y91.347
G0 X106.166 Y90.797
G0 X106.329 Y90.267
G0 X106.578 Y89.772
G0 X106.908 Y89.326
G0 X107.309 Y88.942
G0 X107.768 Y88.632
G0 X108.273 Y88.403
G0 X108.810 Y88.263
G0 X109.363 Y88.216
G0 X109.849 Y88.258
G0 X110.162 Y87.955
G0 F3000 E8.9806
G1 X109.097 Y86.890 E9.0557 F4500
G1 X108.106 Y87.031 E9.1057
G1 X108.964 Y87.889 E9.1662
G1 X108.052 Y88.108 E9.2130
G1 X107.311 Y87.367 E9.2653
G1 X106.660 Y87.847 E9.3057
G1 X107.315 Y88.503 E9.3519
G1 X106.704 Y89.023 E9.3920
G1 X106.145 Y88.464 E9.4314
G1 X105.768 Y89.218 E9.4734
G1 X106.224 Y89.674 E9.5056
G1 X105.890 Y90.471 E9.5488
G1 X105.580 Y90.162 E9.5706
G0 F3000 E8.5706
G0 X105.254 Y89.757 F7200
G0 X106.156 Y90.876
G0 X106.156 Y90.876
G0 X106.096 Y91.347
G0 X106.119 Y91.901
G0 X106.236 Y92.444
G0 X106.443 Y92.958
G0 X106.734 Y93.430
G0 X107.100 Y93.846
G0 X107.532 Y94.195
G0 X108.016 Y94.465
G0 X108.539 Y94.650
G0 X109.085 Y94.744
G0 X109.276 Y94.744
G0 X109.276 Y94.744
G0 X113.525 Y100.010
G0 X114.525 Y101.250
G0 F3000 E9.5706
;segType:Support
G1 X145.475 Y101.250 E10.6643 F5400
G0 F3000 E9.6643
G0 X151.335 Y100.844 F7200
G0 F3000 E10.6643
;segType:Infill
G1 X146.836 Y96.345 E10.9818 F4500
G0 X146.836 Y97.476 F7200
G1 X150.203 Y100.844 E11.2194 F4500
G0 X149.072 Y100.844 F7200
G1 X146.836 Y98.608 E11.3772 F4500
G0 X146.836 Y99.739 F7200
G1 X147.941 Y100.844 E11.4551 F4500
G0 X146.848 Y101.337 F7200
;segType:Perimeter
G1 X146.075 Y101.544 E11.4884 F2159
G1 X146.075 Y90.382 E11.9524
G1 X146.128 Y89.711 E11.9805
G1 X146.284 Y89.063 E12.0081
G1 X146.539 Y88.448 E12.0358
G1 X146.886 Y87.880 E12.0635
G1 X147.319 Y87.374 E12.0912
G1 X147.825 Y86.941 E12.1189
G1 X148.393 Y86.593 E12.1466
G1 X149.009 Y86.338 E12.1743
G1 X149.656 Y86.183 E12.2020
G1 X150.328 Y86.130 E12.2300
G1 X150.947 Y86.130 E12.2557
G1 X151.619 Y86.183 E12.2837
G1 X152.266 Y86.338 E12.3114
G1 X152.882 Y86.593 E12.3391
G1 X153.450 Y86.941 E12.3668
G1 X153.956 Y87.374 E12.3945
G1 X154.389 Y87.880 E12.4222
G1 X154.736 Y88.448 E12.4498
G1 X154.991 Y89.063 E12.4775
G1 X155.147 Y89.711 E12.5052
G1 X155.200 Y90.382 E12.5332
G1 X155.200 Y101.604 E12.9998
G1 X146.135 Y101.604 E13.3766
G0 X146.343 Y100.831 F7200
G0 X146.475 Y100.504
;segType:Loop
G1 X146.475 Y90.398 E13.7968 F3600
G1 X146.525 Y89.773 E13.8228
G1 X146.665 Y89.187 E13.8479
G1 X146.896 Y88.630 E13.8730
G1 X147.211 Y88.116 E13.8980
G1 X147.603 Y87.657 E13.9231
G1 X148.061 Y87.266 E13.9482
G1 X148.575 Y86.951 E13.9732
G1 X149.133 Y86.720 E13.9983
G1 X149.719 Y86.579 E14.0234
G1 X150.344 Y86.530 E14.0494
G1 X150.931 Y86.530 E14.0739
G1 X151.556 Y86.579 E14.0999
G1 X152.142 Y86.720 E14.1250
G1 X152.700 Y86.951 E14.1501
G1 X153.214 Y87.266 E14.1751
G1 X153.672 Y87.657 E14.2002
G1 X154.064 Y88.116 E14.2253
G1 X154.379 Y88.630 E14.2504
G1 X154.610 Y89.187 E14.2754
G1 X154.750 Y89.774 E14.3005
G1 X154.800 Y90.398 E14.3265
G1 X154.800 Y101.204 E14.7758
G1 X146.475 Y101.204 E15.1219
G1 X146.475 Y100.704 E15.1427
G0 F3000 E14.1427
G0 X146.475 Y100.704 F7200
G0 X149.415 Y94.509
G0 X149.415 Y94.509
G0 X149.814 Y94.650
G0 X150.360 Y94.744
G0 X150.915 Y94.744
G0 X151.461 Y94.650
G0 X151.984 Y94.465
G0 X152.468 Y94.195
G0 X152.900 Y93.846
G0 X153.266 Y93.430
G0 X153.557 Y92.958
G0 X153.764 Y92.444
G0 X153.881 Y91.901
G0 X153.904 Y91.347
G0 X153.834 Y90.797
G0 X153.671 Y90.267
G0 X153.422 Y89.772
G0 X153.092 Y89.326
G0 X152.691 Y88.942
G0 X152.232 Y88.632
G0 X152.208 Y88.621
G0 X152.363 Y88.295
G0 F3000 E15.1427
;segType:Infill
G1 X150.961 Y86.894 E15.2416 F4500
G1 X149.865 Y86.929 E15.2963
G1 X150.805 Y87.869 E15.3626
G1 X149.776 Y87.972 E15.4142
G1 X148.978 Y87.174 E15.4705
G1 X148.251 Y87.578 E15.5120
G1 X148.951 Y88.278 E15.5614
G1 X148.278 Y88.736 E15.6021
G1 X147.672 Y88.131 E15.6448
G1 X147.214 Y88.804 E15.6854
G1 X147.736 Y89.325 E15.7222
G0 X147.316 Y90.037 F7200
G1 X146.925 Y89.647 E15.7498 F4500
G0 X147.624 Y91.380 F7200
;segType:Perimeter
G1 X147.851 Y90.824 E15.7747 F2159
G1 X147.976 Y90.417 E15.7925
G1 X148.195 Y89.982 E15.8127
G1 X148.484 Y89.591 E15.8329
G1 X148.836 Y89.254 E15.8531
G1 X149.239 Y88.982 E15.8734
G1 X149.682 Y88.782 E15.8936
G1 X150.153 Y88.659 E15.9138
G1 X150.637 Y88.618 E15.9340
G1 X151.122 Y88.659 E15.9543
G1 X151.593 Y88.782 E15.9745
G1 X152.036 Y88.982 E15.9947
G1 X152.439 Y89.255 E16.0149
G1 X152.791 Y89.591 E16.0352
G1 X153.080 Y89.982 E16.0554
G1 X153.299 Y90.417 E16.0756
G1 X153.441 Y90.882 E16.0958
G1 X153.503 Y91.364 E16.1161
G1 X153.482 Y91.850 E16.1363
G1 X153.380 Y92.326 E16.1565
G1 X153.199 Y92.777 E16.1767
G1 X152.943 Y93.192 E16.1970
G1 X152.622 Y93.557 E16.2172
G1 X152.244 Y93.862 E16.2374
G1 X151.819 Y94.100 E16.2576
G1 X151.360 Y94.262 E16.2779
G1 X150.881 Y94.344 E16.2981
G1 X150.394 Y94.344 E16.3183
G1 X149.915 Y94.262 E16.3385
G1 X149.456 Y94.100 E16.3588
G1 X149.031 Y93.862 E16.3790
G1 X148.653 Y93.557 E16.3992
G1 X148.332 Y93.192 E16.4194
G1 X148.077 Y92.777 E16.4397
G1 X147.895 Y92.326 E16.4599
G1 X147.793 Y91.850 E16.4801
G1 X147.772 Y91.364 E16.5003
G1 X147.826 Y90.941 E16.5181
G0 X147.847 Y90.342 F7200
G0 X147.913 Y89.691
;segType:Loop
G1 X148.183 Y89.326 E16.5370 F3600
G1 X148.584 Y88.942 E16.5600
G1 X149.043 Y88.632 E16.5831
G1 X149.548 Y88.403 E16.6061
G1 X150.085 Y88.263 E16.6292
G1 X150.637 Y88.216 E16.6522
G1 X151.190 Y88.263 E16.6753
G1 X151.727 Y88.403 E16.6984
G1 X152.232 Y88.632 E16.7214
G1 X152.691 Y88.942 E16.7445
G1 X153.092 Y89.326 E16.7675
G1 X153.422 Y89.772 E16.7906
G1 X153.671 Y90.267 E16.8137
G1 X153.834 Y90.797 E16.8367
G1 X153.904 Y91.347 E16.8597
G1 X153.881 Y91.901 E16.8828
G1 X153.764 Y92.444 E16.9059
G1 X153.557 Y92.958 E16.9289
G1 X153.266 Y93.430 E16.9520
G1 X152.900 Y93.846 E16.9750
G1 X152.468 Y94.195 E16.9981
G1 X151.984 Y94.465 E17.0211
G1 X151.461 Y94.650 E17.0442
G1 X150.915 Y94.744 E17.0673
G1 X150.360 Y94.744 E17.0903
G1 X149.814 Y94.650 E17.1134
G1 X149.291 Y94.465 E17.1364
G1 X148.807 Y94.195 E17.1595
G1 X148.375 Y93.846 E17.1825
G1 X148.009 Y93.430 E17.2056
G1 X147.718 Y92.958 E17.2286
G1 X147.511 Y92.444 E17.2517
G1 X147.394 Y91.901 E17.2748
G1 X147.371 Y91.347 E17.2978
G1 X147.441 Y90.797 E17.3209
G1 X147.604 Y90.267 E17.3439
G1 X147.808 Y89.861 E17.3628
G0 F3000 E16.3628
G0 X147.808 Y89.861 F7200
G0 X147.853 Y89.772
G0 X148.183 Y89.326
G0 X148.584 Y88.942
G0 X149.043 Y88.632
G0 X149.548 Y88.403
G0 X150.085 Y88.263
G0 X150.637 Y88.216
G0 X150.684 Y88.220
G0 X150.684 Y88.220
G0 X152.801 Y87.013
G0 X152.426 Y87.227
G0 F3000 E17.3628
;segType:Infill
G1 X154.103 Y88.904 E17.4811 F4500
G0 X153.811 Y89.744 F7200
G1 X154.436 Y90.369 E17.5252 F4500
G0 X154.153 Y92.348 F7200
G1 X154.439 Y92.635 E17.5455 F4500
G1 X154.439 Y93.766 E17.6019
G1 X153.847 Y93.174 E17.6437
G1 X153.384 Y93.842 E17.6843
G1 X154.439 Y94.898 E17.7588
G1 X154.439 Y96.029 E17.8152
G1 X152.800 Y94.390 E17.9309
G1 X152.089 Y94.810 E17.9721
G1 X154.439 Y97.161 E18.1379
G1 X154.439 Y98.292 E18.1944
G1 X151.207 Y95.059 E18.4225
G1 X150.077 Y95.061 E18.4788
G1 X154.439 Y99.423 E18.7867
G1 X154.439 Y100.555 E18.8431
G1 X146.836 Y92.951 E19.3796
G1 X146.836 Y94.082 E19.4360
G1 X153.597 Y100.844 E19.9131
G1 X152.466 Y100.844 E19.9696
G1 X146.836 Y95.214 E20.3668
G0 F3000 E19.3668
G0 X145.475 Y98.750 F7200
G0 F3000 E20.3668
;segType:Support
G1 X114.525 Y98.750 E21.4606 F5400
; ------------------------------------
; Layer #5
; ------------------------------------
G92 E0 ;reset extr
G0 F3000 E-1.0000
G0 F1200 Z1.500
G0 X113.164 Y93.325 F7200
G0 F3000 E0.0000
;segType:Infill
G1 X105.646 Y100.844 E0.5305 F4500
G0 X105.573 Y101.337 F7200
;segType:Perimeter
G1 X104.800 Y101.544 E0.5638 F2159
G1 X104.800 Y90.382 E1.0278
G1 X104.853 Y89.711 E1.0558
G1 X105.009 Y89.063 E1.0835
G1 X105.264 Y88.448 E1.1112
G1 X105.611 Y87.880 E1.1389
G1 X106.044 Y87.374 E1.1666
G1 X106.550 Y86.941 E1.1943
G1 X107.118 Y86.593 E1.2219
G1 X107.734 Y86.338 E1.2496
G1 X108.381 Y86.183 E1.2773
G1 X109.053 Y86.130 E1.3053
G1 X109.672 Y86.130 E1.3311
G1 X110.344 Y86.183 E1.3591
G1 X110.991 Y86.338 E1.3868
G1 X111.607 Y86.593 E1.4145
G1 X112.175 Y86.941 E1.4422
G1 X112.681 Y87.374 E1.4698
G1 X113.114 Y87.880 E1.4975
G1 X113.461 Y88.448 E1.5252
G1 X113.716 Y89.063 E1.5529
G1 X113.872 Y89.711 E1.5806
G1 X113.925 Y90.382 E1.6086
G1 X113.925 Y101.604 E2.0751
G1 X104.860 Y101.604 E2.4520
G0 X105.067 Y100.831 F7200
G0 X105.200 Y100.504
;segType:Loop
G1 X105.200 Y90.398 E2.8721 F3600
G1 X105.250 Y89.774 E2.8982
G1 X105.390 Y89.187 E2.9233
G1 X105.621 Y88.630 E2.9483
G1 X105.936 Y88.116 E2.9734
G1 X106.328 Y87.657 E2.9985
G1 X106.786 Y87.266 E3.0235
G1 X107.300 Y86.951 E3.0486
G1 X107.858 Y86.720 E3.0737
G1 X108.444 Y86.579 E3.0988
G1 X109.069 Y86.530 E3.1248
G1 X109.656 Y86.530 E3.1492
G1 X110.281 Y86.579 E3.1753
G1 X110.867 Y86.720 E3.2004
G1 X111.425 Y86.951 E3.2254
G1 X111.939 Y87.266 E3.2505
G1 X112.397 Y87.657 E3.2756
G1 X112.789 Y88.116 E3.3007
G1 X113.104 Y88.630 E3.3257
G1 X113.335 Y89.187 E3.3508
G1 X113.475 Y89.773 E3.3759
G1 X113.525 Y90.398 E3.4019
G1 X113.525 Y101.204 E3.8512
G1 X105.200 Y101.204 E4.1972
G1 X105.200 Y100.704 E4.2180
G0 F3000 E3.2180
G0 X109.122 Y95.105 F7200
G0 F3000 E4.2180
;segType:Infill
G1 X105.561 Y98.666 E4.4693 F4500
G0 X105.561 Y99.798 F7200
G1 X110.403 Y94.956 E4.8109 F4500
G0 X110.624 Y94.225 F7200
;segType:Perimeter
G1 X110.026 Y94.272 E4.8359 F2159
G1 X109.606 Y94.344 E4.8536
G1 X109.119 Y94.344 E4.8738
G1 X108.640 Y94.262 E4.8940
G1 X108.181 Y94.100 E4.9143
G1 X107.756 Y93.862 E4.9345
G1 X107.378 Y93.557 E4.9547
G1 X107.057 Y93.192 E4.9749
G1 X106.801 Y92.777 E4.9952
G1 X106.620 Y92.326 E5.0154
G1 X106.518 Y91.850 E5.0356
G1 X106.497 Y91.364 E5.0559
G1 X106.559 Y90.882 E5.0761
G1 X106.701 Y90.417 E5.0963
G1 X106.920 Y89.982 E5.1165
G1 X107.209 Y89.591 E5.1368
G1 X107.561 Y89.254 E5.1570
G1 X107.964 Y88.982 E5.1772
G1 X108.407 Y88.782 E5.1974
G1 X108.878 Y88.659 E5.2177
G1 X109.363 Y88.618 E5.2379
G1 X109.847 Y88.659 E5.2581
G1 X110.318 Y88.782 E5.2783
G1 X110.761 Y88.982 E5.2986
G1 X111.164 Y89.254 E5.3188
G1 X111.516 Y89.591 E5.3390
G1 X111.805 Y89.982 E5.3592
G1 X112.024 Y90.417 E5.3795
G1 X112.166 Y90.882 E5.3997
G1 X112.228 Y91.364 E5.4199
G1 X112.207 Y91.850 E5.4401
G1 X112.105 Y92.326 E5.4604
G1 X111.923 Y92.777 E5.4806
G1 X111.668 Y93.192 E5.5008
G1 X111.347 Y93.556 E5.5210
G1 X110.969 Y93.862 E5.5413
G1 X110.544 Y94.100 E5.5615
G1 X110.142 Y94.242 E5.5792
G0 X109.597 Y94.493 F7200
G0 X108.987 Y94.727
;segType:Loop
G1 X108.539 Y94.650 E5.5981 F3600
G1 X108.016 Y94.465 E5.6212
G1 X107.532 Y94.195 E5.6442
G1 X107.100 Y93.846 E5.6673
G1 X106.734 Y93.430 E5.6903
G1 X106.443 Y92.958 E5.7134
G1 X106.236 Y92.444 E5.7364
G1 X106.119 Y91.901 E5.7595
G1 X106.096 Y91.347 E5.7826
G1 X106.166 Y90.797 E5.8056
G1 X106.329 Y90.267 E5.8287
G1 X106.578 Y89.772 E5.8517
G1 X106.908 Y89.326 E5.8748
G1 X107.309 Y88.942 E5.8979
G1 X107.768 Y88.632 E5.9209
G1 X108.273 Y88.403 E5.9439
G1 X108.810 Y88.263 E5.9670
G1 X109.363 Y88.216 E5.9901
G1 X109.915 Y88.263 E6.0131
G1 X110.452 Y88.403 E6.0362
G1 X110.957 Y88.632 E6.0592
G1 X111.416 Y88.942 E6.0823
G1 X111.817 Y89.326 E6.1053
G1 X112.147 Y89.772 E6.1284
G1 X112.396 Y90.267 E6.1515
G1 X112.559 Y90.797 E6.1745
G1 X112.629 Y91.347 E6.1976
G1 X112.606 Y91.901 E6.2206
G1 X112.489 Y92.443 E6.2437
G1 X112.282 Y92.958 E6.2668
G1 X111.991 Y93.430 E6.2898
G1 X111.625 Y93.846 E6.3128
G1 X111.193 Y94.195 E6.3359
G1 X110.709 Y94.465 E6.3590
G1 X110.186 Y94.650 E6.3820
G1 X109.640 Y94.744 E6.4051
G1 X109.185 Y94.744 E6.4240
G0 F3000 E5.4240
G0 X105.561 Y97.535 F7200
G0 F3000 E6.4240
;segType:Infill
G1 X108.188 Y94.908 E6.6093 F4500
G1 X107.419 Y94.545 E6.6517
G1 X105.561 Y96.404 E6.7829
G1 X105.561 Y95.272 E6.8393
G1 X106.792 Y94.041 E6.9262
G1 X106.296 Y93.406 E6.9664
G1 X105.561 Y94.141 E7.0183
G1 X105.561 Y93.010 E7.0747
G1 X105.928 Y92.642 E7.1006
G0 X105.913 Y90.394 F7200
G1 X105.561 Y90.747 E7.1255 F4500
G1 X105.689 Y89.487 E7.1887
G1 X108.158 Y87.018 E7.3629
G0 X113.129 Y89.966 F7200
G1 X112.786 Y90.310 E7.3871 F4500
G1 X112.424 Y89.540 E7.4295
G1 X112.896 Y89.068 E7.4628
G1 X112.500 Y88.333 E7.5045
G1 X111.913 Y88.919 E7.5459
G1 X111.284 Y88.418 E7.5860
G1 X111.951 Y87.750 E7.6331
G1 X111.283 Y87.287 E7.6737
G1 X110.521 Y88.049 E7.7275
G1 X109.566 Y87.872 E7.7759
G1 X110.449 Y86.990 E7.8382
G0 X113.164 Y92.194 F7200
G1 X112.841 Y92.517 E7.8610 F4500
G0 F3000 E6.8610
G0 X112.569 Y92.070 F7200
G0 X112.606 Y91.901
G0 X112.629 Y91.347
G0 X112.559 Y90.797
G0 X112.396 Y90.267
G0 X112.147 Y89.772
G0 X111.817 Y89.326
G0 X111.416 Y88.942
G0 X110.957 Y88.632
G0 X110.452 Y88.403
G0 X110.316 Y88.368
G0 X110.316 Y88.368
G0 X109.198 Y86.530
G0 X109.417 Y86.890
G0 F3000 E7.8610
G1 X108.278 Y88.030 E7.9414 F4500
G0 F3000 E6.9414
G0 X108.514 Y88.340 F7200
G0 X108.810 Y88.263
G0 X109.363 Y88.216
G0 X109.915 Y88.263
G0 X110.452 Y88.403
G0 X110.957 Y88.632
G0 X111.416 Y88.942
G0 X111.817 Y89.326
G0 X112.147 Y89.772
G0 X112.396 Y90.267
G0 X112.559 Y90.797
G0 X112.629 Y91.347
G0 X112.606 Y91.901
G0 X112.489 Y92.443
G0 X112.282 Y92.958
G0 X112.167 Y93.145
G0 X112.167 Y93.145
G0 X113.525 Y94.930
G0 X113.164 Y94.457
G0 F3000 E7.9414
G1 X106.777 Y100.844 E8.3920 F4500
G1 X107.908 Y100.844 E8.4485
G1 X113.164 Y95.588 E8.8193
G1 X113.164 Y96.719 E8.8758
G1 X109.040 Y100.844 E9.1668
G1 X110.171 Y100.844 E9.2232
G1 X113.164 Y97.851 E9.4344
G1 X113.164 Y98.982 E9.4909
G1 X111.302 Y100.844 E9.6222
G1 X112.434 Y100.844 E9.6787
G1 X113.164 Y100.113 E9.7302
G0 F3000 E8.7302
G0 X114.525 Y101.250 F7200
G0 F3000 E9.7302
;segType:Support
G1 X145.475 Y101.250 E10.8240 F5400
G0 F3000 E9.8240
G0 X148.638 Y100.844 F7200
G0 F3000 E10.8240
;segType:Infill
G1 X154.439 Y95.042 E11.2333 F4500
G1 X154.439 Y93.911 E11.2898
G1 X147.506 Y100.844 E11.7789
G0 X146.848 Y101.337 F7200
;segType:Perimeter
G1 X146.075 Y101.544 E11.8122 F2159
G1 X146.075 Y90.382 E12.2762
G1 X146.128 Y89.711 E12.3043
G1 X146.284 Y89.063 E12.3319
G1 X146.539 Y88.448 E12.3596
G1 X146.886 Y87.880 E12.3873
G1 X147.319 Y87.374 E12.4150
G1 X147.825 Y86.941 E12.4427
G1 X148.393 Y86.593 E12.4704
G1 X149.009 Y86.338 E12.4981
G1 X149.656 Y86.183 E12.5257
G1 X150.328 Y86.130 E12.5538
G1 X150.947 Y86.130 E12.5795
G1 X151.619 Y86.183 E12.6075
G1 X152.266 Y86.338 E12.6352
G1 X152.882 Y86.593 E12.6629
G1 X153.450 Y86.941 E12.6906
G1 X153.956 Y87.374 E12.7183
G1 X154.389 Y87.880 E12.7460
G1 X154.736 Y88.448 E12.7736
G1 X154.991 Y89.063 E12.8013
G1 X155.147 Y89.711 E12.8290
G1 X155.200 Y90.382 E12.8570
G1 X155.200 Y101.604 E13.3236
G1 X146.135 Y101.604 E13.7004
G0 X146.343 Y100.831 F7200
G0 X146.475 Y100.504
;segType:Loop
G1 X146.475 Y90.398 E14.1206 F3600
G1 X146.525 Y89.773 E14.1466
G1 X146.665 Y89.187 E14.1717
G1 X146.896 Y88.630 E14.1968
G1 X147.211 Y88.116 E14.2218
G1 X147.603 Y87.657 E14.2469
G1 X148.061 Y87.266 E14.2720
G1 X148.575 Y86.951 E14.2970
G1 X149.133 Y86.720 E14.3221
G1 X149.719 Y86.579 E14.3472
G1 X150.344 Y86.530 E14.3732
G1 X150.931 Y86.530 E14.3977
G1 X151.556 Y86.579 E14.4237
G1 X152.142 Y86.720 E14.4488
G1 X152.700 Y86.951 E14.4739
G1 X153.214 Y87.266 E14.4989
G1 X153.672 Y87.657 E14.5240
G1 X154.064 Y88.116 E14.5491
G1 X154.379 Y88.630 E14.5741
G1 X154.610 Y89.187 E14.5992
G1 X154.750 Y89.774 E14.6243
G1 X154.800 Y90.398 E14.6503
G1 X154.800 Y101.204 E15.0996
G1 X146.475 Y101.204 E15.4457
G1 X146.475 Y100.704 E15.4665
G0 F3000 E14.4665
G0 X146.475 Y100.704 F7200
G0 X150.130 Y94.704
G0 X150.130 Y94.704
G0 X150.360 Y94.744
G0 X150.915 Y94.744
G0 X151.461 Y94.650
G0 X151.984 Y94.465
G0 X152.468 Y94.195
G0 X152.900 Y93.846
G0 X153.266 Y93.430
G0 X153.557 Y92.958
G0 X153.764 Y92.444
G0 X153.881 Y91.901
G0 X153.904 Y91.347
G0 X153.834 Y90.797
G0 X153.671 Y90.267
G0 X153.422 Y89.772
G0 X153.264 Y89.559
G0 X153.467 Y89.227
G0 F3000 E15.4665
;segType:Infill
G1 X153.997 Y88.696 E15.5039 F4500
G1 X153.524 Y88.038 E15.5443
G1 X152.908 Y88.654 E15.5878
G1 X152.206 Y88.225 E15.6288
G1 X152.922 Y87.509 E15.6793
G1 X152.176 Y87.124 E15.7212
G1 X151.363 Y87.936 E15.7785
G1 X150.283 Y87.885 E15.8325
G1 X151.252 Y86.917 E15.9008
G1 X150.128 Y86.908 E15.9569
G1 X148.416 Y88.621 E16.0777
G0 X148.464 Y87.442 F7200
G1 X147.387 Y88.518 E16.1537 F4500
G0 X147.804 Y89.233 F7200
G1 X146.854 Y90.183 E16.2207 F4500
G0 X147.624 Y91.380 F7200
;segType:Perimeter
G1 X147.851 Y90.824 E16.2457 F2159
G1 X147.976 Y90.417 E16.2634
G1 X148.195 Y89.982 E16.2836
G1 X148.484 Y89.591 E16.3039
G1 X148.836 Y89.254 E16.3241
G1 X149.239 Y88.982 E16.3443
G1 X149.682 Y88.782 E16.3645
G1 X150.153 Y88.659 E16.3848
G1 X150.637 Y88.618 E16.4050
G1 X151.122 Y88.659 E16.4252
G1 X151.593 Y88.782 E16.4454
G1 X152.036 Y88.982 E16.4657
G1 X152.439 Y89.255 E16.4859
G1 X152.791 Y89.591 E16.5061
G1 X153.080 Y89.982 E16.5263
G1 X153.299 Y90.417 E16.5466
G1 X153.441 Y90.882 E16.5668
G1 X153.503 Y91.364 E16.5870
G1 X153.482 Y91.850 E16.6072
G1 X153.380 Y92.326 E16.6275
G1 X153.199 Y92.777 E16.6477
G1 X152.943 Y93.192 E16.6679
G1 X152.622 Y93.557 E16.6881
G1 X152.244 Y93.862 E16.7084
G1 X151.819 Y94.100 E16.7286
G1 X151.360 Y94.262 E16.7488
G1 X150.881 Y94.344 E16.7690
G1 X150.394 Y94.344 E16.7893
G1 X149.915 Y94.262 E16.8095
G1 X149.456 Y94.100 E16.8297
G1 X149.031 Y93.862 E16.8499
G1 X148.653 Y93.557 E16.8702
G1 X148.332 Y93.192 E16.8904
G1 X148.077 Y92.777 E16.9106
G1 X147.895 Y92.326 E16.9308
G1 X147.793 Y91.850 E16.9511
G1 X147.772 Y91.364 E16.9713
G1 X147.826 Y90.941 E16.9890
G0 X147.847 Y90.342 F7200
G0 X147.913 Y89.691
;segType:Loop
G1 X148.183 Y89.326 E17.0079 F3600
G1 X148.584 Y88.942 E17.0310
G1 X149.043 Y88.632 E17.0540
G1 X149.548 Y88.403 E17.0771
G1 X150.085 Y88.263 E17.1001
G1 X150.637 Y88.216 E17.1232
G1 X151.190 Y88.263 E17.1463
G1 X151.727 Y88.403 E17.1693
G1 X152.232 Y88.632 E17.1924
G1 X152.691 Y88.942 E17.2154
G1 X153.092 Y89.326 E17.2385
G1 X153.422 Y89.772 E17.2615
G1 X153.671 Y90.267 E17.2846
G1 X153.834 Y90.797 E17.3076
G1 X153.904 Y91.347 E17.3307
G1 X153.881 Y91.901 E17.3538
G1 X153.764 Y92.444 E17.3768
G1 X153.557 Y92.958 E17.3999
G1 X153.266 Y93.430 E17.4229
G1 X152.900 Y93.846 E17.4460
G1 X152.468 Y94.195 E17.4690
G1 X151.984 Y94.465 E17.4921
G1 X151.461 Y94.650 E17.5152
G1 X150.915 Y94.744 E17.5382
G1 X150.360 Y94.744 E17.5613
G1 X149.814 Y94.650 E17.5843
G1 X149.291 Y94.465 E17.6074
G1 X148.807 Y94.195 E17.6304
G1 X148.375 Y93.846 E17.6535
G1 X148.009 Y93.430 E17.6765
G1 X147.718 Y92.958 E17.6996
G1 X147.511 Y92.444 E17.7226
G1 X147.394 Y91.901 E17.7457
G1 X147.371 Y91.347 E17.7688
G1 X147.441 Y90.797 E17.7918
G1 X147.604 Y90.267 E17.8149
G1 X147.808 Y89.861 E17.8338
G0 F3000 E16.8338
G0 X147.371 Y93.060 F7200
G0 F3000 E17.8338
;segType:Infill
G1 X146.836 Y93.595 E17.8715 F4500
G1 X146.836 Y94.727 E17.9280
G1 X147.811 Y93.751 E17.9968
G1 X148.380 Y94.313 E18.0367
G1 X146.836 Y95.858 E18.1457
G1 X146.836 Y96.989 E18.2022
G1 X149.070 Y94.755 E18.3598
G1 X149.922 Y95.034 E18.4046
G1 X146.836 Y98.121 E18.6223
G1 X146.836 Y99.252 E18.6788
G1 X150.992 Y95.096 E18.9720
G0 X153.163 Y100.844 F7200
G1 X154.439 Y99.568 E19.0621 F4500
G1 X154.439 Y98.436 E19.1185
G1 X152.032 Y100.844 E19.2884
G1 X150.900 Y100.844 E19.3448
G1 X154.439 Y97.305 E19.5945
G1 X154.439 Y96.174 E19.6510
G1 X149.769 Y100.844 E19.9805
G0 X146.836 Y100.383 F7200
G1 X152.951 Y94.268 E20.4120 F4500
G0 X153.431 Y93.788 F7200
G1 X154.439 Y92.780 E20.4831 F4500
G0 X153.901 Y89.923 F7200
G1 X154.316 Y89.509 E20.5124 F4500
G0 F3000 E19.5124
G0 X154.612 Y89.199 F7200
G0 X153.644 Y90.212
G0 X153.644 Y90.212
G0 X153.671 Y90.267
G0 X153.834 Y90.797
G0 X153.904 Y91.347
G0 X153.881 Y91.901
G0 X153.764 Y92.444
G0 X153.557 Y92.958
G0 X153.266 Y93.430
G0 X152.900 Y93.846
G0 X152.468 Y94.195
G0 X151.984 Y94.465
G0 X151.461 Y94.650
G0 X150.915 Y94.744
G0 X150.360 Y94.744
G0 X149.814 Y94.650
G0 X149.503 Y94.540
G0 X149.503 Y94.540
G0 X146.475 Y97.704
G0 X145.475 Y98.750
G0 F3000 E20.5124
;segType:Support
G1 X114.525 Y98.750 E21.6061 F5400
; ------------------------------------
; Layer #6
; ------------------------------------
G92 E0 ;reset extr
G0 F3000 E-1.0000
G0 F1200 Z1.750
G0 X109.474 Y100.844 F7200
G0 F3000 E0.0000
;segType:Infill
G1 X105.561 Y96.931 E0.2761 F4500
G1 X105.561 Y98.062 E0.3326
G1 X108.343 Y100.844 E0.5289
G1 X107.211 Y100.844 E0.5853
G1 X105.561 Y99.193 E0.7018
G1 X105.561 Y100.325 E0.7582
G1 X106.080 Y100.844 E0.7948
G0 X105.573 Y101.337 F7200
;segType:Perimeter
G1 X104.800 Y101.544 E0.8281 F2159
G1 X104.800 Y90.382 E1.2922
G1 X104.853 Y89.711 E1.3202
G1 X105.009 Y89.063 E1.3479
G1 X105.264 Y88.448 E1.3755
G1 X105.611 Y87.880 E1.4032
G1 X106.044 Y87.374 E1.4309
G1 X106.550 Y86.941 E1.4586
G1 X107.118 Y86.593 E1.4863
G1 X107.734 Y86.338 E1.5140
G1 X108.381 Y86.183 E1.5417
G1 X109.053 Y86.130 E1.5697
G1 X109.672 Y86.130 E1.5954
G1 X110.344 Y86.183 E1.6234
G1 X110.991 Y86.338 E1.6511
G1 X111.607 Y86.593 E1.6788
G1 X112.175 Y86.941 E1.7065
G1 X112.681 Y87.374 E1.7342
G1 X113.114 Y87.880 E1.7619
G1 X113.461 Y88.448 E1.7896
G1 X113.716 Y89.063 E1.8173
G1 X113.872 Y89.711 E1.8449
G1 X113.925 Y90.382 E1.8730
G1 X113.925 Y101.604 E2.3395
G1 X104.860 Y101.604 E2.7163
G0 X105.067 Y100.831 F7200
G0 X105.200 Y100.504
;segType:Loop
G1 X105.200 Y90.398 E3.1365 F3600
G1 X105.250 Y89.774 E3.1626
G1 X105.390 Y89.187 E3.1876
G1 X105.621 Y88.630 E3.2127
G1 X105.936 Y88.116 E3.2378
G1 X106.328 Y87.657 E3.2628
G1 X106.786 Y87.266 E3.2879
G1 X107.300 Y86.951 E3.3130
G1 X107.858 Y86.720 E3.3380
G1 X108.444 Y86.579 E3.3631
G1 X109.069 Y86.530 E3.3892
G1 X109.656 Y86.530 E3.4136
G1 X110.281 Y86.579 E3.4397
G1 X110.867 Y86.720 E3.4647
G1 X111.425 Y86.951 E3.4898
G1 X111.939 Y87.266 E3.5149
G1 X112.397 Y87.657 E3.5399
G1 X112.789 Y88.116 E3.5650
G1 X113.104 Y88.630 E3.5901
G1 X113.335 Y89.187 E3.6151
G1 X113.475 Y89.773 E3.6402
G1 X113.525 Y90.398 E3.6663
G1 X113.525 Y101.204 E4.1155
G1 X105.200 Y101.204 E4.4616
G1 X105.200 Y100.704 E4.4824
G0 F3000 E3.4824
G0 X105.200 Y100.704 F7200
G0 X113.525 Y98.795
G0 X113.164 Y98.878
G0 F3000 E4.4824
;segType:Infill
G1 X109.391 Y95.104 E4.7486 F4500
G1 X110.381 Y94.963 E4.7986
G1 X113.164 Y97.746 E4.9949
G1 X113.164 Y96.615 E5.0514
G1 X111.170 Y94.620 E5.1921
G0 X110.624 Y94.225 F7200
;segType:Perimeter
G1 X110.026 Y94.272 E5.2170 F2159
G1 X109.606 Y94.344 E5.2348
G1 X109.119 Y94.344 E5.2550
G1 X108.640 Y94.262 E5.2752
G1 X108.181 Y94.100 E5.2954
G1 X107.756 Y93.862 E5.3157
G1 X107.378 Y93.557 E5.3359
G1 X107.057 Y93.192 E5.3561
G1 X106.801 Y92.777 E5.3763
G1 X106.620 Y92.326 E5.3966
G1 X106.518 Y91.850 E5.4168
G1 X106.497 Y91.364 E5.4370
G1 X106.559 Y90.882 E5.4572
G1 X106.701 Y90.417 E5.4775
G1 X106.920 Y89.982 E5.4977
G1 X107.209 Y89.591 E5.5179
G1 X107.561 Y89.254 E5.5381
G1 X107.964 Y88.982 E5.5584
G1 X108.407 Y88.782 E5.5786
G1 X108.878 Y88.659 E5.5988
G1 X109.363 Y88.618 E5.6190
G1 X109.847 Y88.659 E5.6393
G1 X110.318 Y88.782 E5.6595
G1 X110.761 Y88.982 E5.6797
G1 X111.164 Y89.254 E5.6999
G1 X111.516 Y89.591 E5.7202
G1 X111.805 Y89.982 E5.7404
G1 X112.024 Y90.417 E5.7606
G1 X112.166 Y90.882 E5.7808
G1 X112.228 Y91.364 E5.8011
G1 X112.207 Y91.850 E5.8213
G1 X112.105 Y92.326 E5.8415
G1 X111.923 Y92.777 E5.8617
G1 X111.668 Y93.192 E5.8820
G1 X111.347 Y93.556 E5.9022
G1 X110.969 Y93.862 E5.9224
G1 X110.544 Y94.100 E5.9426
G1 X110.142 Y94.242 E5.9604
G0 X109.597 Y94.493 F7200
G0 X108.987 Y94.727
;segType:Loop
G1 X108.539 Y94.650 E5.9793 F3600
G1 X108.016 Y94.465 E6.0023
G1 X107.532 Y94.195 E6.0254
G1 X107.100 Y93.846 E6.0485
G1 X106.734 Y93.430 E6.0715
G1 X106.443 Y92.958 E6.0946
G1 X106.236 Y92.444 E6.1176
G1 X106.119 Y91.901 E6.1407
G1 X106.096 Y91.347 E6.1637
G1 X106.166 Y90.797 E6.1868
G1 X106.329 Y90.267 E6.2098
G1 X106.578 Y89.772 E6.2329
G1 X106.908 Y89.326 E6.2560
G1 X107.309 Y88.942 E6.2790
G1 X107.768 Y88.632 E6.3021
G1 X108.273 Y88.403 E6.3251
G1 X108.810 Y88.263 E6.3482
G1 X109.363 Y88.216 E6.3712
G1 X109.915 Y88.263 E6.3943
G1 X110.452 Y88.403 E6.4174
G1 X110.957 Y88.632 E6.4404
G1 X111.416 Y88.942 E6.4634
G1 X111.817 Y89.326 E6.4865
G1 X112.147 Y89.772 E6.5096
G1 X112.396 Y90.267 E6.5326
G1 X112.559 Y90.797 E6.5557
G1 X112.629 Y91.347 E6.5787
G1 X112.606 Y91.901 E6.6018
G1 X112.489 Y92.443 E6.6249
G1 X112.282 Y92.958 E6.6479
G1 X111.991 Y93.430 E6.6710
G1 X111.625 Y93.846 E6.6940
G1 X111.193 Y94.195 E6.7171
G1 X110.709 Y94.465 E6.7401
G1 X110.186 Y94.650 E6.7632
G1 X109.640 Y94.744 E6.7862
G1 X109.185 Y94.744 E6.8051
G0 X107.996 Y94.840 F7200
;segType:Infill
G1 X113.164 Y100.009 E7.1698 F4500
G0 X111.827 Y94.146 F7200
G1 X113.164 Y95.484 E7.2642 F4500
G1 X113.164 Y94.352 E7.3206
G1 X112.349 Y93.536 E7.3782
G1 X112.737 Y92.793 E7.4200
G1 X113.164 Y93.221 E7.4502
G0 X110.605 Y100.844 F7200
G1 X105.561 Y95.799 E7.8062 F4500
G1 X105.561 Y94.668 E7.8626
G1 X111.737 Y100.844 E8.2984
G1 X112.868 Y100.844 E8.3548
G1 X105.561 Y93.536 E8.8704
G1 X105.561 Y92.405 E8.9268
G1 X106.016 Y92.860 E8.9590
G0 X105.890 Y90.471 F7200
G1 X105.580 Y90.162 E8.9808 F4500
G1 X105.768 Y89.218 E9.0288
G1 X106.224 Y89.674 E9.0610
G1 X106.704 Y89.023 E9.1014
G1 X106.145 Y88.464 E9.1408
G1 X106.660 Y87.847 E9.1809
G1 X107.315 Y88.503 E9.2271
G1 X108.052 Y88.108 E9.2688
G1 X107.311 Y87.367 E9.3211
G1 X108.106 Y87.031 E9.3642
G1 X108.964 Y87.889 E9.4247
G1 X110.162 Y87.955 E9.4846
G1 X109.097 Y86.890 E9.5597
G1 X110.289 Y86.952 E9.6193
G1 X113.103 Y89.765 E9.8178
G0 F3000 E8.8178
G0 X114.525 Y101.250 F7200
G0 F3000 E9.8178
;segType:Support
G1 X145.475 Y101.250 E10.9115 F5400
G0 F3000 E9.9115
G0 X151.335 Y100.844 F7200
G0 F3000 E10.9115
;segType:Infill
G1 X146.836 Y96.345 E11.2290 F4500
G0 X146.836 Y97.476 F7200
G1 X150.203 Y100.844 E11.4666 F4500
G0 X149.072 Y100.844 F7200
G1 X146.836 Y98.608 E11.6244 F4500
G0 X146.836 Y99.739 F7200
G1 X147.941 Y100.844 E11.7024 F4500
G0 X146.848 Y101.337 F7200
;segType:Perimeter
G1 X146.075 Y101.544 E11.7356 F2159
G1 X146.075 Y90.382 E12.1997
G1 X146.128 Y89.711 E12.2277
G1 X146.284 Y89.063 E12.2554
G1 X146.539 Y88.448 E12.2830
G1 X146.886 Y87.880 E12.3107
G1 X147.319 Y87.374 E12.3384
G1 X147.825 Y86.941 E12.3661
G1 X148.393 Y86.593 E12.3938
G1 X149.009 Y86.338 E12.4215
G1 X149.656 Y86.183 E12.4492
G1 X150.328 Y86.130 E12.4772
G1 X150.947 Y86.130 E12.5029
G1 X151.619 Y86.183 E12.5309
G1 X152.266 Y86.338 E12.5586
G1 X152.882 Y86.593 E12.5863
G1 X153.450 Y86.941 E12.6140
G1 X153.956 Y87.374 E12.6417
G1 X154.389 Y87.880 E12.6694
G1 X154.736 Y88.448 E12.6971
G1 X154.991 Y89.063 E12.7248
G1 X155.147 Y89.711 E12.7524
G1 X155.200 Y90.382 E12.7805
G1 X155.200 Y101.604 E13.2470
G1 X146.135 Y101.604 E13.6238
G0 X146.343 Y100.831 F7200
G0 X146.475 Y100.504
;segType:Loop
G1 X146.475 Y90.398 E14.0440 F3600
G1 X146.525 Y89.773 E14.0701
G1 X146.665 Y89.187 E14.0951
G1 X146.896 Y88.630 E14.1202
G1 X147.211 Y88.116 E14.1453
G1 X147.603 Y87.657 E14.1703
G1 X148.061 Y87.266 E14.1954
G1 X148.575 Y86.951 E14.2205
G1 X149.133 Y86.720 E14.2455
G1 X149.719 Y86.579 E14.2706
G1 X150.344 Y86.530 E14.2967
G1 X150.931 Y86.530 E14.3211
G1 X151.556 Y86.579 E14.3472
G1 X152.142 Y86.720 E14.3722
G1 X152.700 Y86.951 E14.3973
G1 X153.214 Y87.266 E14.4224
G1 X153.672 Y87.657 E14.4474
G1 X154.064 Y88.116 E14.4725
G1 X154.379 Y88.630 E14.4976
G1 X154.610 Y89.187 E14.5227
G1 X154.750 Y89.774 E14.5477
G1 X154.800 Y90.398 E14.5738
G1 X154.800 Y101.204 E15.0230
G1 X146.475 Y101.204 E15.3691
G1 X146.475 Y100.704 E15.3899
G0 F3000 E14.3899
G0 X146.475 Y100.704 F7200
G0 X149.415 Y94.509
G0 X149.415 Y94.509
G0 X149.814 Y94.650
G0 X150.360 Y94.744
G0 X150.915 Y94.744
G0 X151.461 Y94.650
G0 X151.984 Y94.465
G0 X152.468 Y94.195
G0 X152.900 Y93.846
G0 X153.266 Y93.430
G0 X153.557 Y92.958
G0 X153.764 Y92.444
G0 X153.881 Y91.901
G0 X153.904 Y91.347
G0 X153.834 Y90.797
G0 X153.671 Y90.267
G0 X153.422 Y89.772
G0 X153.092 Y89.326
G0 X152.691 Y88.942
G0 X152.232 Y88.632
G0 X152.208 Y88.621
G0 X152.363 Y88.295
G0 F3000 E15.3899
;segType:Infill
G1 X150.961 Y86.894 E15.4888 F4500
G1 X149.865 Y86.929 E15.5435
G1 X150.805 Y87.869 E15.6098
G1 X149.776 Y87.972 E15.6614
G1 X148.978 Y87.174 E15.7177
G1 X148.251 Y87.578 E15.7592
G1 X148.951 Y88.278 E15.8087
G1 X148.278 Y88.736 E15.8493
G1 X147.672 Y88.131 E15.8920
G1 X147.214 Y88.804 E15.9326
G1 X147.735 Y89.325 E15.9694
G0 X147.316 Y90.037 F7200
G1 X146.925 Y89.647 E15.9970 F4500
G0 X147.624 Y91.380 F7200
;segType:Perimeter
G1 X147.851 Y90.824 E16.0219 F2159
G1 X147.976 Y90.417 E16.0397
G1 X148.195 Y89.982 E16.0599
G1 X148.484 Y89.591 E16.0801
G1 X148.836 Y89.254 E16.1004
G1 X149.239 Y88.982 E16.1206
G1 X149.682 Y88.782 E16.1408
G1 X150.153 Y88.659 E16.1610
G1 X150.637 Y88.618 E16.1813
G1 X151.122 Y88.659 E16.2015
G1 X151.593 Y88.782 E16.2217
G1 X152.036 Y88.982 E16.2419
G1 X152.439 Y89.255 E16.2622
G1 X152.791 Y89.591 E16.2824
G1 X153.080 Y89.982 E16.3026
G1 X153.299 Y90.417 E16.3228
G1 X153.441 Y90.882 E16.3431
G1 X153.503 Y91.364 E16.3633
G1 X153.482 Y91.850 E16.3835
G1 X153.380 Y92.326 E16.4037
G1 X153.199 Y92.777 E16.4240
G1 X152.943 Y93.192 E16.4442
G1 X152.622 Y93.557 E16.4644
G1 X152.244 Y93.862 E16.4846
G1 X151.819 Y94.100 E16.5049
G1 X151.360 Y94.262 E16.5251
G1 X150.881 Y94.344 E16.5453
G1 X150.394 Y94.344 E16.5655
G1 X149.915 Y94.262 E16.5858
G1 X149.456 Y94.100 E16.6060
G1 X149.031 Y93.862 E16.6262
G1 X148.653 Y93.557 E16.6464
G1 X148.332 Y93.192 E16.6667
G1 X148.077 Y92.777 E16.6869
G1 X147.895 Y92.326 E16.7071
G1 X147.793 Y91.850 E16.7273
G1 X147.772 Y91.364 E16.7476
G1 X147.826 Y90.941 E16.7653
G0 X147.847 Y90.342 F7200
G0 X147.913 Y89.691
;segType:Loop
G1 X148.183 Y89.326 E16.7842 F3600
G1 X148.584 Y88.942 E16.8073
G1 X149.043 Y88.632 E16.8303
G1 X149.548 Y88.403 E16.8534
G1 X150.085 Y88.263 E16.8764
G1 X150.637 Y88.216 E16.8995
G1 X151.190 Y88.263 E16.9225
G1 X151.727 Y88.403 E16.9456
G1 X152.232 Y88.632 E16.9686
G1 X152.691 Y88.942 E16.9917
G1 X153.092 Y89.326 E17.0147
G1 X153.422 Y89.772 E17.0378
G1 X153.671 Y90.267 E17.0609
G1 X153.834 Y90.797 E17.0839
G1 X153.904 Y91.347 E17.1070
G1 X153.881 Y91.901 E17.1300
G1 X153.764 Y92.444 E17.1531
G1 X153.557 Y92.958 E17.1761
G1 X153.266 Y93.430 E17.1992
G1 X152.900 Y93.846 E17.2222
G1 X152.468 Y94.195 E17.2453
G1 X151.984 Y94.465 E17.2684
G1 X151.461 Y94.650 E17.2914
G1 X150.915 Y94.744 E17.3145
G1 X150.360 Y94.744 E17.3375
G1 X149.814 Y94.650 E17.3606
G1 X149.291 Y94.465 E17.3836
G1 X148.807 Y94.195 E17.4067
G1 X148.375 Y93.846 E17.4298
G1 X148.009 Y93.430 E17.4528
G1 X147.718 Y92.958 E17.4759
G1 X147.511 Y92.444 E17.4989
G1 X147.394 Y91.901 E17.5220
G1 X147.371 Y91.347 E17.5450
G1 X147.441 Y90.797 E17.5681
G1 X147.604 Y90.267 E17.5911
G1 X147.808 Y89.861 E17.6100
G0 F3000 E16.6100
G0 X147.808 Y89.861 F7200
G0 X147.853 Y89.772
G0 X148.183 Y89.326
G0 X148.584 Y88.942
G0 X149.043 Y88.632
G0 X149.548 Y88.403
G0 X150.085 Y88.263
G0 X150.637 Y88.216
G0 X150.684 Y88.220
G0 X150.684 Y88.220
G0 X152.801 Y87.013
G0 X152.426 Y87.227
G0 F3000 E17.6100
;segType:Infill
G1 X154.103 Y88.904 E17.7284 F4500
G0 X153.811 Y89.744 F7200
G1 X154.436 Y90.369 E17.7725 F4500
G0 X154.439 Y92.635 F7200
G1 X154.153 Y92.348 E17.7927 F4500
G1 X153.847 Y93.174 E17.8366
G1 X154.439 Y93.766 E17.8784
G1 X154.439 Y94.898 E17.9349
G1 X153.384 Y93.842 E18.0094
G1 X152.800 Y94.390 E18.0493
G1 X154.439 Y96.029 E18.1650
G1 X154.439 Y97.161 E18.2214
G1 X152.089 Y94.810 E18.3873
G1 X151.207 Y95.059 E18.4330
G1 X154.439 Y98.292 E18.6611
G1 X154.439 Y99.423 E18.7175
G1 X150.077 Y95.061 E19.0254
G0 X154.439 Y100.555 F7200
G1 X146.836 Y92.951 E19.5619 F4500
G1 X146.836 Y94.082 E19.6183
G1 X153.597 Y100.844 E20.0954
G1 X152.466 Y100.844 E20.1518
G1 X146.836 Y95.214 E20.5491
G0 F3000 E19.5491
G0 X145.475 Y98.750 F7200
G0 F3000 E20.5491
;segType:Support
G1 X114.525 Y98.750 E21.6428 F5400
; ------------------------------------
; Layer #7
; ------------------------------------
G92 E0 ;reset extr
G0 F3000 E-1.0000
G0 F1200 Z2.000
G0 X145.475 Y98.751 F7200
G0 F3000 E0.0000
;segType:SupportTouch
G1 X145.474 Y98.750 E0.0000 F5400
G0 X145.474 Y98.750 F7200
;segType:Support
G1 X114.526 Y98.750 E1.0937 F5400
G0 X114.525 Y98.751 F7200
;segType:SupportTouch
G1 X114.526 Y98.750 E1.0937 F5400
G0 F3000 E0.0937
G0 X113.164 Y93.325 F7200
G0 F3000 E1.0937
;segType:Infill
G1 X105.646 Y100.844 E1.6242 F4500
G0 X105.573 Y101.337 F7200
;segType:Perimeter
G1 X104.800 Y101.544 E1.6575 F2159
G1 X104.800 Y90.382 E2.1216
G1 X104.853 Y89.711 E2.1496
G1 X105.009 Y89.063 E2.1772
G1 X105.264 Y88.448 E2.2049
G1 X105.611 Y87.880 E2.2326
G1 X106.044 Y87.374 E2.2603
G1 X106.550 Y86.941 E2.2880
G1 X107.118 Y86.593 E2.3157
G1 X107.734 Y86.338 E2.3434
G1 X108.381 Y86.183 E2.3711
G1 X109.053 Y86.130 E2.3991
G1 X109.672 Y86.130 E2.4248
G1 X110.344 Y86.183 E2.4528
G1 X110.991 Y86.338 E2.4805
G1 X111.607 Y86.593 E2.5082
G1 X112.175 Y86.941 E2.5359
G1 X112.681 Y87.374 E2.5636
G1 X113.114 Y87.880 E2.5913
G1 X113.461 Y88.448 E2.6190
G1 X113.716 Y89.063 E2.6467
G1 X113.872 Y89.711 E2.6743
G1 X113.925 Y90.382 E2.7024
G1 X113.925 Y101.604 E3.1689
G1 X104.860 Y101.604 E3.5457
G0 X105.067 Y100.831 F7200
G0 X105.200 Y100.504
;segType:Loop
G1 X105.200 Y90.398 E3.9659 F3600
G1 X105.250 Y89.774 E3.9919
G1 X105.390 Y89.187 E4.0170
G1 X105.621 Y88.630 E4.0421
G1 X105.936 Y88.116 E4.0672
G1 X106.328 Y87.657 E4.0922
G1 X106.786 Y87.266 E4.1173
G1 X107.300 Y86.951 E4.1424
G1 X107.858 Y86.720 E4.1674
G1 X108.444 Y86.579 E4.1925
G1 X109.069 Y86.530 E4.2186
G1 X109.656 Y86.530 E4.2430
G1 X110.281 Y86.579 E4.2690
G1 X110.867 Y86.720 E4.2941
G1 X111.425 Y86.951 E4.3192
G1 X111.939 Y87.266 E4.3443
G1 X112.397 Y87.657 E4.3693
G1 X112.789 Y88.116 E4.3944
G1 X113.104 Y88.630 E4.4195
G1 X113.335 Y89.187 E4.4445
G1 X113.475 Y89.773 E4.4696
G1 X113.525 Y90.398 E4.4957
G1 X113.525 Y101.204 E4.9449
G1 X105.200 Y101.204 E5.2910
G1 X105.200 Y100.704 E5.3118
G0 F3000 E4.3118
G0 X109.123 Y95.104 F7200
G0 F3000 E5.3118
;segType:Infill
G1 X105.561 Y98.666 E5.5631 F4500
G0 X105.561 Y99.798 F7200
G1 X110.403 Y94.956 E5.9048 F4500
G0 X110.624 Y94.225 F7200
;segType:Perimeter
G1 X110.026 Y94.272 E5.9297 F2159
G1 X109.606 Y94.344 E5.9474
G1 X109.119 Y94.344 E5.9677
G1 X108.640 Y94.262 E5.9879
G1 X108.181 Y94.100 E6.0081
G1 X107.756 Y93.862 E6.0284
G1 X107.378 Y93.557 E6.0486
G1 X107.057 Y93.192 E6.0688
G1 X106.801 Y92.777 E6.0890
G1 X106.620 Y92.326 E6.1092
G1 X106.518 Y91.850 E6.1295
G1 X106.497 Y91.364 E6.1497
G1 X106.559 Y90.882 E6.1699
G1 X106.701 Y90.417 E6.1901
G1 X106.920 Y89.982 E6.2104
G1 X107.209 Y89.591 E6.2306
G1 X107.561 Y89.254 E6.2508
G1 X107.964 Y88.982 E6.2711
G1 X108.407 Y88.782 E6.2913
G1 X108.878 Y88.659 E6.3115
G1 X109.363 Y88.618 E6.3317
G1 X109.847 Y88.659 E6.3520
G1 X110.318 Y88.782 E6.3722
G1 X110.761 Y88.982 E6.3924
G1 X111.164 Y89.254 E6.4126
G1 X111.516 Y89.591 E6.4328
G1 X111.805 Y89.982 E6.4531
G1 X112.024 Y90.417 E6.4733
G1 X112.166 Y90.882 E6.4935
G1 X112.228 Y91.364 E6.5138
G1 X112.207 Y91.850 E6.5340
G1 X112.105 Y92.326 E6.5542
G1 X111.923 Y92.777 E6.5744
G1 X111.668 Y93.192 E6.5947
G1 X111.347 Y93.556 E6.6149
G1 X110.969 Y93.862 E6.6351
G1 X110.544 Y94.100 E6.6553
G1 X110.142 Y94.242 E6.6731
G0 X109.597 Y94.493 F7200
G0 X108.987 Y94.727
;segType:Loop
G1 X108.539 Y94.650 E6.6920 F3600
G1 X108.016 Y94.465 E6.7150
G1 X107.532 Y94.195 E6.7381
G1 X107.100 Y93.846 E6.7611
G1 X106.734 Y93.430 E6.7842
G1 X106.443 Y92.958 E6.8072
G1 X106.236 Y92.444 E6.8303
G1 X106.119 Y91.901 E6.8534
G1 X106.096 Y91.347 E6.8764
G1 X106.166 Y90.797 E6.8995
G1 X106.329 Y90.267 E6.9225
G1 X106.578 Y89.772 E6.9456
G1 X106.908 Y89.326 E6.9686
G1 X107.309 Y88.942 E6.9917
G1 X107.768 Y88.632 E7.0147
G1 X108.273 Y88.403 E7.0378
G1 X108.810 Y88.263 E7.0609
