; GCode generated by CraftWare

G28 X0 Y0
G28 Z0


M104 S215 ;set head temp (no wait)
M190 S60 ;set bed temp (wait)
M109 S215 ;set head temp (wait)
; ------------------------------------
; Layer #0
; ------------------------------------
M106 S0 ;turn off fan
G21 ; mm
G90 ; abs
G92 E0 ;reset extr
G0 F1200 Z0.250
;segType:Skirt
G0 F3000 E-1.0000
G0 X100.414 Y166.689 F5400
G0 F3000 E0.0000
G1 X96.739 Y163.014 E0.2161 F2400
G1 X95.952 Y161.701 E0.2797
G1 X95.952 Y161.439 E0.2906
G1 X95.821 Y161.308 E0.2983
G1 X95.689 Y160.389 E0.3369
G1 X95.689 Y159.864 E0.3588
G1 X95.558 Y159.733 E0.3665
G1 X95.558 Y156.058 E0.5193
G1 X95.821 Y154.220 E0.5964
G1 X96.214 Y153.564 E0.6282
G1 X96.346 Y153.170 E0.6455
G1 X96.543 Y152.842 E0.6614
G1 X100.480 Y148.904 E0.8929
G1 X101.464 Y148.314 E0.9406
G1 X101.858 Y148.183 E0.9579
G1 X102.187 Y147.986 E0.9738
G1 X102.712 Y147.986 E0.9957
G1 X102.843 Y147.854 E1.0034
G1 X106.255 Y147.854 E1.1452
G1 X106.387 Y147.723 E1.1530
G1 X106.912 Y147.723 E1.1748
G1 X107.239 Y147.526 E1.1907
G1 X107.437 Y147.198 E1.2066
G1 X107.502 Y146.476 E1.2367
G1 X107.633 Y146.345 E1.2445
G1 X107.633 Y133.220 E1.7901
G1 X107.502 Y133.089 E1.7978
G1 X107.502 Y132.564 E1.8197
G1 X107.371 Y132.433 E1.8274
G1 X107.371 Y132.170 E1.8383
G1 X107.043 Y131.974 E1.8542
G1 X106.780 Y131.974 E1.8651
G1 X106.649 Y131.842 E1.8728
G1 X105.599 Y131.842 E1.9165
G1 X105.468 Y131.711 E1.9242
G1 X102.580 Y131.711 E2.0442
G1 X102.449 Y131.580 E2.0520
G1 X101.989 Y131.514 E2.0713
G1 X101.662 Y131.317 E2.0872
G1 X101.399 Y131.317 E2.0981
G1 X100.743 Y130.924 E2.1299
G1 X100.218 Y130.399 E2.1608
G1 X99.889 Y130.201 E2.1767
G1 X97.002 Y127.314 E2.3465
G1 X96.805 Y126.986 E2.3624
G1 X96.543 Y126.724 E2.3778
G1 X95.952 Y125.739 E2.4255
G1 X95.952 Y125.476 E2.4364
G1 X95.821 Y125.345 E2.4442
G1 X95.689 Y124.426 E2.4827
G1 X95.689 Y123.901 E2.5046
G1 X95.558 Y123.770 E2.5123
G1 X95.558 Y120.095 E2.6651
G1 X95.821 Y118.258 E2.7422
G1 X96.018 Y117.929 E2.7582
G1 X96.149 Y117.536 E2.7754
G1 X96.543 Y116.879 E2.8072
G1 X96.805 Y116.617 E2.8227
G1 X97.002 Y116.289 E2.8386
G1 X99.889 Y113.401 E3.0083
G1 X100.218 Y113.204 E3.0243
G1 X100.743 Y112.679 E3.0551
G1 X101.137 Y112.548 E3.0724
G1 X101.399 Y112.286 E3.0878
G1 X101.662 Y112.286 E3.0987
G1 X101.989 Y112.089 E3.1146
G1 X102.449 Y112.023 E3.1339
G1 X102.843 Y111.892 E3.1512
G1 X107.568 Y111.892 E3.3476
G1 X107.633 Y111.433 E3.3669
G1 X107.633 Y100.408 E3.8253
G1 X107.764 Y100.014 E3.8425
G1 X108.158 Y99.620 E3.8657
G1 X107.633 Y99.095 E3.8966
G1 X107.633 Y89.120 E4.3113
G1 X107.502 Y88.726 E4.3285
G1 X107.502 Y88.201 E4.3504
G1 X107.305 Y87.874 E4.3662
G1 X106.977 Y87.676 E4.3822
G1 X106.518 Y87.611 E4.4015
G1 X106.124 Y87.480 E4.4187
G1 X102.974 Y87.480 E4.5497
G1 X102.580 Y87.349 E4.5669
G1 X102.318 Y87.349 E4.5778
G1 X102.187 Y87.217 E4.5856
G1 X101.727 Y87.151 E4.6049
G1 X101.399 Y86.955 E4.6208
G1 X101.005 Y86.824 E4.6380
G1 X100.743 Y86.561 E4.6534
G1 X100.414 Y86.364 E4.6694
G1 X96.739 Y82.689 E4.8854
G1 X96.543 Y82.361 E4.9013
G1 X96.280 Y82.099 E4.9168
G1 X96.083 Y81.770 E4.9327
G1 X96.083 Y81.508 E4.9436
G1 X95.887 Y81.180 E4.9595
G1 X95.821 Y80.720 E4.9788
G1 X95.689 Y80.326 E4.9961
G1 X95.689 Y79.539 E5.0288
G1 X95.558 Y79.408 E5.0365
G1 X95.558 Y75.470 E5.2002
G1 X95.689 Y75.339 E5.2079
G1 X95.689 Y74.551 E5.2407
G1 X95.821 Y74.420 E5.2484
G1 X95.887 Y73.961 E5.2677
G1 X96.018 Y73.567 E5.2850
G1 X96.214 Y73.239 E5.3009
G1 X96.346 Y72.845 E5.3181
G1 X96.608 Y72.583 E5.3335
G1 X96.805 Y72.254 E5.3495
G1 X100.480 Y68.579 E5.5655
G1 X101.137 Y68.186 E5.5974
G1 X101.530 Y68.054 E5.6146
G1 X101.858 Y67.858 E5.6305
G1 X102.318 Y67.792 E5.6498
G1 X102.449 Y67.661 E5.6575
G1 X102.974 Y67.661 E5.6794
G1 X103.368 Y67.529 E5.6966
G1 X106.518 Y67.529 E5.8276
G1 X106.649 Y67.398 E5.8353
G1 X107.305 Y67.267 E5.8631
G1 X107.437 Y66.873 E5.8804
G1 X107.502 Y66.151 E5.9105
G1 X107.633 Y66.020 E5.9182
G1 X107.633 Y53.420 E6.4421
G1 X107.502 Y52.501 E6.4806
G1 X107.502 Y52.239 E6.4916
G1 X107.305 Y51.911 E6.5075
G1 X107.043 Y51.649 E6.5229
G1 X106.518 Y51.649 E6.5447
G1 X106.387 Y51.517 E6.5524
G1 X103.237 Y51.517 E6.6834
G1 X103.105 Y51.386 E6.6911
G1 X102.580 Y51.386 E6.7129
G1 X102.187 Y51.255 E6.7302
G1 X101.924 Y51.255 E6.7411
G1 X101.596 Y51.058 E6.7570
G1 X101.202 Y50.926 E6.7743
G1 X100.874 Y50.730 E6.7902
G1 X100.612 Y50.467 E6.8056
G1 X100.283 Y50.270 E6.8215
G1 X96.608 Y46.595 E7.0376
G1 X96.214 Y45.939 E7.0694
G1 X96.083 Y45.545 E7.0867
G1 X95.952 Y45.414 E7.0944
G1 X95.952 Y45.151 E7.1053
G1 X95.821 Y45.020 E7.1130
G1 X95.689 Y44.101 E7.1516
G1 X95.689 Y43.576 E7.1734
G1 X95.558 Y43.445 E7.1812
G1 X95.558 Y39.770 E7.3340
G1 X95.755 Y38.392 E7.3918
G1 X96.018 Y37.604 E7.4264
G1 X96.214 Y37.276 E7.4423
G1 X96.346 Y36.883 E7.4595
G1 X96.543 Y36.554 E7.4754
G1 X100.480 Y32.617 E7.7069
G1 X101.464 Y32.026 E7.7547
G1 X102.252 Y31.764 E7.7892
G1 X102.712 Y31.698 E7.8085
G1 X102.843 Y31.567 E7.8162
G1 X108.618 Y31.567 E8.0563
G1 X109.537 Y31.436 E8.0949
G1 X109.930 Y31.304 E8.1121
G1 X110.062 Y31.173 E8.1198
G1 X110.324 Y31.173 E8.1308
G1 X110.587 Y30.911 E8.1462
G1 X110.980 Y30.779 E8.1634
G1 X111.112 Y30.648 E8.1712
G1 X111.374 Y30.648 E8.1821
G1 X111.505 Y30.517 E8.1898
G1 X128.305 Y30.517 E8.8883
G1 X145.105 Y30.517 E9.5867
G1 X148.255 Y30.517 E9.7177
G1 X148.715 Y30.583 E9.7370
G1 X149.109 Y30.714 E9.7542
G1 X149.896 Y31.501 E9.8005
G1 X150.355 Y31.567 E9.8198
G1 X157.180 Y31.567 E10.1036
G1 X157.574 Y31.698 E10.1208
G1 X157.837 Y31.698 E10.1317
G1 X157.968 Y31.829 E10.1395
G1 X158.230 Y31.829 E10.1504
G1 X158.559 Y32.026 E10.1663
G1 X158.952 Y32.158 E10.1836
G1 X159.609 Y32.551 E10.2154
G1 X163.546 Y36.489 E10.4469
G1 X163.573 Y36.534 E10.4491
G0 F3000 E9.4491
G0 X160.961 Y36.860 F5400
G0 X158.348 Y37.186
G0 X108.705 Y43.381
G0 F3000 E10.4491
;segType:HShell
G1 X147.844 Y82.520 E12.7503 F2400
;segType:Perimeter
G0 X148.442 Y82.540 F5400
G1 X148.442 Y83.340 E12.7836 F1439
G1 X148.442 Y97.707 E13.3809
G1 X148.377 Y97.978 E13.3925
G1 X148.213 Y98.171 E13.4030
G1 X147.960 Y98.274 E13.4144
G1 X147.885 Y98.280 E13.4175
G1 X112.416 Y98.280 E14.8921
G1 X112.146 Y98.215 E14.9037
G1 X111.953 Y98.050 E14.9142
G1 X111.865 Y97.838 E14.9238
G1 X111.843 Y97.677 E14.9305
G1 X111.843 Y88.467 E15.3135
G1 X111.780 Y87.672 E15.3466
G1 X111.590 Y86.876 E15.3806
G1 X111.277 Y86.119 E15.4147
G1 X110.850 Y85.424 E15.4486
G1 X110.321 Y84.803 E15.4825
G1 X109.700 Y84.273 E15.5165
G1 X109.004 Y83.846 E15.5504
G1 X108.250 Y83.534 E15.5843
G1 X107.456 Y83.344 E15.6183
G1 X106.651 Y83.280 E15.6519
G1 X104.651 Y83.280 E15.7350
G1 X103.892 Y83.221 E15.7666
G1 X103.160 Y83.045 E15.7980
G1 X102.464 Y82.756 E15.8293
G1 X101.822 Y82.363 E15.8606
G1 X101.249 Y81.874 E15.8919
G1 X100.760 Y81.301 E15.9232
G1 X100.367 Y80.659 E15.9545
G1 X100.079 Y79.964 E15.9858
G1 X99.903 Y79.231 E16.0171
G1 X99.843 Y78.473 E16.0487
G1 X99.843 Y76.489 E16.1312
G1 X99.903 Y75.730 E16.1629
G1 X100.079 Y74.998 E16.1942
G1 X100.367 Y74.302 E16.2255
G1 X100.760 Y73.660 E16.2568
G1 X101.249 Y73.087 E16.2881
G1 X101.822 Y72.598 E16.3194
G1 X102.464 Y72.205 E16.3507
G1 X103.160 Y71.917 E16.3820
G1 X103.892 Y71.741 E16.4133
G1 X104.651 Y71.681 E16.4450
G1 X106.651 Y71.681 E16.5281
G1 X107.456 Y71.618 E16.5617
G1 X108.250 Y71.427 E16.5957
G1 X109.004 Y71.115 E16.6296
G1 X109.700 Y70.688 E16.6635
G1 X110.321 Y70.158 E16.6975
G1 X110.857 Y69.528 E16.7319
G1 X111.278 Y68.840 E16.7654
G1 X111.590 Y68.085 E16.7994
G1 X111.780 Y67.289 E16.8334
G1 X111.843 Y66.495 E16.8665
G1 X111.843 Y52.467 E17.4497
G1 X111.780 Y51.672 E17.4829
G1 X111.589 Y50.874 E17.5170
G1 X111.277 Y50.120 E17.5509
G1 X110.850 Y49.424 E17.5849
G1 X110.321 Y48.803 E17.6188
G1 X109.700 Y48.273 E17.6527
G1 X109.004 Y47.846 E17.6867
G1 X108.250 Y47.534 E17.7206
G1 X107.456 Y47.344 E17.7545
G1 X106.651 Y47.280 E17.7881
G1 X104.651 Y47.280 E17.8713
G1 X103.892 Y47.221 E17.9029
G1 X103.160 Y47.045 E17.9342
G1 X102.464 Y46.757 E17.9655
G1 X101.822 Y46.363 E17.9968
G1 X101.249 Y45.874 E18.0282
G1 X100.760 Y45.301 E18.0595
G1 X100.367 Y44.659 E18.0908
G1 X100.079 Y43.964 E18.1221
G1 X99.903 Y43.232 E18.1534
G1 X99.843 Y42.473 E18.1850
G1 X99.843 Y40.488 E18.2675
G1 X99.903 Y39.730 E18.2992
G1 X100.079 Y38.998 E18.3305
G1 X100.367 Y38.302 E18.3618
G1 X100.760 Y37.660 E18.3931
G1 X101.249 Y37.087 E18.4244
G1 X101.822 Y36.598 E18.4557
G1 X102.464 Y36.205 E18.4870
G1 X103.160 Y35.916 E18.5183
G1 X103.892 Y35.741 E18.5496
G1 X104.651 Y35.681 E18.5813
G1 X109.333 Y35.681 E18.7759
G1 X110.085 Y35.626 E18.8073
G1 X110.827 Y35.460 E18.8389
G1 X111.539 Y35.187 E18.8706
G1 X112.270 Y34.774 E18.9055
G1 X112.526 Y34.691 E18.9167
G1 X112.650 Y34.681 E18.9218
G1 X147.627 Y34.681 E20.3760
G1 X147.889 Y34.723 E20.3871
G1 X148.111 Y34.836 E20.3974
G1 X148.295 Y35.020 E20.4083
G1 X148.539 Y35.396 E20.4269
G1 X148.914 Y35.633 E20.4453
G1 X149.208 Y35.681 E20.4577
G1 X155.635 Y35.681 E20.7249
G1 X156.394 Y35.741 E20.7566
G1 X157.126 Y35.917 E20.7879
G1 X157.821 Y36.205 E20.8192
G1 X158.464 Y36.598 E20.8505
G1 X159.036 Y37.087 E20.8818
G1 X159.525 Y37.660 E20.9131
G1 X159.919 Y38.302 E20.9444
G1 X160.207 Y38.998 E20.9757
G1 X160.383 Y39.730 E21.0070
G1 X160.442 Y40.488 E21.0387
G1 X160.442 Y42.473 E21.1212
G1 X160.383 Y43.231 E21.1528
G1 X160.207 Y43.964 E21.1841
G1 X159.919 Y44.659 E21.2154
G1 X159.525 Y45.301 E21.2467
G1 X159.036 Y45.874 E21.2780
G1 X158.464 Y46.363 E21.3093
G1 X157.821 Y46.756 E21.3406
G1 X157.126 Y47.045 E21.3719
G1 X156.394 Y47.221 E21.4032
G1 X155.635 Y47.280 E21.4349
G1 X153.635 Y47.280 E21.5180
G1 X152.829 Y47.344 E21.5516
G1 X152.036 Y47.534 E21.5856
G1 X151.282 Y47.846 E21.6195
G1 X150.586 Y48.273 E21.6534
G1 X149.965 Y48.803 E21.6874
G1 X149.429 Y49.433 E21.7218
G1 X149.008 Y50.121 E21.7553
G1 X148.696 Y50.876 E21.7893
G1 X148.505 Y51.672 E21.8233
G1 X148.442 Y52.467 E21.8564
G1 X148.442 Y66.495 E22.4396
G1 X148.505 Y67.289 E22.4728
G1 X148.696 Y68.085 E22.5068
G1 X149.009 Y68.842 E22.5409
G1 X149.435 Y69.538 E22.5748
G1 X149.965 Y70.158 E22.6087
G1 X150.586 Y70.688 E22.6427
G1 X151.281 Y71.115 E22.6766
G1 X152.036 Y71.427 E22.7105
G1 X152.829 Y71.618 E22.7444
G1 X153.635 Y71.681 E22.7780
G1 X155.635 Y71.681 E22.8612
G1 X156.393 Y71.741 E22.8928
G1 X157.126 Y71.917 E22.9241
G1 X157.821 Y72.205 E22.9554
G1 X158.464 Y72.598 E22.9868
G1 X159.036 Y73.087 E23.0181
G1 X159.525 Y73.660 E23.0494
G1 X159.919 Y74.302 E23.0807
G1 X160.207 Y74.998 E23.1120
G1 X160.383 Y75.730 E23.1433
G1 X160.442 Y76.489 E23.1749
G1 X160.442 Y78.473 E23.2574
G1 X160.383 Y79.231 E23.2891
G1 X160.207 Y79.964 E23.3204
G1 X159.919 Y80.659 E23.3517
G1 X159.525 Y81.301 E23.3830
G1 X159.036 Y81.874 E23.4143
G1 X158.464 Y82.363 E23.4456
G1 X157.821 Y82.756 E23.4769
G1 X157.126 Y83.045 E23.5082
G1 X156.393 Y83.221 E23.5395
G1 X155.635 Y83.280 E23.5712
G1 X148.502 Y83.280 E23.8677
G0 X147.702 Y83.280 F5400
;segType:Loop
G0 X148.042 Y84.380
G1 X148.042 Y97.677 E24.4205 F2400
G1 X147.820 Y97.880 E24.4331
G1 X112.464 Y97.880 E25.9030
G1 X112.265 Y97.760 E25.9126
G1 X112.243 Y97.563 E25.9209
G1 X112.243 Y88.451 E26.2997
G1 X112.177 Y87.609 E26.3348
G1 X111.971 Y86.752 E26.3715
G1 X111.634 Y85.937 E26.4081
G1 X111.175 Y85.188 E26.4447
G1 X110.604 Y84.519 E26.4812
G1 X109.936 Y83.948 E26.5178
G1 X109.186 Y83.489 E26.5543
G1 X108.374 Y83.153 E26.5909
G1 X107.519 Y82.947 E26.6274
G1 X106.666 Y82.880 E26.6630
G1 X104.666 Y82.880 E26.7461
G1 X103.955 Y82.824 E26.7758
G1 X103.284 Y82.663 E26.8045
G1 X102.646 Y82.399 E26.8332
G1 X102.058 Y82.038 E26.8619
G1 X101.533 Y81.590 E26.8906
G1 X101.085 Y81.065 E26.9193
G1 X100.724 Y80.477 E26.9479
G1 X100.460 Y79.840 E26.9766
G1 X100.299 Y79.169 E27.0053
G1 X100.243 Y78.457 E27.0350
G1 X100.243 Y76.504 E27.1162
G1 X100.299 Y75.793 E27.1459
G1 X100.460 Y75.122 E27.1746
G1 X100.724 Y74.484 E27.2032
G1 X101.085 Y73.896 E27.2319
G1 X101.533 Y73.371 E27.2606
G1 X102.058 Y72.923 E27.2893
G1 X102.646 Y72.562 E27.3180
G1 X103.284 Y72.298 E27.3467
G1 X103.955 Y72.137 E27.3754
G1 X104.666 Y72.081 E27.4051
G1 X106.666 Y72.081 E27.4882
G1 X107.519 Y72.014 E27.5238
G1 X108.374 Y71.809 E27.5603
G1 X109.186 Y71.472 E27.5969
G1 X109.936 Y71.013 E27.6334
G1 X110.605 Y70.442 E27.6700
G1 X111.182 Y69.764 E27.7070
G1 X111.636 Y69.022 E27.7432
G1 X111.972 Y68.209 E27.7797
G1 X112.176 Y67.352 E27.8164
G1 X112.243 Y66.510 E27.8515
G1 X112.243 Y52.451 E28.4360
G1 X112.177 Y51.609 E28.4711
G1 X111.971 Y50.750 E28.5078
G1 X111.634 Y49.938 E28.5444
G1 X111.175 Y49.188 E28.5809
G1 X110.604 Y48.519 E28.6175
G1 X109.936 Y47.948 E28.6540
G1 X109.186 Y47.489 E28.6906
G1 X108.374 Y47.153 E28.7271
G1 X107.519 Y46.947 E28.7637
G1 X106.666 Y46.880 E28.7993
G1 X104.666 Y46.880 E28.8824
G1 X103.955 Y46.824 E28.9121
G1 X103.284 Y46.663 E28.9408
G1 X102.646 Y46.399 E28.9695
G1 X102.058 Y46.038 E28.9982
G1 X101.533 Y45.590 E29.0268
G1 X101.085 Y45.066 E29.0555
G1 X100.724 Y44.477 E29.0842
G1 X100.460 Y43.840 E29.1129
G1 X100.299 Y43.169 E29.1416
G1 X100.243 Y42.457 E29.1713
G1 X100.243 Y40.504 E29.2525
G1 X100.299 Y39.793 E29.2821
G1 X100.460 Y39.122 E29.3108
G1 X100.724 Y38.484 E29.3395
G1 X101.085 Y37.896 E29.3682
G1 X101.533 Y37.371 E29.3969
G1 X102.058 Y36.923 E29.4256
G1 X102.646 Y36.562 E29.4543
G1 X103.284 Y36.298 E29.4830
G1 X103.955 Y36.137 E29.5117
G1 X104.666 Y36.081 E29.5413
G1 X109.348 Y36.081 E29.7360
G1 X110.144 Y36.023 E29.7691
G1 X110.943 Y35.844 E29.8032
G1 X111.710 Y35.550 E29.8373
G1 X112.419 Y35.149 E29.8712
G1 X112.698 Y35.081 E29.8831
G1 X147.596 Y35.081 E31.3340
G1 X147.872 Y35.162 E31.3460
G1 X147.983 Y35.273 E31.3525
G1 X148.251 Y35.687 E31.3730
G1 X148.769 Y36.015 E31.3985
G1 X149.175 Y36.081 E31.4156
G1 X155.619 Y36.081 E31.6835
G1 X156.331 Y36.137 E31.7132
G1 X157.002 Y36.298 E31.7419
G1 X157.639 Y36.562 E31.7706
G1 X158.228 Y36.923 E31.7993
G1 X158.753 Y37.371 E31.8280
G1 X159.201 Y37.896 E31.8567
G1 X159.561 Y38.484 E31.8853
G1 X159.825 Y39.122 E31.9140
G1 X159.986 Y39.793 E31.9427
G1 X160.042 Y40.504 E31.9724
G1 X160.042 Y42.457 E32.0536
G1 X159.986 Y43.169 E32.0833
G1 X159.825 Y43.840 E32.1120
G1 X159.561 Y44.477 E32.1406
G1 X159.201 Y45.066 E32.1693
G1 X158.752 Y45.590 E32.1980
G1 X158.228 Y46.038 E32.2267
G1 X157.639 Y46.399 E32.2554
G1 X157.002 Y46.663 E32.2841
G1 X156.331 Y46.824 E32.3128
G1 X155.619 Y46.880 E32.3425
G1 X153.619 Y46.880 E32.4256
G1 X152.766 Y46.947 E32.4612
G1 X151.912 Y47.153 E32.4977
G1 X151.099 Y47.489 E32.5343
G1 X150.350 Y47.948 E32.5708
G1 X149.681 Y48.520 E32.6074
G1 X149.104 Y49.198 E32.6444
G1 X148.650 Y49.940 E32.6806
G1 X148.314 Y50.752 E32.7171
G1 X148.109 Y51.609 E32.7538
G1 X148.042 Y52.451 E32.7889
G1 X148.042 Y66.510 E33.3734
G1 X148.109 Y67.352 E33.4085
G1 X148.314 Y68.209 E33.4451
G1 X148.651 Y69.024 E33.4818
G1 X149.111 Y69.774 E33.5183
G1 X149.681 Y70.442 E33.5549
G1 X150.350 Y71.013 E33.5914
G1 X151.099 Y71.472 E33.6280
G1 X151.912 Y71.809 E33.6645
G1 X152.766 Y72.014 E33.7011
G1 X153.619 Y72.081 E33.7367
G1 X155.619 Y72.081 E33.8198
G1 X156.330 Y72.137 E33.8495
G1 X157.002 Y72.298 E33.8782
G1 X157.639 Y72.562 E33.9069
G1 X158.228 Y72.923 E33.9355
G1 X158.752 Y73.371 E33.9642
G1 X159.201 Y73.896 E33.9929
G1 X159.561 Y74.484 E34.0216
G1 X159.825 Y75.122 E34.0503
G1 X159.986 Y75.793 E34.0790
G1 X160.042 Y76.504 E34.1087
G1 X160.042 Y78.457 E34.1899
G1 X159.986 Y79.169 E34.2195
G1 X159.825 Y79.840 E34.2482
G1 X159.561 Y80.477 E34.2769
G1 X159.201 Y81.066 E34.3056
G1 X158.752 Y81.590 E34.3343
G1 X158.228 Y82.038 E34.3630
G1 X157.639 Y82.399 E34.3917
G1 X157.002 Y82.663 E34.4204
G1 X156.331 Y82.824 E34.4491
G1 X155.619 Y82.880 E34.4787
G1 X148.042 Y82.880 E34.7937
G1 X148.042 Y84.180 E34.8478
G0 X148.042 Y84.180 F5400
G0 X148.042 Y82.880
G0 X151.517 Y82.880
G0 X151.517 Y82.880
G0 X159.410 Y79.927
;segType:HShell
G0 X159.398 Y79.931
G1 X158.071 Y78.604 E34.9258 F2400
G0 X158.188 Y78.156 F5400
G1 X159.536 Y79.503 E35.0050 F2400
G0 X159.635 Y79.038 F5400
G1 X158.243 Y77.645 E35.0869 F2400
G0 X158.221 Y77.057 F5400
G1 X159.677 Y78.513 E35.1725 F2400
G0 X159.682 Y77.953 F5400
G1 X158.066 Y76.337 E35.2675 F2400
;segType:Perimeter
G0 X157.215 Y75.803 F5400
G1 X157.347 Y76.592 E35.3007 F1439
G1 X157.453 Y77.003 E35.3184
G1 X157.494 Y77.485 E35.3385
G1 X157.452 Y77.967 E35.3586
G1 X157.330 Y78.434 E35.3787
G1 X157.137 Y78.860 E35.3981
G1 X156.859 Y79.275 E35.4189
G1 X156.523 Y79.624 E35.4390
G1 X156.148 Y79.901 E35.4584
G1 X155.717 Y80.121 E35.4785
G1 X155.256 Y80.265 E35.4986
G1 X154.760 Y80.329 E35.5194
G1 X154.277 Y80.308 E35.5395
G1 X153.820 Y80.210 E35.5589
G1 X153.356 Y80.025 E35.5797
G1 X152.944 Y79.771 E35.5998
G1 X152.593 Y79.462 E35.6192
G1 X152.279 Y79.074 E35.6400
G1 X152.043 Y78.651 E35.6601
G1 X151.883 Y78.195 E35.6802
G1 X151.804 Y77.734 E35.6997
G1 X151.802 Y77.235 E35.7204
G1 X151.885 Y76.758 E35.7405
G1 X152.047 Y76.303 E35.7606
G1 X152.283 Y75.881 E35.7807
G1 X152.577 Y75.517 E35.8002
G1 X152.951 Y75.186 E35.8209
G1 X153.363 Y74.933 E35.8411
G1 X153.812 Y74.753 E35.8612
G1 X154.285 Y74.652 E35.8813
G1 X154.768 Y74.632 E35.9014
G1 X155.231 Y74.692 E35.9208
G1 X155.694 Y74.831 E35.9409
G1 X156.126 Y75.047 E35.9610
G1 X156.517 Y75.333 E35.9811
G1 X156.853 Y75.680 E36.0012
G1 X157.125 Y76.079 E36.0213
G1 X157.307 Y76.480 E36.0396
G0 X157.701 Y77.176 F5400
;segType:Loop
G0 X157.887 Y77.585
G1 X157.848 Y78.035 E36.0584 F2400
G1 X157.708 Y78.568 E36.0813
G1 X157.488 Y79.056 E36.1035
G1 X157.171 Y79.527 E36.1271
G1 X156.788 Y79.925 E36.1501
G1 X156.359 Y80.243 E36.1723
G1 X155.869 Y80.493 E36.1952
G1 X155.342 Y80.657 E36.2181
G1 X154.777 Y80.730 E36.2418
G1 X154.225 Y80.706 E36.2647
G1 X153.703 Y80.594 E36.2870
G1 X153.175 Y80.383 E36.3106
G1 X152.705 Y80.093 E36.3335
G1 X152.304 Y79.740 E36.3558
G1 X151.946 Y79.299 E36.3794
G1 X151.677 Y78.816 E36.4024
G1 X151.494 Y78.296 E36.4253
G1 X151.404 Y77.769 E36.4475
G1 X151.402 Y77.201 E36.4711
G1 X151.497 Y76.656 E36.4941
G1 X151.681 Y76.137 E36.5170
G1 X151.950 Y75.656 E36.5400
G1 X152.286 Y75.240 E36.5622
G1 X152.712 Y74.863 E36.5858
G1 X153.183 Y74.574 E36.6088
G1 X153.695 Y74.369 E36.6317
G1 X154.234 Y74.254 E36.6547
G1 X154.785 Y74.231 E36.6776
G1 X155.315 Y74.299 E36.6998
G1 X155.842 Y74.458 E36.7226
G1 X156.335 Y74.704 E36.7456
G1 X156.780 Y75.030 E36.7685
G1 X157.164 Y75.427 E36.7914
G1 X157.475 Y75.882 E36.8144
G1 X157.711 Y76.400 E36.8381
G1 X157.849 Y76.936 E36.8610
G1 X157.887 Y77.386 E36.8798
G0 X157.887 Y77.386 F5400
G0 X157.891 Y72.716
G0 X157.891 Y72.716
G0 X157.639 Y72.562
G0 X157.002 Y72.298
G0 X156.330 Y72.137
G0 X155.619 Y72.081
G0 X153.619 Y72.081
G0 X152.766 Y72.014
G0 X151.912 Y71.809
G0 X151.099 Y71.472
G0 X150.350 Y71.013
G0 X149.681 Y70.442
G0 X149.111 Y69.774
G0 X148.651 Y69.024
G0 X148.314 Y68.209
G0 X148.109 Y67.352
G0 X148.042 Y66.510
G0 X148.042 Y52.451
G0 X148.109 Y51.609
G0 X148.314 Y50.752
G0 X148.650 Y49.940
G0 X149.104 Y49.198
G0 X149.681 Y48.520
G0 X150.350 Y47.948
G0 X151.099 Y47.489
G0 X151.912 Y47.153
G0 X152.766 Y46.947
G0 X153.619 Y46.880
G0 X155.619 Y46.880
G0 X156.331 Y46.824
G0 X157.002 Y46.663
G0 X157.639 Y46.399
G0 X157.913 Y46.231
G0 X157.913 Y46.231
G0 X157.919 Y39.972
;segType:HShell
G0 X157.919 Y39.986
G1 X159.682 Y41.749 E36.9835 F2400
G0 X159.682 Y41.183 F5400
G1 X154.940 Y36.441 E37.2623 F2400
G0 X154.374 Y36.441 F5400
G1 X156.131 Y38.198 E37.3656 F2400
;segType:Perimeter
G0 X156.510 Y39.042 F5400
G1 X156.897 Y39.742 E37.3989 F1439
G1 X157.134 Y40.094 E37.4165
G1 X157.332 Y40.535 E37.4366
G1 X157.453 Y41.003 E37.4567
G1 X157.494 Y41.485 E37.4768
G1 X157.452 Y41.967 E37.4969
G1 X157.330 Y42.435 E37.5170
G1 X157.130 Y42.875 E37.5371
G1 X156.868 Y43.262 E37.5566
G1 X156.535 Y43.612 E37.5766
G1 X156.134 Y43.910 E37.5974
G1 X155.717 Y44.121 E37.6169
G1 X155.240 Y44.269 E37.6376
G1 X154.760 Y44.329 E37.6577
G1 X154.276 Y44.308 E37.6779
G1 X153.804 Y44.205 E37.6980
G1 X153.356 Y44.025 E37.7180
G1 X152.958 Y43.780 E37.7375
G1 X152.582 Y43.451 E37.7582
G1 X152.278 Y43.074 E37.7784
G1 X152.043 Y42.651 E37.7985
G1 X151.883 Y42.195 E37.8186
G1 X151.804 Y41.735 E37.8380
G1 X151.802 Y41.235 E37.8588
G1 X151.885 Y40.758 E37.8789
G1 X152.047 Y40.302 E37.8990
G1 X152.283 Y39.881 E37.9191
G1 X152.576 Y39.517 E37.9385
G1 X152.951 Y39.186 E37.9593
G1 X153.363 Y38.933 E37.9794
G1 X153.796 Y38.759 E37.9988
G1 X154.268 Y38.655 E38.0189
G1 X154.767 Y38.632 E38.0397
G1 X155.248 Y38.694 E38.0598
G1 X155.709 Y38.837 E38.0799
G1 X156.127 Y39.047 E38.0993
G1 X156.517 Y39.333 E38.1194
G1 X156.822 Y39.649 E38.1377
G0 X157.425 Y40.175 F5400
;segType:Loop
G0 X157.736 Y40.499
G1 X157.849 Y40.936 E38.1565 F2400
G1 X157.895 Y41.485 E38.1794
G1 X157.848 Y42.035 E38.2024
G1 X157.708 Y42.569 E38.2253
G1 X157.480 Y43.071 E38.2482
G1 X157.181 Y43.513 E38.2704
G1 X156.802 Y43.912 E38.2933
G1 X156.345 Y44.252 E38.3169
G1 X155.867 Y44.493 E38.3392
G1 X155.325 Y44.661 E38.3628
G1 X154.776 Y44.730 E38.3858
G1 X154.225 Y44.706 E38.4088
G1 X153.686 Y44.589 E38.4317
G1 X153.175 Y44.383 E38.4546
G1 X152.719 Y44.103 E38.4768
G1 X152.292 Y43.729 E38.5004
G1 X151.945 Y43.298 E38.5234
G1 X151.677 Y42.816 E38.5464
G1 X151.494 Y42.296 E38.5693
G1 X151.404 Y41.769 E38.5915
G1 X151.402 Y41.201 E38.6151
G1 X151.497 Y40.657 E38.6381
G1 X151.681 Y40.137 E38.6610
G1 X151.950 Y39.656 E38.6839
G1 X152.286 Y39.240 E38.7062
G1 X152.711 Y38.864 E38.7298
G1 X153.182 Y38.574 E38.7527
G1 X153.678 Y38.375 E38.7749
G1 X154.216 Y38.257 E38.7978
G1 X154.784 Y38.231 E38.8215
G1 X155.333 Y38.302 E38.8445
G1 X155.859 Y38.464 E38.8674
G1 X156.337 Y38.705 E38.8896
G1 X156.781 Y39.030 E38.9125
G1 X157.176 Y39.440 E38.9362
G1 X157.485 Y39.899 E38.9592
G1 X157.670 Y40.311 E38.9780
G0 X157.670 Y40.311 F5400
G0 X157.711 Y40.402
G0 X157.849 Y40.936
G0 X157.895 Y41.485
G0 X157.848 Y42.035
G0 X157.708 Y42.569
G0 X157.480 Y43.071
G0 X157.181 Y43.513
G0 X157.076 Y43.623
G0 X157.076 Y43.623
G0 X156.511 Y46.781
G0 X156.511 Y46.781
G0 X156.331 Y46.824
G0 X155.619 Y46.880
G0 X153.619 Y46.880
G0 X152.766 Y46.947
G0 X151.912 Y47.153
G0 X151.099 Y47.489
G0 X150.350 Y47.948
G0 X149.681 Y48.520
G0 X149.104 Y49.198
G0 X148.650 Y49.940
G0 X148.314 Y50.752
G0 X148.109 Y51.609
G0 X148.042 Y52.451
G0 X148.042 Y66.510
G0 X148.109 Y67.352
G0 X148.314 Y68.209
G0 X148.651 Y69.024
G0 X149.111 Y69.774
G0 X149.681 Y70.442
G0 X150.350 Y71.013
G0 X151.099 Y71.472
G0 X151.912 Y71.809
G0 X152.022 Y71.835
G0 X152.022 Y71.835
G0 X150.105 Y82.533
;segType:HShell
G0 X150.107 Y82.520
G1 X109.242 Y41.655 E41.3807 F2400
;segType:Perimeter
G0 X108.698 Y41.792 F5400
G1 X108.305 Y42.489 E41.4139 F1439
G1 X108.130 Y42.875 E41.4315
G1 X107.869 Y43.261 E41.4509
G1 X107.523 Y43.623 E41.4717
G1 X107.134 Y43.911 E41.4918
G1 X106.718 Y44.121 E41.5112
G1 X106.239 Y44.269 E41.5320
G1 X105.759 Y44.329 E41.5522
G1 X105.276 Y44.308 E41.5723
G1 X104.821 Y44.210 E41.5916
G1 X104.372 Y44.032 E41.6117
G1 X103.959 Y43.780 E41.6318
G1 X103.582 Y43.450 E41.6526
G1 X103.278 Y43.073 E41.6728
G1 X103.043 Y42.651 E41.6929
G1 X102.883 Y42.195 E41.7130
G1 X102.802 Y41.718 E41.7331
G1 X102.802 Y41.252 E41.7525
G1 X102.885 Y40.758 E41.7733
G1 X103.047 Y40.302 E41.7934
G1 X103.274 Y39.896 E41.8128
G1 X103.587 Y39.505 E41.8336
G1 X103.951 Y39.186 E41.8537
G1 X104.363 Y38.933 E41.8738
G1 X104.812 Y38.753 E41.8939
G1 X105.268 Y38.655 E41.9133
G1 X105.768 Y38.632 E41.9341
G1 X106.230 Y38.691 E41.9535
G1 X106.693 Y38.831 E41.9736
G1 X107.125 Y39.046 E41.9937
G1 X107.515 Y39.332 E42.0138
G1 X107.864 Y39.693 E42.0346
G1 X108.125 Y40.079 E42.0540
G1 X108.326 Y40.518 E42.0741
G1 X108.450 Y40.985 E42.0942
G1 X108.494 Y41.485 E42.1150
G1 X108.454 Y41.949 E42.1344
G1 X108.345 Y42.376 E42.1527
G0 X108.214 Y43.165 F5400
;segType:Loop
G0 X108.055 Y43.646
G1 X107.789 Y43.925 E42.1687 F2400
G1 X107.344 Y44.253 E42.1917
G1 X106.868 Y44.493 E42.2139
G1 X106.324 Y44.661 E42.2376
G1 X105.776 Y44.730 E42.2606
G1 X105.225 Y44.706 E42.2835
G1 X104.704 Y44.594 E42.3056
G1 X104.193 Y44.391 E42.3285
G1 X103.722 Y44.104 E42.3514
G1 X103.292 Y43.729 E42.3752
G1 X102.945 Y43.298 E42.3981
G1 X102.677 Y42.816 E42.4211
G1 X102.494 Y42.295 E42.4440
G1 X102.402 Y41.752 E42.4669
G1 X102.402 Y41.219 E42.4891
G1 X102.496 Y40.657 E42.5128
G1 X102.681 Y40.137 E42.5357
G1 X102.941 Y39.671 E42.5579
G1 X103.297 Y39.227 E42.5816
G1 X103.713 Y38.862 E42.6046
G1 X104.183 Y38.574 E42.6275
G1 X104.695 Y38.369 E42.6504
G1 X105.216 Y38.257 E42.6726
G1 X105.784 Y38.231 E42.6962
G1 X106.314 Y38.299 E42.7184
G1 X106.840 Y38.457 E42.7413
G1 X107.334 Y38.703 E42.7642
G1 X107.779 Y39.029 E42.7872
G1 X108.175 Y39.440 E42.8109
G1 X108.475 Y39.882 E42.8331
G1 X108.703 Y40.382 E42.8559
G1 X108.845 Y40.916 E42.8789
G1 X108.895 Y41.484 E42.9026
G1 X108.850 Y42.016 E42.9248
G1 X108.708 Y42.568 E42.9485
G1 X108.480 Y43.071 E42.9715
G1 X108.191 Y43.499 E42.9929
G0 X108.191 Y43.499 F5400
G0 X107.888 Y47.036
G0 X107.888 Y47.036
G0 X108.374 Y47.153
G0 X109.186 Y47.489
G0 X109.936 Y47.948
G0 X110.604 Y48.519
G0 X111.175 Y49.188
G0 X111.634 Y49.938
G0 X111.971 Y50.750
G0 X112.177 Y51.609
G0 X112.243 Y52.451
G0 X112.243 Y66.510
G0 X112.176 Y67.352
G0 X111.972 Y68.209
G0 X111.636 Y69.022
G0 X111.182 Y69.764
G0 X110.605 Y70.442
G0 X109.936 Y71.013
G0 X109.186 Y71.472
G0 X108.374 Y71.809
G0 X107.519 Y72.014
G0 X106.666 Y72.081
G0 X105.745 Y72.081
G0 X105.745 Y72.081
G0 X105.561 Y74.241
G0 X105.561 Y74.241
G0 X105.215 Y74.257
G0 X104.677 Y74.376
G0 X104.183 Y74.574
G0 X103.713 Y74.863
G0 X103.297 Y75.227
G0 X102.941 Y75.671
G0 X102.681 Y76.136
G0 X102.496 Y76.657
G0 X102.402 Y77.219
G0 X102.402 Y77.752
G0 X102.494 Y78.295
G0 X102.677 Y78.815
G0 X102.945 Y79.298
G0 X103.291 Y79.727
G0 X103.705 Y80.093
G0 X104.192 Y80.391
G0 X104.706 Y80.595
G0 X105.011 Y80.659
G0 X105.011 Y80.659
G0 X104.851 Y82.533
;segType:HShell
G0 X104.852 Y82.520
G1 X100.603 Y78.271 E43.2428 F2400
G0 X100.603 Y77.705 F5400
G1 X105.418 Y82.520 E43.5258 F2400
G0 X105.984 Y82.520 F5400
G1 X104.275 Y80.811 E43.6263 F2400
;segType:Perimeter
G0 X104.450 Y80.310 F5400
G1 X103.899 Y79.731 E43.6596 F1439
G1 X103.581 Y79.450 E43.6772
G1 X103.278 Y79.073 E43.6973
G1 X103.043 Y78.651 E43.7174
G1 X102.883 Y78.195 E43.7375
G1 X102.802 Y77.718 E43.7576
G1 X102.802 Y77.252 E43.7770
G1 X102.885 Y76.758 E43.7978
G1 X103.047 Y76.302 E43.8179
G1 X103.274 Y75.896 E43.8373
G1 X103.587 Y75.505 E43.8581
G1 X103.951 Y75.186 E43.8782
G1 X104.363 Y74.933 E43.8983
G1 X104.795 Y74.759 E43.9177
G1 X105.267 Y74.655 E43.9378
G1 X105.768 Y74.632 E43.9586
G1 X106.248 Y74.695 E43.9788
G1 X106.710 Y74.837 E43.9989
G1 X107.126 Y75.047 E44.0182
G1 X107.530 Y75.343 E44.0390
G1 X107.864 Y75.693 E44.0592
G1 X108.125 Y76.079 E44.0785
G1 X108.326 Y76.518 E44.0986
G1 X108.450 Y76.985 E44.1187
G1 X108.494 Y77.485 E44.1396
G1 X108.454 Y77.949 E44.1589
G1 X108.330 Y78.434 E44.1798
G1 X108.130 Y78.875 E44.1999
G1 X107.869 Y79.261 E44.2192
G1 X107.523 Y79.624 E44.2401
G1 X107.134 Y79.911 E44.2602
G1 X106.718 Y80.120 E44.2795
G1 X106.239 Y80.269 E44.3004
G1 X105.759 Y80.329 E44.3205
G1 X105.294 Y80.310 E44.3399
G1 X104.821 Y80.210 E44.3599
G1 X104.372 Y80.032 E44.3800
G1 X103.995 Y79.802 E44.3984
G0 X103.279 Y79.445 F5400
;segType:Loop
G0 X102.897 Y79.210
G1 X102.677 Y78.815 E44.4172 F2400
G1 X102.494 Y78.295 E44.4401
G1 X102.402 Y77.752 E44.4630
G1 X102.402 Y77.219 E44.4852
G1 X102.496 Y76.657 E44.5088
G1 X102.681 Y76.136 E44.5318
G1 X102.941 Y75.671 E44.5540
G1 X103.297 Y75.227 E44.5776
G1 X103.713 Y74.863 E44.6006
G1 X104.183 Y74.574 E44.6236
G1 X104.677 Y74.376 E44.6457
G1 X105.215 Y74.257 E44.6686
G1 X105.785 Y74.231 E44.6923
G1 X106.333 Y74.302 E44.7153
G1 X106.860 Y74.464 E44.7382
G1 X107.336 Y74.704 E44.7604
G1 X107.795 Y75.042 E44.7841
G1 X108.176 Y75.441 E44.8070
G1 X108.474 Y75.882 E44.8292
G1 X108.703 Y76.382 E44.8520
G1 X108.845 Y76.916 E44.8750
G1 X108.895 Y77.484 E44.8987
G1 X108.850 Y78.016 E44.9209
G1 X108.708 Y78.568 E44.9446
G1 X108.480 Y79.071 E44.9676
G1 X108.181 Y79.513 E44.9897
G1 X107.789 Y79.925 E45.0134
G1 X107.344 Y80.253 E45.0364
G1 X106.868 Y80.493 E45.0585
G1 X106.324 Y80.661 E45.0822
G1 X105.776 Y80.730 E45.1052
G1 X105.244 Y80.708 E45.1273
G1 X104.706 Y80.595 E45.1502
G1 X104.192 Y80.391 E45.1731
G1 X103.705 Y80.093 E45.1969
G1 X103.291 Y79.727 E45.2199
G1 X103.008 Y79.375 E45.2386
;segType:HShell
G0 X105.068 Y81.039 F5400
G1 X106.549 Y82.520 E45.3257 F2400
G0 X107.152 Y82.557 F5400
G1 X105.682 Y81.087 E45.4122 F2400
G0 X106.200 Y81.040 F5400
G1 X107.807 Y82.646 E45.5066 F2400
G0 X108.571 Y82.844 F5400
G1 X106.660 Y80.934 E45.6189 F2400
G0 X107.081 Y80.789 F5400
G1 X109.631 Y83.339 E45.7689 F2400
G0 X111.784 Y85.492 F5400
G1 X123.812 Y97.520 E46.4761 F2400
G0 X123.247 Y97.520 F5400
G1 X112.278 Y86.552 E47.1210 F2400
G0 X112.477 Y87.316 F5400
G1 X122.681 Y97.520 E47.7210 F2400
G0 X122.115 Y97.520 F5400
G1 X112.567 Y87.972 E48.2824 F2400
G0 X112.603 Y88.574 F5400
G1 X121.549 Y97.520 E48.8084 F2400
G0 X120.984 Y97.520 F5400
G1 X112.603 Y89.140 E49.3011 F2400
G0 X112.603 Y89.705 F5400
G1 X120.418 Y97.520 E49.7606 F2400
G0 X119.852 Y97.520 F5400
G1 X112.603 Y90.271 E50.1868 F2400
G0 X112.603 Y90.837 F5400
G1 X119.287 Y97.520 E50.5798 F2400
G0 X118.721 Y97.520 F5400
G1 X112.603 Y91.402 E50.9395 F2400
G0 X112.603 Y91.968 F5400
G1 X118.155 Y97.520 E51.2660 F2400
G0 X117.590 Y97.520 F5400
G1 X112.603 Y92.534 E51.5591 F2400
G0 X112.603 Y93.099 F5400
G1 X117.024 Y97.520 E51.8191 F2400
G0 X116.458 Y97.520 F5400
G1 X112.603 Y93.665 E52.0457 F2400
G0 X112.603 Y94.231 F5400
G1 X115.893 Y97.520 E52.2391 F2400
G0 X115.327 Y97.520 F5400
G1 X112.603 Y94.796 E52.3993 F2400
G0 X112.603 Y95.362 F5400
G1 X114.761 Y97.520 E52.5262 F2400
G0 X114.196 Y97.520 F5400
G1 X112.603 Y95.928 E52.6198 F2400
G0 X112.603 Y96.494 F5400
G1 X113.630 Y97.520 E52.6802 F2400
G0 X113.064 Y97.520 F5400
G1 X112.603 Y97.059 E52.7073 F2400
G0 X112.243 Y95.907 F5400
G0 X112.243 Y88.451
G0 X112.177 Y87.609
G0 X111.971 Y86.752
G0 X111.634 Y85.937
G0 X111.175 Y85.188
G0 X110.604 Y84.519
G0 X109.936 Y83.948
G0 X109.186 Y83.489
G0 X108.374 Y83.153
G0 X108.246 Y83.122
G0 X108.246 Y83.122
G0 X107.453 Y80.587
G0 X107.457 Y80.599
G1 X124.378 Y97.520 E53.7022 F2400
G0 X124.944 Y97.520 F5400
G1 X107.793 Y80.369 E54.7106 F2400
G0 X108.105 Y80.116 F5400
G1 X125.509 Y97.520 E55.7339 F2400
G0 X126.075 Y97.520 F5400
G1 X108.381 Y79.826 E56.7743 F2400
G0 X108.623 Y79.503 F5400
G1 X126.641 Y97.520 E57.8336 F2400
G0 X127.206 Y97.520 F5400
G1 X108.838 Y79.152 E58.9136 F2400
G0 X109.015 Y78.763 F5400
G1 X127.772 Y97.520 E60.0164 F2400
G0 X128.338 Y97.520 F5400
G1 X109.143 Y78.325 E61.1450 F2400
G0 X109.226 Y77.843 F5400
G1 X128.903 Y97.520 E62.3020 F2400
G0 X129.469 Y97.520 F5400
G1 X109.240 Y77.291 E63.4914 F2400
G0 X109.141 Y76.626 F5400
G1 X130.035 Y97.520 E64.7198 F2400
G0 X130.600 Y97.520 F5400
G1 X108.793 Y75.712 E66.0020 F2400
G0 X108.637 Y71.700 F5400
G0 X109.186 Y71.472
G0 X109.936 Y71.013
G0 X110.605 Y70.442
G0 X111.182 Y69.764
G0 X111.636 Y69.022
G0 X111.972 Y68.209
G0 X112.176 Y67.352
G0 X112.243 Y66.510
G0 X112.243 Y52.451
G0 X112.177 Y51.609
G0 X111.971 Y50.750
G0 X111.634 Y49.938
G0 X111.175 Y49.188
G0 X110.604 Y48.519
G0 X109.936 Y47.948
G0 X109.186 Y47.489
G0 X108.374 Y47.153
G0 X107.680 Y46.986
G0 X107.680 Y46.986
G0 X107.584 Y44.510
G0 X107.584 Y44.523
G1 X147.682 Y84.621 E68.3596 F2400
G0 X147.682 Y84.055 F5400
G1 X107.910 Y44.283 E70.6981 F2400
G0 X108.204 Y44.011 F5400
G1 X147.682 Y83.489 E73.0193 F2400
G0 X147.682 Y82.924 F5400
G1 X108.477 Y43.718 E75.3244 F2400
G0 X109.184 Y42.163 F5400
G1 X149.541 Y82.520 E77.6972 F2400
G0 X148.976 Y82.520 F5400
G1 X109.069 Y42.613 E80.0436 F2400
G0 X108.902 Y43.012 F5400
G1 X148.410 Y82.520 E82.3665 F2400
G0 X150.673 Y82.520 F5400
G1 X109.220 Y41.067 E84.8038 F2400
G0 X109.067 Y40.349 F5400
G1 X151.238 Y82.520 E87.2833 F2400
G0 X151.804 Y82.520 F5400
G1 X105.725 Y36.441 E89.9926 F2400
G0 X106.291 Y36.441 F5400
G1 X152.370 Y82.520 E92.7018 F2400
G0 X152.936 Y82.520 F5400
G1 X106.857 Y36.441 E95.4111 F2400
G0 X107.422 Y36.441 F5400
G1 X153.501 Y82.520 E98.1203 F2400
G0 X154.067 Y82.520 F5400
G1 X107.988 Y36.441 E100.8296 F2400
G0 X108.554 Y36.441 F5400
G1 X151.786 Y79.674 E103.3715 F2400
G0 X151.187 Y78.509 F5400
G1 X109.119 Y36.441 E105.8449 F2400
G0 X109.663 Y36.419 F5400
G1 X151.044 Y77.800 E108.2779 F2400
G0 X151.042 Y77.233 F5400
G1 X110.190 Y36.380 E110.6799 F2400
G0 X110.653 Y36.278 F5400
G1 X151.116 Y76.741 E113.0590 F2400
G0 X151.241 Y76.300 F5400
G1 X111.108 Y36.167 E115.4187 F2400
G0 X111.517 Y36.010 F5400
G1 X151.403 Y75.896 E117.7638 F2400
G0 X151.606 Y75.534 F5400
G1 X111.918 Y35.846 E120.0973 F2400
G0 X112.280 Y35.642 F5400
G1 X151.848 Y75.210 E122.4237 F2400
G0 X152.115 Y74.911 F5400
G1 X112.664 Y35.460 E124.7433 F2400
G0 X113.211 Y35.441 F5400
G1 X152.415 Y74.645 E127.0483 F2400
G0 X152.751 Y74.416 F5400
G1 X113.776 Y35.441 E129.3399 F2400
G0 X114.342 Y35.441 F5400
G1 X148.710 Y69.809 E131.3606 F2400
G0 X152.506 Y80.393 F5400
G1 X154.633 Y82.520 E131.4857 F2400
G0 X155.198 Y82.520 F5400
G1 X153.623 Y80.945 E131.5783 F2400
G0 X154.314 Y81.071 F5400
G1 X155.752 Y82.508 E131.6628 F2400
G0 X156.276 Y82.467 F5400
G1 X154.889 Y81.079 E131.7444 F2400
G0 X155.389 Y81.014 F5400
G1 X156.733 Y82.357 E131.8234 F2400
G0 X157.152 Y82.211 F5400
G1 X155.824 Y80.884 E131.9015 F2400
G0 X156.223 Y80.716 F5400
G1 X157.543 Y82.036 E131.9791 F2400
G0 X157.893 Y81.821 F5400
G1 X156.591 Y80.519 E132.0556 F2400
G0 X156.916 Y80.278 F5400
G1 X158.214 Y81.576 E132.1319 F2400
G0 X158.516 Y81.312 F5400
G1 X157.210 Y80.006 E132.2088 F2400
G0 X157.481 Y79.712 F5400
G1 X158.777 Y81.007 E132.2849 F2400
G0 X159.015 Y80.680 F5400
G1 X157.708 Y79.373 E132.3618 F2400
G0 X157.906 Y79.005 F5400
G1 X159.230 Y80.329 E132.4396 F2400
G0 X159.263 Y74.705 F5400
G1 X157.418 Y72.861 E132.5481 F2400
G0 X156.553 Y72.561 F5400
G1 X159.563 Y75.571 E132.7250 F2400
G0 X159.660 Y76.234 F5400
G1 X155.890 Y72.464 E132.9467 F2400
G0 X155.302 Y72.441 F5400
G1 X159.682 Y76.822 E133.2043 F2400
G0 X159.682 Y77.387 F5400
G1 X154.736 Y72.441 E133.4951 F2400
G0 X154.170 Y72.441 F5400
G1 X155.798 Y74.068 E133.5908 F2400
G0 X155.068 Y73.904 F5400
G1 X153.605 Y72.441 E133.6768 F2400
G0 X152.991 Y72.393 F5400
G1 X154.481 Y73.883 E133.7644 F2400
G0 X153.974 Y73.941 F5400
G1 X152.306 Y72.274 E133.8625 F2400
G0 X151.491 Y72.024 F5400
G1 X153.518 Y74.052 E133.9817 F2400
G0 X153.114 Y74.214 F5400
G1 X150.314 Y71.414 E134.1463 F2400
G0 X150.221 Y70.903 F5400
G0 X149.681 Y70.442
G0 X149.111 Y69.774
G0 X148.651 Y69.024
G0 X148.314 Y68.209
G0 X148.109 Y67.352
G0 X148.042 Y66.510
G0 X148.042 Y58.949
G0 X148.042 Y58.949
G0 X143.755 Y35.428
G0 X143.758 Y35.441
G1 X151.431 Y43.115 E134.5975 F2400
G0 X151.119 Y42.237 F5400
G1 X144.323 Y35.441 E134.9970 F2400
G0 X144.889 Y35.441 F5400
G1 X151.043 Y41.595 E135.3589 F2400
G0 X151.063 Y41.050 F5400
G1 X145.455 Y35.441 E135.6886 F2400
G0 X146.020 Y35.441 F5400
G1 X151.147 Y40.567 E135.9900 F2400
G0 X151.294 Y40.149 F5400
G1 X146.586 Y35.441 E136.2669 F2400
G0 X147.152 Y35.441 F5400
G1 X151.476 Y39.766 E136.5211 F2400
G0 X151.686 Y39.410 F5400
G1 X148.628 Y36.352 E136.7009 F2400
G0 X149.283 Y36.441 F5400
G1 X151.939 Y39.097 E136.8571 F2400
G0 X152.223 Y38.815 F5400
G1 X149.849 Y36.441 E136.9966 F2400
G0 X150.415 Y36.441 F5400
G1 X152.527 Y38.554 E137.1209 F2400
G0 X152.878 Y38.339 F5400
G1 X150.980 Y36.441 E137.2324 F2400
G0 X151.546 Y36.441 F5400
G1 X153.260 Y38.155 E137.3332 F2400
G0 X153.677 Y38.007 F5400
G1 X152.112 Y36.441 E137.4252 F2400
G0 X152.677 Y36.441 F5400
G1 X154.141 Y37.905 E137.5113 F2400
G0 X154.677 Y37.875 F5400
G1 X153.243 Y36.441 E137.5956 F2400
G0 X153.809 Y36.441 F5400
G1 X155.302 Y37.935 E137.6834 F2400
G0 X155.506 Y36.441 F5400
G1 X159.682 Y40.618 E137.9290 F2400
G0 X159.642 Y40.012 F5400
G1 X156.111 Y36.481 E138.1366 F2400
G0 X156.821 Y36.625 F5400
G1 X159.498 Y39.302 E138.2940 F2400
G0 X158.970 Y38.208 F5400
G1 X157.915 Y37.154 E138.3560 F2400
G0 X158.193 Y40.825 F5400
G1 X159.682 Y42.315 E138.4436 F2400
G0 X159.650 Y42.849 F5400
G1 X158.254 Y41.452 E138.5257 F2400
G0 X158.214 Y41.978 F5400
G1 X159.575 Y43.339 E138.6057 F2400
G0 X159.457 Y43.787 F5400
G1 X158.113 Y42.443 E138.6848 F2400
G0 X157.969 Y42.864 F5400
G1 X159.292 Y44.187 E138.7625 F2400
G0 X159.092 Y44.553 F5400
G1 X157.792 Y43.253 E138.8390 F2400
G0 X157.564 Y43.590 F5400
G1 X158.871 Y44.897 E138.9158 F2400
G0 X158.610 Y45.202 F5400
G1 X157.309 Y43.901 E138.9923 F2400
G0 X157.032 Y44.190 F5400
G1 X158.324 Y45.482 E139.0683 F2400
G0 X158.019 Y45.743 F5400
G1 X156.708 Y44.431 E139.1454 F2400
G0 X156.359 Y44.648 F5400
G1 X157.669 Y45.958 E139.2225 F2400
G0 X157.296 Y46.151 F5400
G1 X155.980 Y44.835 E139.2998 F2400
G0 X155.548 Y44.969 F5400
G1 X156.896 Y46.317 E139.3791 F2400
G0 X156.441 Y46.427 F5400
G1 X155.070 Y45.056 E139.4597 F2400
G0 X154.528 Y45.080 F5400
G1 X155.941 Y46.494 E139.5428 F2400
G0 X155.402 Y46.520 F5400
G1 X153.882 Y45.000 E139.6322 F2400
G0 X153.029 Y44.712 F5400
G1 X154.837 Y46.520 E139.7385 F2400
G0 X154.271 Y46.520 F5400
G1 X143.192 Y35.441 E140.3899 F2400
G0 X142.626 Y35.441 F5400
G1 X153.705 Y46.520 E141.0413 F2400
G0 X153.173 Y46.554 F5400
G1 X142.061 Y35.441 E141.6947 F2400
G0 X141.495 Y35.441 F5400
G1 X152.657 Y46.603 E142.3509 F2400
G0 X152.201 Y46.713 F5400
G1 X140.929 Y35.441 E143.0137 F2400
G0 X140.363 Y35.441 F5400
G1 X151.751 Y46.829 E143.6832 F2400
G0 X151.351 Y46.995 F5400
G1 X139.798 Y35.441 E144.3626 F2400
G0 X139.232 Y35.441 F5400
G1 X150.951 Y47.160 E145.0516 F2400
G0 X150.599 Y47.373 F5400
G1 X138.666 Y35.441 E145.7532 F2400
G0 X138.101 Y35.441 F5400
G1 X150.248 Y47.588 E146.4674 F2400
G0 X149.928 Y47.835 F5400
G1 X137.535 Y35.441 E147.1961 F2400
G0 X136.969 Y35.441 F5400
G1 X149.623 Y48.095 E147.9401 F2400
G0 X149.334 Y48.372 F5400
G1 X136.404 Y35.441 E148.7003 F2400
G0 X135.838 Y35.441 F5400
G1 X149.074 Y48.677 E149.4785 F2400
G0 X148.814 Y48.983 F5400
G1 X135.272 Y35.441 E150.2747 F2400
G0 X134.707 Y35.441 F5400
G1 X148.599 Y49.333 E151.0915 F2400
G0 X148.384 Y49.684 F5400
G1 X134.141 Y35.441 E151.9289 F2400
G0 X133.575 Y35.441 F5400
G1 X148.206 Y50.072 E152.7892 F2400
G0 X148.040 Y50.472 F5400
G1 X133.010 Y35.441 E153.6729 F2400
G0 X132.444 Y35.441 F5400
G1 X147.907 Y50.905 E154.5821 F2400
G0 X147.798 Y51.361 F5400
G1 X131.878 Y35.441 E155.5181 F2400
G0 X131.313 Y35.441 F5400
G1 X147.728 Y51.857 E156.4833 F2400
G0 X147.687 Y52.381 F5400
G1 X130.747 Y35.441 E157.4793 F2400
G0 X130.181 Y35.441 F5400
G1 X147.682 Y52.942 E158.5083 F2400
G0 X147.682 Y53.508 F5400
G1 X129.615 Y35.441 E159.5706 F2400
G0 X129.050 Y35.441 F5400
G1 X147.682 Y54.074 E160.6661 F2400
G0 X147.682 Y54.639 F5400
G1 X128.484 Y35.441 E161.7949 F2400
G0 X127.918 Y35.441 F5400
G1 X147.682 Y55.205 E162.9569 F2400
G0 X147.682 Y55.771 F5400
G1 X127.353 Y35.441 E164.1522 F2400
G0 X126.787 Y35.441 F5400
G1 X147.682 Y56.337 E165.3808 F2400
G0 X147.682 Y56.902 F5400
G1 X126.221 Y35.441 E166.6426 F2400
G0 X125.656 Y35.441 F5400
G1 X147.682 Y57.468 E167.9377 F2400
G0 X147.682 Y58.034 F5400
G1 X125.090 Y35.441 E169.2661 F2400
G0 X124.524 Y35.441 F5400
G1 X147.682 Y58.599 E170.6277 F2400
G0 X147.682 Y59.165 F5400
G1 X123.959 Y35.441 E172.0225 F2400
G0 X123.393 Y35.441 F5400
G1 X147.682 Y59.731 E173.4506 F2400
G0 X147.682 Y60.296 F5400
G1 X122.827 Y35.441 E174.9120 F2400
G0 X122.262 Y35.441 F5400
G1 X147.682 Y60.862 E176.4067 F2400
G0 X147.682 Y61.428 F5400
G1 X121.696 Y35.441 E177.9346 F2400
G0 X121.130 Y35.441 F5400
G1 X147.682 Y61.993 E179.4957 F2400
G0 X147.682 Y62.559 F5400
G1 X120.565 Y35.441 E181.0902 F2400
G0 X119.999 Y35.441 F5400
G1 X147.682 Y63.125 E182.7178 F2400
G0 X147.682 Y63.690 F5400
G1 X119.433 Y35.441 E184.3788 F2400
G0 X118.867 Y35.441 F5400
G1 X147.682 Y64.256 E186.0730 F2400
G0 X147.682 Y64.822 F5400
G1 X118.302 Y35.441 E187.8005 F2400
G0 X117.736 Y35.441 F5400
G1 X147.682 Y65.387 E189.5612 F2400
G0 X147.682 Y65.953 F5400
G1 X117.170 Y35.441 E191.3552 F2400
G0 X116.605 Y35.441 F5400
G1 X147.682 Y66.519 E193.1824 F2400
G0 X147.730 Y67.132 F5400
G1 X116.039 Y35.441 E195.0457 F2400
G0 X115.473 Y35.441 F5400
G1 X147.850 Y67.818 E196.9493 F2400
G0 X148.100 Y68.633 F5400
G1 X114.908 Y35.441 E198.9009 F2400
G0 X106.782 Y38.064 F5400
G1 X105.160 Y36.441 E198.9963 F2400
G0 X104.600 Y36.448 F5400
G1 X106.055 Y37.903 E199.0819 F2400
G0 X105.472 Y37.885 F5400
G1 X104.076 Y36.489 E199.1639 F2400
G0 X103.611 Y36.590 F5400
G1 X104.964 Y37.943 E199.2435 F2400
G0 X104.511 Y38.055 F5400
G1 X103.185 Y36.729 E199.3215 F2400
G0 X102.788 Y36.898 F5400
G1 X104.107 Y38.217 E199.3990 F2400
G0 X103.745 Y38.420 F5400
G1 X102.437 Y37.113 E199.4759 F2400
G0 X102.110 Y37.352 F5400
G1 X103.409 Y38.650 E199.5522 F2400
G0 X103.107 Y38.914 F5400
G1 X101.805 Y37.612 E199.6288 F2400
G0 X101.542 Y37.915 F5400
G1 X102.844 Y39.217 E199.7053 F2400
G0 X102.602 Y39.540 F5400
G1 X101.298 Y38.237 E199.7820 F2400
G0 X101.083 Y38.587 F5400
G1 X102.399 Y39.903 E199.8593 F2400
G0 X102.238 Y40.308 F5400
G1 X100.909 Y38.979 E199.9374 F2400
G0 X100.764 Y39.399 F5400
G1 X102.115 Y40.751 E200.0169 F2400
G0 X102.041 Y41.243 F5400
G1 X100.655 Y39.857 E200.0984 F2400
G0 X100.614 Y40.381 F5400
G1 X102.047 Y41.814 E200.1826 F2400
G0 X102.193 Y42.526 F5400
G1 X100.603 Y40.936 E200.2761 F2400
G0 X100.971 Y44.132 F5400
G1 X102.991 Y46.152 E200.3948 F2400
G0 X103.828 Y46.423 F5400
G1 X100.700 Y43.295 E200.5788 F2400
G0 X100.620 Y42.649 F5400
G1 X104.474 Y46.504 E200.8054 F2400
G0 X105.056 Y46.520 F5400
G1 X100.603 Y42.067 E201.0672 F2400
G0 X100.603 Y41.502 F5400
G1 X102.827 Y43.725 E201.1980 F2400
G0 X103.426 Y44.324 F5400
G1 X105.622 Y46.520 E201.3271 F2400
G0 X106.188 Y46.520 F5400
G1 X104.609 Y44.942 E201.4199 F2400
G0 X105.303 Y45.070 F5400
G1 X106.759 Y46.526 E201.5055 F2400
G0 X107.373 Y46.575 F5400
G1 X105.879 Y45.080 E201.5934 F2400
G0 X106.381 Y45.017 F5400
G1 X108.075 Y46.710 E201.6929 F2400
G0 X108.919 Y46.988 F5400
G1 X106.816 Y44.886 E201.8166 F2400
G0 X107.216 Y44.720 F5400
G1 X110.175 Y47.679 E201.9905 F2400
G0 X111.444 Y48.948 F5400
G1 X147.682 Y85.186 E204.1212 F2400
G0 X147.682 Y85.752 F5400
G1 X112.135 Y50.205 E206.2113 F2400
G0 X112.413 Y51.048 F5400
G1 X147.682 Y86.318 E208.2850 F2400
G0 X147.682 Y86.884 F5400
G1 X112.549 Y51.750 E210.3507 F2400
G0 X112.597 Y52.364 F5400
G1 X147.682 Y87.449 E212.4136 F2400
G0 X147.682 Y88.015 F5400
G1 X112.603 Y52.936 E214.4761 F2400
G0 X112.603 Y53.501 F5400
G1 X147.682 Y88.581 E216.5386 F2400
G0 X147.682 Y89.146 F5400
G1 X112.603 Y54.067 E218.6011 F2400
G0 X112.603 Y54.633 F5400
G1 X147.682 Y89.712 E220.6636 F2400
G0 X147.682 Y90.278 F5400
G1 X112.603 Y55.199 E222.7261 F2400
G0 X112.603 Y55.764 F5400
G1 X147.682 Y90.843 E224.7887 F2400
G0 X147.682 Y91.409 F5400
G1 X112.603 Y56.330 E226.8512 F2400
G0 X112.603 Y56.896 F5400
G1 X147.682 Y91.975 E228.9137 F2400
G0 X147.682 Y92.540 F5400
G1 X112.603 Y57.461 E230.9762 F2400
G0 X112.603 Y58.027 F5400
G1 X147.682 Y93.106 E233.0387 F2400
G0 X147.682 Y93.672 F5400
G1 X112.603 Y58.593 E235.1012 F2400
G0 X112.603 Y59.158 F5400
G1 X147.682 Y94.237 E237.1638 F2400
G0 X147.682 Y94.803 F5400
G1 X112.603 Y59.724 E239.2263 F2400
G0 X112.603 Y60.290 F5400
G1 X147.682 Y95.369 E241.2888 F2400
G0 X147.682 Y95.934 F5400
G1 X112.603 Y60.855 E243.3513 F2400
G0 X112.603 Y61.421 F5400
G1 X147.682 Y96.500 E245.4138 F2400
G0 X147.682 Y97.066 F5400
G1 X112.603 Y61.987 E247.4763 F2400
G0 X112.603 Y62.552 F5400
G1 X147.566 Y97.515 E249.5320 F2400
G0 X147.005 Y97.520 F5400
G1 X112.603 Y63.118 E251.5547 F2400
G0 X112.603 Y63.684 F5400
G1 X146.440 Y97.520 E253.5442 F2400
G0 X145.874 Y97.520 F5400
G1 X112.603 Y64.249 E255.5004 F2400
G0 X112.603 Y64.815 F5400
G1 X145.308 Y97.520 E257.4233 F2400
G0 X144.743 Y97.520 F5400
G1 X112.603 Y65.381 E259.3130 F2400
G0 X112.603 Y65.947 F5400
G1 X144.177 Y97.520 E261.1694 F2400
G0 X143.611 Y97.520 F5400
G1 X112.603 Y66.512 E262.9926 F2400
G0 X112.563 Y67.037 F5400
G1 X143.046 Y97.520 E264.7848 F2400
G0 X142.480 Y97.520 F5400
G1 X112.501 Y67.542 E266.5475 F2400
G0 X112.392 Y67.998 F5400
G1 X141.914 Y97.520 E268.2832 F2400
G0 X141.348 Y97.520 F5400
G1 X112.266 Y68.438 E269.9931 F2400
G0 X112.101 Y68.838 F5400
G1 X140.783 Y97.520 E271.6795 F2400
G0 X140.217 Y97.520 F5400
G1 X111.929 Y69.232 E273.3428 F2400
G0 X111.714 Y69.583 F5400
G1 X139.651 Y97.520 E274.9854 F2400
G0 X139.086 Y97.520 F5400
G1 X111.500 Y69.934 E276.6073 F2400
G0 X111.245 Y70.245 F5400
G1 X138.520 Y97.520 E278.2110 F2400
G0 X137.954 Y97.520 F5400
G1 X110.985 Y70.551 E279.7967 F2400
G0 X110.701 Y70.833 F5400
G1 X137.389 Y97.520 E281.3658 F2400
G0 X136.823 Y97.520 F5400
G1 X110.396 Y71.093 E282.9196 F2400
G0 X110.082 Y71.345 F5400
G1 X136.257 Y97.520 E284.4586 F2400
G0 X135.692 Y97.520 F5400
G1 X109.732 Y71.560 E285.9849 F2400
G0 X109.381 Y71.775 F5400
G1 X135.126 Y97.520 E287.4986 F2400
G0 X134.560 Y97.520 F5400
G1 X108.985 Y71.945 E289.0023 F2400
G0 X108.585 Y72.111 F5400
G1 X133.995 Y97.520 E290.4963 F2400
G0 X133.429 Y97.520 F5400
G1 X108.143 Y72.234 E291.9830 F2400
G0 X107.687 Y72.344 F5400
G1 X132.863 Y97.520 E293.4632 F2400
G0 X132.298 Y97.520 F5400
G1 X107.179 Y72.402 E294.9401 F2400
G0 X106.653 Y72.441 F5400
G1 X131.732 Y97.520 E296.4146 F2400
G0 X131.166 Y97.520 F5400
G1 X106.087 Y72.441 E297.8892 F2400
G0 X105.521 Y72.441 F5400
G1 X107.428 Y74.347 E298.0013 F2400
G0 X106.488 Y73.973 F5400
G1 X104.956 Y72.441 E298.0913 F2400
G0 X104.411 Y72.462 F5400
G1 X105.821 Y73.873 E298.1742 F2400
G0 X105.277 Y73.894 F5400
G1 X103.903 Y72.520 E298.2550 F2400
G0 X103.447 Y72.629 F5400
G1 X104.798 Y73.980 E298.3345 F2400
G0 X104.365 Y74.113 F5400
G1 X103.041 Y72.789 E298.4123 F2400
G0 X102.661 Y72.975 F5400
G1 X103.969 Y74.283 E298.4892 F2400
G0 X103.618 Y74.498 F5400
G1 X102.311 Y73.190 E298.5661 F2400
G0 X102.000 Y73.446 F5400
G1 X103.300 Y74.746 E298.6425 F2400
G0 X103.005 Y75.016 F5400
G1 X101.709 Y73.720 E298.7187 F2400
G0 X101.448 Y74.025 F5400
G1 X102.753 Y75.330 E298.7955 F2400
G0 X102.529 Y75.671 F5400
G1 X101.221 Y74.363 E298.8724 F2400
G0 X101.015 Y74.723 F5400
G1 X102.333 Y76.041 E298.9498 F2400
G0 X102.185 Y76.458 F5400
G1 X100.850 Y75.123 E299.0283 F2400
G0 X100.724 Y75.564 F5400
G1 X102.086 Y76.925 E299.1084 F2400
G0 X102.041 Y77.446 F5400
G1 X100.640 Y76.046 E299.1907 F2400
G0 X100.603 Y76.574 F5400
G1 X102.089 Y78.059 E299.2781 F2400
G0 X102.304 Y78.840 F5400
G1 X100.603 Y77.140 E299.3781 F2400
G0 X101.201 Y80.566 F5400
G1 X102.557 Y81.922 E299.4578 F2400
G0 X103.560 Y82.359 F5400
G1 X100.764 Y79.564 E299.6222 F2400
G0 X100.637 Y78.870 F5400
G1 X104.253 Y82.486 E299.8348 F2400
G0 F3000 E298.8348
G0 X146.952 Y149.870 F5400
G0 X151.222 Y156.608
G0 F3000 E299.8348
G1 X111.334 Y116.720 E302.1800 F2400
;segType:Perimeter
G0 X111.843 Y116.700 F5400
G1 X111.843 Y115.900 E302.2133 F1439
G1 X111.843 Y101.533 E302.8106
G1 X111.908 Y101.263 E302.8222
G1 X112.073 Y101.070 E302.8327
G1 X112.325 Y100.966 E302.8441
G1 X112.401 Y100.960 E302.8472
G1 X147.869 Y100.960 E304.3218
G1 X148.140 Y101.025 E304.3334
G1 X148.333 Y101.190 E304.3439
G1 X148.410 Y101.376 E304.3523
G1 X148.442 Y101.563 E304.3602
G1 X148.442 Y110.774 E304.7431
G1 X148.505 Y111.569 E304.7763
G1 X148.696 Y112.364 E304.8103
G1 X149.009 Y113.121 E304.8444
G1 X149.435 Y113.817 E304.8783
G1 X149.965 Y114.438 E304.9122
G1 X150.586 Y114.968 E304.9462
G1 X151.281 Y115.394 E304.9801
G1 X152.036 Y115.706 E305.0140
G1 X152.829 Y115.897 E305.0480
G1 X153.635 Y115.960 E305.0816
G1 X155.635 Y115.960 E305.1647
G1 X156.393 Y116.020 E305.1964
G1 X157.126 Y116.196 E305.2277
G1 X157.821 Y116.484 E305.2590
G1 X158.463 Y116.877 E305.2903
G1 X159.036 Y117.366 E305.3216
G1 X159.525 Y117.939 E305.3529
G1 X159.919 Y118.581 E305.3842
G1 X160.207 Y119.277 E305.4155
G1 X160.383 Y120.009 E305.4469
G1 X160.442 Y120.768 E305.4785
G1 X160.442 Y122.752 E305.5610
G1 X160.383 Y123.511 E305.5926
G1 X160.207 Y124.243 E305.6239
G1 X159.919 Y124.938 E305.6552
G1 X159.525 Y125.581 E305.6865
G1 X159.036 Y126.153 E305.7178
G1 X158.464 Y126.642 E305.7492
G1 X157.821 Y127.036 E305.7805
G1 X157.126 Y127.324 E305.8118
G1 X156.393 Y127.500 E305.8431
G1 X155.635 Y127.559 E305.8747
G1 X153.635 Y127.559 E305.9578
G1 X152.829 Y127.623 E305.9914
G1 X152.035 Y127.813 E306.0254
G1 X151.281 Y128.126 E306.0593
G1 X150.586 Y128.552 E306.0932
G1 X149.965 Y129.082 E306.1272
G1 X149.429 Y129.712 E306.1616
G1 X149.008 Y130.401 E306.1951
G1 X148.696 Y131.155 E306.2290
G1 X148.505 Y131.951 E306.2631
G1 X148.442 Y132.746 E306.2962
G1 X148.442 Y146.774 E306.8794
G1 X148.505 Y147.568 E306.9126
G1 X148.697 Y148.367 E306.9467
G1 X149.009 Y149.121 E306.9807
G1 X149.435 Y149.817 E307.0146
G1 X149.965 Y150.437 E307.0485
G1 X150.586 Y150.968 E307.0825
G1 X151.281 Y151.394 E307.1164
G1 X152.036 Y151.706 E307.1503
G1 X152.829 Y151.897 E307.1843
G1 X153.635 Y151.960 E307.2179
G1 X155.635 Y151.960 E307.3010
G1 X156.393 Y152.020 E307.3327
G1 X157.126 Y152.196 E307.3640
G1 X157.821 Y152.484 E307.3953
G1 X158.464 Y152.877 E307.4266
G1 X159.036 Y153.366 E307.4579
G1 X159.525 Y153.939 E307.4892
G1 X159.919 Y154.581 E307.5206
G1 X160.207 Y155.277 E307.5519
G1 X160.383 Y156.009 E307.5832
G1 X160.442 Y156.768 E307.6148
G1 X160.442 Y158.752 E307.6973
G1 X160.383 Y159.511 E307.7290
G1 X160.207 Y160.243 E307.7603
G1 X159.919 Y160.939 E307.7916
G1 X159.525 Y161.580 E307.8229
G1 X159.036 Y162.153 E307.8542
G1 X158.464 Y162.642 E307.8855
G1 X157.821 Y163.036 E307.9168
G1 X157.126 Y163.324 E307.9481
G1 X156.393 Y163.500 E307.9794
G1 X155.635 Y163.559 E308.0111
G1 X150.952 Y163.559 E308.2058
G1 X150.201 Y163.614 E308.2371
G1 X149.458 Y163.780 E308.2688
G1 X148.747 Y164.053 E308.3004
G1 X148.016 Y164.466 E308.3353
G1 X147.760 Y164.549 E308.3465
G1 X147.636 Y164.559 E308.3517
G1 X112.658 Y164.559 E309.8059
G1 X112.396 Y164.518 E309.8169
G1 X112.174 Y164.405 E309.8273
G1 X111.990 Y164.221 E309.8381
G1 X111.747 Y163.845 E309.8567
G1 X111.372 Y163.607 E309.8752
G1 X111.078 Y163.559 E309.8876
G1 X104.651 Y163.559 E310.1548
G1 X103.892 Y163.500 E310.1864
G1 X103.160 Y163.324 E310.2177
G1 X102.464 Y163.036 E310.2490
G1 X101.822 Y162.642 E310.2803
G1 X101.249 Y162.153 E310.3117
G1 X100.760 Y161.580 E310.3430
G1 X100.367 Y160.939 E310.3743
G1 X100.079 Y160.243 E310.4056
G1 X99.903 Y159.511 E310.4369
G1 X99.843 Y158.752 E310.4685
G1 X99.843 Y156.768 E310.5510
G1 X99.903 Y156.009 E310.5827
G1 X100.079 Y155.277 E310.6140
G1 X100.367 Y154.581 E310.6453
G1 X100.760 Y153.939 E310.6766
G1 X101.249 Y153.366 E310.7079
G1 X101.822 Y152.877 E310.7392
G1 X102.464 Y152.484 E310.7706
G1 X103.160 Y152.196 E310.8019
G1 X103.892 Y152.020 E310.8332
G1 X104.651 Y151.960 E310.8648
G1 X106.651 Y151.960 E310.9480
G1 X107.456 Y151.897 E310.9816
G1 X108.250 Y151.706 E311.0155
G1 X109.004 Y151.394 E311.0495
G1 X109.700 Y150.968 E311.0834
G1 X110.321 Y150.437 E311.1173
G1 X110.857 Y149.807 E311.1517
G1 X111.278 Y149.119 E311.1853
G1 X111.590 Y148.364 E311.2192
G1 X111.780 Y147.568 E311.2532
G1 X111.843 Y146.774 E311.2864
G1 X111.843 Y132.746 E311.8696
G1 X111.780 Y131.951 E311.9027
G1 X111.590 Y131.155 E311.9367
G1 X111.277 Y130.399 E311.9708
G1 X110.850 Y129.703 E312.0047
G1 X110.321 Y129.082 E312.0386
G1 X109.700 Y128.552 E312.0726
G1 X109.004 Y128.126 E312.1065
G1 X108.250 Y127.813 E312.1405
G1 X107.456 Y127.623 E312.1744
G1 X106.651 Y127.559 E312.2080
G1 X104.651 Y127.559 E312.2912
G1 X103.892 Y127.500 E312.3228
G1 X103.160 Y127.324 E312.3541
G1 X102.464 Y127.036 E312.3854
G1 X101.822 Y126.642 E312.4167
G1 X101.249 Y126.153 E312.4480
G1 X100.760 Y125.581 E312.4794
G1 X100.367 Y124.938 E312.5107
G1 X100.079 Y124.243 E312.5420
G1 X99.903 Y123.511 E312.5733
G1 X99.843 Y122.752 E312.6049
G1 X99.843 Y120.768 E312.6874
G1 X99.903 Y120.009 E312.7191
G1 X100.079 Y119.277 E312.7504
G1 X100.367 Y118.581 E312.7817
G1 X100.760 Y117.939 E312.8130
G1 X101.249 Y117.366 E312.8443
G1 X101.822 Y116.877 E312.8756
G1 X102.464 Y116.484 E312.9069
G1 X103.160 Y116.196 E312.9382
G1 X103.892 Y116.020 E312.9696
G1 X104.651 Y115.960 E313.0012
G1 X111.783 Y115.960 E313.2977
G0 X112.583 Y115.960 F5400
;segType:Loop
G0 X112.243 Y114.860
G1 X112.243 Y101.581 E313.8498 F2400
G1 X112.466 Y101.360 E313.8628
G1 X147.822 Y101.360 E315.3328
G1 X147.953 Y101.392 E315.3384
G1 X148.042 Y101.677 E315.3508
G1 X148.042 Y110.790 E315.7297
G1 X148.109 Y111.631 E315.7648
G1 X148.314 Y112.488 E315.8014
G1 X148.651 Y113.303 E315.8381
G1 X149.111 Y114.053 E315.8746
G1 X149.681 Y114.721 E315.9112
G1 X150.350 Y115.292 E315.9477
G1 X151.099 Y115.751 E315.9843
G1 X151.912 Y116.088 E316.0208
G1 X152.766 Y116.293 E316.0574
G1 X153.619 Y116.360 E316.0929
G1 X155.619 Y116.360 E316.1761
G1 X156.331 Y116.416 E316.2057
G1 X157.002 Y116.577 E316.2344
G1 X157.639 Y116.841 E316.2631
G1 X158.228 Y117.202 E316.2918
G1 X158.752 Y117.650 E316.3205
G1 X159.201 Y118.175 E316.3492
G1 X159.561 Y118.763 E316.3779
G1 X159.825 Y119.401 E316.4065
G1 X159.986 Y120.072 E316.4352
G1 X160.042 Y120.783 E316.4649
G1 X160.042 Y122.736 E316.5461
G1 X159.986 Y123.448 E316.5758
G1 X159.825 Y124.119 E316.6044
G1 X159.561 Y124.756 E316.6331
G1 X159.201 Y125.345 E316.6618
G1 X158.752 Y125.869 E316.6905
G1 X158.228 Y126.318 E316.7192
G1 X157.639 Y126.678 E316.7479
G1 X157.002 Y126.942 E316.7766
G1 X156.330 Y127.103 E316.8053
G1 X155.619 Y127.159 E316.8349
G1 X153.619 Y127.159 E316.9181
G1 X152.766 Y127.226 E316.9537
G1 X151.911 Y127.432 E316.9902
G1 X151.099 Y127.768 E317.0267
G1 X150.350 Y128.227 E317.0633
G1 X149.681 Y128.799 E317.0999
G1 X149.104 Y129.477 E317.1369
G1 X148.650 Y130.219 E317.1730
G1 X148.314 Y131.031 E317.2096
G1 X148.109 Y131.888 E317.2462
G1 X148.042 Y132.730 E317.2813
G1 X148.042 Y146.790 E317.8659
G1 X148.109 Y147.631 E317.9010
G1 X148.315 Y148.491 E317.9377
G1 X148.651 Y149.303 E317.9743
G1 X149.110 Y150.053 E318.0108
G1 X149.681 Y150.721 E318.0473
G1 X150.350 Y151.292 E318.0839
G1 X151.099 Y151.751 E318.1204
G1 X151.912 Y152.088 E318.1570
G1 X152.766 Y152.293 E318.1936
G1 X153.619 Y152.360 E318.2291
G1 X155.619 Y152.360 E318.3123
G1 X156.331 Y152.416 E318.3419
G1 X157.002 Y152.577 E318.3706
G1 X157.639 Y152.841 E318.3993
G1 X158.228 Y153.202 E318.4280
G1 X158.752 Y153.650 E318.4567
G1 X159.201 Y154.175 E318.4854
G1 X159.561 Y154.763 E318.5141
G1 X159.825 Y155.401 E318.5427
G1 X159.986 Y156.072 E318.5714
G1 X160.042 Y156.783 E318.6011
G1 X160.042 Y158.736 E318.6823
G1 X159.986 Y159.448 E318.7120
G1 X159.825 Y160.119 E318.7406
G1 X159.561 Y160.756 E318.7693
G1 X159.201 Y161.345 E318.7980
G1 X158.752 Y161.870 E318.8267
G1 X158.228 Y162.317 E318.8554
G1 X157.639 Y162.678 E318.8841
G1 X157.002 Y162.942 E318.9128
G1 X156.331 Y163.103 E318.9415
G1 X155.619 Y163.159 E318.9711
G1 X150.937 Y163.159 E319.1658
G1 X150.142 Y163.218 E319.1990
G1 X149.342 Y163.396 E319.2330
G1 X148.576 Y163.690 E319.2671
G1 X147.867 Y164.091 E319.3010
G1 X147.588 Y164.159 E319.3129
G1 X112.700 Y164.159 E320.7634
G1 X112.394 Y164.059 E320.7768
G1 X112.303 Y163.968 E320.7821
G1 X112.035 Y163.553 E320.8027
G1 X111.516 Y163.226 E320.8282
G1 X111.110 Y163.159 E320.8453
G1 X104.666 Y163.159 E321.1132
G1 X103.955 Y163.103 E321.1429
G1 X103.284 Y162.942 E321.1716
G1 X102.646 Y162.678 E321.2002
G1 X102.058 Y162.318 E321.2289
G1 X101.533 Y161.870 E321.2576
G1 X101.085 Y161.345 E321.2863
G1 X100.724 Y160.756 E321.3150
G1 X100.460 Y160.119 E321.3437
G1 X100.299 Y159.448 E321.3724
G1 X100.243 Y158.736 E321.4020
G1 X100.243 Y156.783 E321.4832
G1 X100.299 Y156.072 E321.5129
G1 X100.460 Y155.401 E321.5416
G1 X100.724 Y154.763 E321.5703
G1 X101.085 Y154.175 E321.5990
G1 X101.533 Y153.650 E321.6276
G1 X102.058 Y153.202 E321.6563
G1 X102.646 Y152.841 E321.6850
G1 X103.284 Y152.577 E321.7137
G1 X103.955 Y152.416 E321.7424
G1 X104.666 Y152.360 E321.7720
G1 X106.666 Y152.360 E321.8552
G1 X107.519 Y152.293 E321.8908
G1 X108.374 Y152.088 E321.9273
G1 X109.186 Y151.751 E321.9639
G1 X109.936 Y151.292 E322.0004
G1 X110.605 Y150.721 E322.0370
G1 X111.182 Y150.043 E322.0740
G1 X111.636 Y149.301 E322.1102
G1 X111.972 Y148.488 E322.1467
G1 X112.176 Y147.631 E322.1834
G1 X112.243 Y146.790 E322.2185
G1 X112.243 Y132.730 E322.8030
G1 X112.177 Y131.889 E322.8381
G1 X111.971 Y131.031 E322.8748
G1 X111.634 Y130.217 E322.9114
G1 X111.175 Y129.467 E322.9480
G1 X110.604 Y128.798 E322.9845
G1 X109.936 Y128.227 E323.0211
G1 X109.186 Y127.768 E323.0576
G1 X108.374 Y127.432 E323.0942
G1 X107.519 Y127.226 E323.1307
G1 X106.666 Y127.159 E323.1663
G1 X104.667 Y127.159 E323.2494
G1 X103.955 Y127.103 E323.2791
G1 X103.284 Y126.942 E323.3078
G1 X102.646 Y126.678 E323.3365
G1 X102.058 Y126.318 E323.3652
G1 X101.533 Y125.869 E323.3939
G1 X101.085 Y125.345 E323.4226
G1 X100.724 Y124.756 E323.4512
G1 X100.460 Y124.119 E323.4799
G1 X100.299 Y123.448 E323.5086
G1 X100.243 Y122.736 E323.5383
G1 X100.243 Y120.783 E323.6195
G1 X100.299 Y120.072 E323.6492
G1 X100.460 Y119.401 E323.6778
G1 X100.724 Y118.763 E323.7065
G1 X101.085 Y118.175 E323.7352
G1 X101.533 Y117.650 E323.7639
G1 X102.058 Y117.202 E323.7926
G1 X102.646 Y116.841 E323.8213
G1 X103.284 Y116.577 E323.8500
G1 X103.955 Y116.416 E323.8786
G1 X104.667 Y116.360 E323.9083
G1 X112.243 Y116.360 E324.2233
G1 X112.243 Y115.060 E324.2774
G0 X112.243 Y115.060 F5400
G0 X112.243 Y116.360
G0 X111.252 Y116.360
G0 X111.252 Y116.360
G0 X108.416 Y120.078
G0 X108.416 Y120.078
G0 X108.609 Y120.424
G0 X108.791 Y120.944
G0 X108.882 Y121.471
G0 X108.883 Y122.039
G0 X108.789 Y122.584
G0 X108.605 Y123.104
G0 X108.335 Y123.585
G0 X107.999 Y124.001
G0 X107.574 Y124.377
G0 X107.103 Y124.666
G0 X106.591 Y124.871
G0 X106.051 Y124.987
G0 X105.500 Y125.009
G0 X104.970 Y124.941
G0 X104.756 Y124.877
G0 X104.756 Y124.877
G0 X104.515 Y125.193
;segType:HShell
G0 X104.523 Y125.182
G1 X106.139 Y126.799 E324.3724 F2400
G0 X105.574 Y126.799 F5400
G1 X100.603 Y121.829 E324.6647 F2400
G0 X100.603 Y121.263 F5400
G1 X102.211 Y122.871 E324.7592 F2400
;segType:Perimeter
G0 X103.070 Y123.437 F5400
G1 X102.938 Y122.648 E324.7925 F1439
G1 X102.832 Y122.237 E324.8101
G1 X102.792 Y121.756 E324.8302
G1 X102.834 Y121.274 E324.8503
G1 X102.956 Y120.806 E324.8704
G1 X103.149 Y120.380 E324.8898
G1 X103.427 Y119.966 E324.9106
G1 X103.762 Y119.617 E324.9307
G1 X104.138 Y119.339 E324.9501
G1 X104.568 Y119.120 E324.9702
G1 X105.030 Y118.976 E324.9903
G1 X105.526 Y118.911 E325.0111
G1 X106.009 Y118.932 E325.0312
G1 X106.466 Y119.031 E325.0506
G1 X106.930 Y119.216 E325.0714
G1 X107.341 Y119.470 E325.0915
G1 X107.692 Y119.779 E325.1109
G1 X108.007 Y120.167 E325.1317
G1 X108.243 Y120.589 E325.1518
G1 X108.403 Y121.045 E325.1719
G1 X108.482 Y121.506 E325.1913
G1 X108.483 Y122.005 E325.2121
G1 X108.401 Y122.482 E325.2322
G1 X108.239 Y122.938 E325.2523
G1 X108.003 Y123.360 E325.2724
G1 X107.709 Y123.723 E325.2919
G1 X107.335 Y124.054 E325.3126
G1 X106.923 Y124.308 E325.3327
G1 X106.474 Y124.487 E325.3528
G1 X106.001 Y124.588 E325.3729
G1 X105.518 Y124.608 E325.3930
G1 X105.054 Y124.549 E325.4125
G1 X104.592 Y124.409 E325.4325
G1 X104.159 Y124.194 E325.4526
G1 X103.769 Y123.908 E325.4728
G1 X103.433 Y123.560 E325.4929
G1 X103.160 Y123.161 E325.5130
G1 X102.978 Y122.761 E325.5313
G0 X102.584 Y122.064 F5400
;segType:Loop
G0 X102.399 Y121.655
G1 X102.438 Y121.205 E325.5501 F2400
G1 X102.578 Y120.672 E325.5730
G1 X102.798 Y120.185 E325.5952
G1 X103.114 Y119.714 E325.6188
G1 X103.497 Y119.315 E325.6418
G1 X103.927 Y118.998 E325.6640
G1 X104.417 Y118.748 E325.6869
G1 X104.944 Y118.584 E325.7099
G1 X105.508 Y118.510 E325.7335
G1 X106.060 Y118.534 E325.7565
G1 X106.583 Y118.647 E325.7787
G1 X107.110 Y118.857 E325.8023
G1 X107.580 Y119.147 E325.8253
G1 X107.982 Y119.501 E325.8475
G1 X108.340 Y119.941 E325.8711
G1 X108.609 Y120.424 E325.8941
G1 X108.791 Y120.944 E325.9170
G1 X108.882 Y121.471 E325.9393
G1 X108.883 Y122.039 E325.9628
G1 X108.789 Y122.584 E325.9858
G1 X108.605 Y123.104 E326.0087
G1 X108.335 Y123.585 E326.0317
G1 X107.999 Y124.001 E326.0539
G1 X107.574 Y124.377 E326.0775
G1 X107.103 Y124.666 E326.1005
G1 X106.591 Y124.871 E326.1234
G1 X106.051 Y124.987 E326.1464
G1 X105.500 Y125.009 E326.1693
G1 X104.970 Y124.941 E326.1915
G1 X104.444 Y124.783 E326.2144
G1 X103.950 Y124.537 E326.2373
G1 X103.505 Y124.210 E326.2602
G1 X103.122 Y123.814 E326.2832
G1 X102.811 Y123.358 E326.3061
G1 X102.575 Y122.840 E326.3298
G1 X102.436 Y122.305 E326.3527
G1 X102.399 Y121.855 E326.3715
G0 X102.399 Y121.855 F5400
G0 X102.683 Y126.693
G0 X102.683 Y126.693
G0 X103.284 Y126.942
G0 X103.955 Y127.103
G0 X104.667 Y127.159
G0 X106.666 Y127.159
G0 X107.519 Y127.226
G0 X108.374 Y127.432
G0 X109.186 Y127.768
G0 X109.936 Y128.227
G0 X110.604 Y128.798
G0 X111.175 Y129.467
G0 X111.634 Y130.217
G0 X111.971 Y131.031
G0 X112.177 Y131.889
G0 X112.243 Y132.730
G0 X112.243 Y146.790
G0 X112.176 Y147.631
G0 X111.972 Y148.488
G0 X111.636 Y149.301
G0 X111.182 Y150.043
G0 X110.605 Y150.721
G0 X109.936 Y151.292
G0 X109.186 Y151.751
G0 X108.374 Y152.088
G0 X107.519 Y152.293
G0 X106.666 Y152.360
G0 X104.666 Y152.360
G0 X104.193 Y152.397
G0 X104.193 Y152.397
G0 X104.334 Y154.790
G0 X104.334 Y154.790
G0 X103.940 Y154.988
G0 X103.484 Y155.328
G0 X103.104 Y155.727
G0 X102.806 Y156.170
G0 X102.578 Y156.672
G0 X102.438 Y157.205
G0 X102.390 Y157.755
G0 X102.436 Y158.305
G0 X102.574 Y158.839
G0 X102.801 Y159.342
G0 X103.110 Y159.800
G0 X103.505 Y160.210
G0 X103.949 Y160.536
G0 X104.426 Y160.776
G0 X104.690 Y160.857
G0 X104.690 Y160.857
G0 X104.805 Y162.812
;segType:HShell
G0 X104.804 Y162.799
G1 X100.603 Y158.598 E326.6185 F2400
G0 X100.603 Y158.033 F5400
G1 X105.370 Y162.799 E326.8987 F2400
G0 X105.935 Y162.799 F5400
G1 X104.204 Y161.067 E327.0006 F2400
;segType:Perimeter
G0 X103.776 Y160.198 F5400
G1 X103.389 Y159.498 E327.0338 F1439
G1 X103.152 Y159.147 E327.0514
G1 X102.953 Y158.706 E327.0715
G1 X102.832 Y158.237 E327.0917
G1 X102.792 Y157.755 E327.1118
G1 X102.834 Y157.274 E327.1319
G1 X102.956 Y156.806 E327.1520
G1 X103.156 Y156.366 E327.1721
G1 X103.417 Y155.979 E327.1915
G1 X103.750 Y155.628 E327.2116
G1 X104.151 Y155.330 E327.2323
G1 X104.569 Y155.119 E327.2518
G1 X105.046 Y154.972 E327.2725
G1 X105.526 Y154.911 E327.2926
G1 X106.009 Y154.932 E327.3128
G1 X106.482 Y155.035 E327.3329
G1 X106.930 Y155.216 E327.3530
G1 X107.328 Y155.461 E327.3724
G1 X107.692 Y155.778 E327.3925
G1 X108.007 Y156.166 E327.4133
G1 X108.243 Y156.589 E327.4334
G1 X108.403 Y157.045 E327.4535
G1 X108.482 Y157.506 E327.4729
G1 X108.483 Y158.005 E327.4937
G1 X108.401 Y158.482 E327.5138
G1 X108.239 Y158.938 E327.5339
G1 X108.003 Y159.360 E327.5540
G1 X107.709 Y159.723 E327.5734
G1 X107.335 Y160.054 E327.5942
G1 X106.923 Y160.307 E327.6143
G1 X106.489 Y160.482 E327.6337
G1 X106.017 Y160.586 E327.6538
G1 X105.518 Y160.608 E327.6746
G1 X105.038 Y160.546 E327.6947
G1 X104.576 Y160.404 E327.7148
G1 X104.159 Y160.193 E327.7343
G1 X103.769 Y159.908 E327.7543
G1 X103.464 Y159.591 E327.7726
G0 X102.860 Y159.066 F5400
;segType:Loop
G0 X102.549 Y158.742
G1 X102.436 Y158.305 E327.7914 F2400
G1 X102.390 Y157.755 E327.8143
G1 X102.438 Y157.205 E327.8373
G1 X102.578 Y156.672 E327.8602
G1 X102.806 Y156.170 E327.8832
G1 X103.104 Y155.727 E327.9053
G1 X103.484 Y155.328 E327.9282
G1 X103.940 Y154.988 E327.9519
G1 X104.419 Y154.747 E327.9742
G1 X104.961 Y154.579 E327.9978
G1 X105.509 Y154.510 E328.0207
G1 X106.061 Y154.534 E328.0437
G1 X106.600 Y154.651 E328.0666
G1 X107.111 Y154.857 E328.0895
G1 X107.566 Y155.138 E328.1117
G1 X107.981 Y155.499 E328.1346
G1 X108.340 Y155.941 E328.1583
G1 X108.609 Y156.425 E328.1813
G1 X108.791 Y156.945 E328.2042
G1 X108.882 Y157.471 E328.2264
G1 X108.883 Y158.039 E328.2500
G1 X108.789 Y158.584 E328.2730
G1 X108.605 Y159.104 E328.2960
G1 X108.335 Y159.585 E328.3189
G1 X107.999 Y160.001 E328.3411
G1 X107.574 Y160.377 E328.3647
G1 X107.103 Y160.666 E328.3877
G1 X106.608 Y160.865 E328.4099
G1 X106.070 Y160.984 E328.4328
G1 X105.501 Y161.009 E328.4565
G1 X104.953 Y160.938 E328.4794
G1 X104.426 Y160.776 E328.5024
G1 X103.949 Y160.536 E328.5246
G1 X103.505 Y160.210 E328.5475
G1 X103.110 Y159.800 E328.5711
G1 X102.801 Y159.342 E328.5941
G1 X102.616 Y158.930 E328.6129
G0 X102.616 Y158.930 F5400
G0 X102.574 Y158.839
G0 X102.436 Y158.305
G0 X102.390 Y157.755
G0 X102.438 Y157.205
G0 X102.578 Y156.672
G0 X102.806 Y156.170
G0 X103.104 Y155.727
G0 X103.211 Y155.615
G0 X103.211 Y155.615
G0 X103.779 Y152.458
G0 X103.779 Y152.458
G0 X103.955 Y152.416
G0 X104.666 Y152.360
G0 X106.666 Y152.360
G0 X107.519 Y152.293
G0 X108.374 Y152.088
G0 X109.186 Y151.751
G0 X109.936 Y151.292
G0 X110.605 Y150.721
G0 X111.182 Y150.043
G0 X111.636 Y149.301
G0 X111.972 Y148.488
G0 X112.176 Y147.631
G0 X112.243 Y146.790
G0 X112.243 Y132.730
G0 X112.177 Y131.889
G0 X111.971 Y131.031
G0 X111.634 Y130.217
G0 X111.175 Y129.467
G0 X110.604 Y128.798
G0 X109.936 Y128.227
G0 X109.186 Y127.768
G0 X108.374 Y127.432
G0 X108.281 Y127.410
G0 X108.281 Y127.410
G0 X110.205 Y116.707
;segType:HShell
G0 X110.203 Y116.720
G1 X151.045 Y157.563 E331.0143 F2400
;segType:Perimeter
G0 X151.588 Y157.448 F5400
G1 X151.981 Y156.751 E331.0475 F1439
G1 X152.156 Y156.365 E331.0652
G1 X152.427 Y155.965 E331.0853
G1 X152.763 Y155.617 E331.1054
G1 X153.152 Y155.330 E331.1255
G1 X153.568 Y155.120 E331.1449
G1 X154.046 Y154.972 E331.1657
G1 X154.526 Y154.911 E331.1858
G1 X155.009 Y154.932 E331.2059
G1 X155.465 Y155.031 E331.2253
G1 X155.914 Y155.208 E331.2453
G1 X156.326 Y155.460 E331.2655
G1 X156.691 Y155.777 E331.2856
G1 X157.007 Y156.167 E331.3064
G1 X157.243 Y156.590 E331.3265
G1 X157.403 Y157.046 E331.3466
G1 X157.484 Y157.522 E331.3667
G1 X157.484 Y157.988 E331.3861
G1 X157.401 Y158.482 E331.4069
G1 X157.239 Y158.938 E331.4270
G1 X157.012 Y159.345 E331.4464
G1 X156.698 Y159.736 E331.4672
G1 X156.334 Y160.055 E331.4873
G1 X155.922 Y160.308 E331.5075
G1 X155.473 Y160.487 E331.5276
G1 X155.018 Y160.585 E331.5469
G1 X154.518 Y160.608 E331.5678
G1 X154.055 Y160.549 E331.5871
G1 X153.593 Y160.410 E331.6072
G1 X153.160 Y160.194 E331.6273
G1 X152.770 Y159.909 E331.6474
G1 X152.422 Y159.548 E331.6683
G1 X152.161 Y159.162 E331.6877
G1 X151.960 Y158.722 E331.7077
G1 X151.836 Y158.255 E331.7279
G1 X151.792 Y157.756 E331.7487
G1 X151.831 Y157.291 E331.7681
G1 X151.941 Y156.864 E331.7864
G0 X152.072 Y156.075 F5400
;segType:Loop
G0 X152.185 Y155.640
G1 X152.498 Y155.315 E331.8052 F2400
G1 X152.942 Y154.988 E331.8281
G1 X153.417 Y154.748 E331.8503
G1 X153.961 Y154.579 E331.8739
G1 X154.510 Y154.510 E331.8969
G1 X155.061 Y154.534 E331.9198
G1 X155.581 Y154.647 E331.9420
G1 X156.093 Y154.849 E331.9648
G1 X156.564 Y155.136 E331.9877
G1 X156.980 Y155.499 E332.0107
G1 X157.340 Y155.942 E332.0344
G1 X157.609 Y156.425 E332.0574
G1 X157.792 Y156.945 E332.0804
G1 X157.884 Y157.489 E332.1033
G1 X157.884 Y158.022 E332.1255
G1 X157.789 Y158.583 E332.1492
G1 X157.605 Y159.104 E332.1721
G1 X157.345 Y159.569 E332.1943
G1 X156.988 Y160.013 E332.2180
G1 X156.573 Y160.378 E332.2410
G1 X156.102 Y160.667 E332.2639
G1 X155.590 Y160.871 E332.2868
G1 X155.070 Y160.983 E332.3090
G1 X154.501 Y161.009 E332.3327
G1 X153.972 Y160.942 E332.3549
G1 X153.445 Y160.783 E332.3777
G1 X152.951 Y160.537 E332.4006
G1 X152.506 Y160.211 E332.4236
G1 X152.110 Y159.801 E332.4473
G1 X151.811 Y159.358 E332.4695
G1 X151.582 Y158.858 E332.4924
G1 X151.440 Y158.325 E332.5153
G1 X151.390 Y157.756 E332.5390
G1 X151.436 Y157.224 E332.5612
G1 X151.577 Y156.673 E332.5849
G1 X151.806 Y156.169 E332.6079
G1 X152.059 Y155.795 E332.6267
G0 X152.059 Y155.795 F5400
G0 X152.648 Y152.265
G0 X152.648 Y152.265
G0 X151.912 Y152.088
G0 X151.099 Y151.751
G0 X150.350 Y151.292
G0 X149.681 Y150.721
G0 X149.110 Y150.053
G0 X148.651 Y149.303
G0 X148.315 Y148.491
G0 X148.109 Y147.631
G0 X148.042 Y146.790
G0 X148.042 Y132.730
G0 X148.109 Y131.888
G0 X148.314 Y131.031
G0 X148.650 Y130.219
G0 X149.104 Y129.477
G0 X149.681 Y128.799
G0 X150.350 Y128.227
G0 X151.099 Y127.768
G0 X151.911 Y127.432
G0 X152.766 Y127.226
G0 X153.619 Y127.159
G0 X155.619 Y127.159
G0 X156.330 Y127.103
G0 X156.866 Y126.975
G0 X156.866 Y126.975
G0 X157.472 Y123.341
G0 X157.472 Y123.341
G0 X157.832 Y121.183
G0 X157.832 Y121.183
G0 X157.971 Y120.350
;segType:HShell
G0 X157.969 Y120.363
G1 X159.682 Y122.077 E332.7274 F2400
G0 X159.682 Y121.511 F5400
G1 X154.892 Y116.720 E333.0091 F2400
G0 X154.326 Y116.720 F5400
G1 X156.051 Y118.445 E333.1105 F2400
;segType:Perimeter
G0 X155.835 Y118.930 F5400
G1 X156.387 Y119.510 E333.1438 F1439
G1 X156.704 Y119.790 E333.1614
G1 X157.007 Y120.167 E333.1815
G1 X157.243 Y120.590 E333.2016
G1 X157.403 Y121.046 E333.2217
G1 X157.484 Y121.522 E333.2418
G1 X157.484 Y121.988 E333.2612
G1 X157.401 Y122.482 E333.2820
G1 X157.239 Y122.938 E333.3021
G1 X157.012 Y123.345 E333.3215
G1 X156.698 Y123.736 E333.3423
G1 X156.334 Y124.055 E333.3624
G1 X155.922 Y124.307 E333.3825
G1 X155.490 Y124.481 E333.4019
G1 X155.019 Y124.585 E333.4219
G1 X154.526 Y124.609 E333.4424
G1 X154.038 Y124.546 E333.4629
G1 X153.575 Y124.404 E333.4830
G1 X153.160 Y124.194 E333.5024
G1 X152.756 Y123.897 E333.5232
G1 X152.422 Y123.547 E333.5433
G1 X152.161 Y123.161 E333.5627
G1 X151.960 Y122.723 E333.5827
G1 X151.836 Y122.255 E333.6029
G1 X151.792 Y121.756 E333.6237
G1 X151.831 Y121.291 E333.6431
G1 X151.956 Y120.806 E333.6639
G1 X152.156 Y120.365 E333.6840
G1 X152.417 Y119.979 E333.7034
G1 X152.762 Y119.617 E333.7242
G1 X153.152 Y119.330 E333.7443
G1 X153.568 Y119.120 E333.7637
G1 X154.046 Y118.972 E333.7845
G1 X154.508 Y118.913 E333.8038
G1 X154.991 Y118.931 E333.8239
G1 X155.464 Y119.030 E333.8440
G1 X155.914 Y119.208 E333.8641
G1 X156.290 Y119.439 E333.8825
G0 X157.007 Y119.795 F5400
;segType:Loop
G0 X157.389 Y120.030
G1 X157.609 Y120.425 E333.9013 F2400
G1 X157.792 Y120.945 E333.9242
G1 X157.884 Y121.488 E333.9471
G1 X157.884 Y122.022 E333.9693
G1 X157.790 Y122.583 E333.9929
G1 X157.605 Y123.104 E334.0159
G1 X157.345 Y123.569 E334.0381
G1 X156.988 Y124.013 E334.0617
G1 X156.573 Y124.378 E334.0848
G1 X156.103 Y124.666 E334.1077
G1 X155.609 Y124.865 E334.1298
G1 X155.072 Y124.983 E334.1527
G1 X154.510 Y125.010 E334.1761
G1 X153.953 Y124.938 E334.1994
G1 X153.425 Y124.776 E334.2224
G1 X152.950 Y124.536 E334.2445
G1 X152.491 Y124.199 E334.2682
G1 X152.109 Y123.799 E334.2912
G1 X151.811 Y123.358 E334.3133
G1 X151.582 Y122.858 E334.3362
G1 X151.440 Y122.325 E334.3591
G1 X151.390 Y121.756 E334.3829
G1 X151.436 Y121.224 E334.4051
G1 X151.577 Y120.673 E334.4287
G1 X151.806 Y120.169 E334.4517
G1 X152.104 Y119.728 E334.4739
G1 X152.497 Y119.315 E334.4975
G1 X152.942 Y118.988 E334.5205
G1 X153.417 Y118.748 E334.5427
G1 X153.961 Y118.580 E334.5663
G1 X154.490 Y118.512 E334.5885
G1 X155.040 Y118.532 E334.6114
G1 X155.580 Y118.646 E334.6343
G1 X156.093 Y118.849 E334.6573
G1 X156.580 Y119.147 E334.6810
G1 X156.995 Y119.513 E334.7040
G1 X157.278 Y119.865 E334.7228
;segType:HShell
G0 X158.192 Y121.152 F5400
G1 X159.682 Y122.642 E334.8104 F2400
G0 X159.647 Y123.172 F5400
G1 X158.244 Y121.770 E334.8928 F2400
G0 X158.203 Y122.295 F5400
G1 X159.566 Y123.657 E334.9729 F2400
G0 X159.443 Y124.100 F5400
G1 X158.107 Y122.764 E335.0515 F2400
G0 X157.959 Y123.182 F5400
G1 X159.277 Y124.500 E335.1290 F2400
G0 X159.074 Y124.862 F5400
G1 X157.766 Y123.554 E335.2059 F2400
G0 X157.543 Y123.897 F5400
G1 X158.848 Y125.203 E335.2827 F2400
G0 X158.588 Y125.508 F5400
G1 X157.291 Y124.211 E335.3589 F2400
G0 X156.998 Y124.484 F5400
G1 X158.298 Y125.784 E335.4354 F2400
G0 X157.990 Y126.041 F5400
G1 X156.682 Y124.733 E335.5123 F2400
G0 X156.331 Y124.948 F5400
G1 X157.639 Y126.256 E335.5892 F2400
G0 X157.262 Y126.445 F5400
G1 X155.938 Y125.120 E335.6670 F2400
G0 X155.508 Y125.256 F5400
G1 X156.858 Y126.606 E335.7464 F2400
G0 X156.402 Y126.716 F5400
G1 X155.032 Y125.346 E335.8270 F2400
G0 X154.491 Y125.370 F5400
G1 X155.897 Y126.776 E335.9096 F2400
G0 X155.354 Y126.799 F5400
G1 X153.833 Y125.278 E335.9991 F2400
G0 X152.907 Y124.918 F5400
G1 X154.788 Y126.799 E336.1097 F2400
G0 X154.223 Y126.799 F5400
G1 X129.144 Y101.720 E337.5842 F2400
G0 X128.578 Y101.720 F5400
G1 X153.657 Y126.799 E339.0588 F2400
G0 X153.129 Y126.837 F5400
G1 X128.012 Y101.720 E340.5355 F2400
G0 X127.447 Y101.720 F5400
G1 X152.618 Y126.892 E342.0155 F2400
G0 X152.162 Y127.001 F5400
G1 X126.881 Y101.720 E343.5019 F2400
G0 X126.315 Y101.720 F5400
G1 X151.717 Y127.122 E344.9955 F2400
G0 X151.317 Y127.288 F5400
G1 X125.749 Y101.720 E346.4988 F2400
G0 X125.184 Y101.720 F5400
G1 X150.920 Y127.456 E348.0119 F2400
G0 X150.569 Y127.671 F5400
G1 X124.618 Y101.720 E349.5377 F2400
G0 X124.052 Y101.720 F5400
G1 X150.218 Y127.886 E351.0762 F2400
G0 X149.902 Y128.136 F5400
G1 X123.487 Y101.720 E352.6293 F2400
G0 X122.921 Y101.720 F5400
G1 X149.597 Y128.397 E354.1978 F2400
G0 X149.312 Y128.677 F5400
G1 X122.355 Y101.720 E355.7827 F2400
G0 X121.790 Y101.720 F5400
G1 X149.052 Y128.982 E357.3856 F2400
G0 X148.795 Y129.291 F5400
G1 X121.224 Y101.720 E359.0067 F2400
G0 X120.658 Y101.720 F5400
G1 X148.580 Y129.642 E360.6484 F2400
G0 X148.366 Y129.993 F5400
G1 X120.093 Y101.720 E362.3107 F2400
G0 X119.527 Y101.720 F5400
G1 X148.192 Y130.385 E363.9961 F2400
G0 X148.026 Y130.785 F5400
G1 X118.961 Y101.720 E365.7050 F2400
G0 X118.396 Y101.720 F5400
G1 X147.898 Y131.223 E367.4396 F2400
G0 X147.789 Y131.679 F5400
G1 X117.830 Y101.720 E369.2011 F2400
G0 X117.264 Y101.720 F5400
G1 X147.725 Y132.181 E370.9920 F2400
G0 X147.683 Y132.705 F5400
G1 X116.699 Y101.720 E372.8138 F2400
G0 X116.133 Y101.720 F5400
G1 X147.682 Y133.270 E374.6688 F2400
G0 X147.682 Y133.835 F5400
G1 X115.567 Y101.720 E376.5570 F2400
G0 X115.001 Y101.720 F5400
G1 X147.682 Y134.401 E378.4786 F2400
G0 X147.682 Y134.967 F5400
G1 X114.436 Y101.720 E380.4333 F2400
G0 X113.870 Y101.720 F5400
G1 X147.682 Y135.532 E382.4214 F2400
G0 X147.682 Y136.098 F5400
G1 X113.304 Y101.720 E384.4427 F2400
G0 X112.739 Y101.720 F5400
G1 X147.682 Y136.664 E386.4972 F2400
G0 X147.682 Y137.230 F5400
G1 X112.603 Y102.150 E388.5598 F2400
G0 X112.603 Y102.716 F5400
G1 X147.682 Y137.795 E390.6223 F2400
G0 X147.682 Y138.361 F5400
G1 X112.603 Y103.282 E392.6848 F2400
G0 X112.603 Y103.847 F5400
G1 X147.682 Y138.927 E394.7474 F2400
G0 X147.682 Y139.492 F5400
G1 X112.603 Y104.413 E396.8099 F2400
G0 X112.603 Y104.979 F5400
G1 X147.682 Y140.058 E398.8724 F2400
G0 X147.682 Y140.624 F5400
G1 X112.603 Y105.544 E400.9349 F2400
G0 X112.603 Y106.110 F5400
G1 X147.682 Y141.189 E402.9975 F2400
G0 X147.682 Y141.755 F5400
G1 X112.603 Y106.676 E405.0600 F2400
G0 X112.603 Y107.242 F5400
G1 X147.682 Y142.321 E407.1225 F2400
G0 X147.682 Y142.886 F5400
G1 X112.603 Y107.807 E409.1851 F2400
G0 X112.603 Y108.373 F5400
G1 X147.682 Y143.452 E411.2476 F2400
G0 X147.682 Y144.018 F5400
G1 X112.603 Y108.939 E413.3101 F2400
G0 X112.603 Y109.504 F5400
G1 X147.682 Y144.583 E415.3727 F2400
G0 X147.682 Y145.149 F5400
G1 X112.603 Y110.070 E417.4352 F2400
G0 X112.603 Y110.636 F5400
G1 X147.682 Y145.715 E419.4977 F2400
G0 X147.682 Y146.280 F5400
G1 X112.603 Y111.201 E421.5603 F2400
G0 X112.603 Y111.767 F5400
G1 X147.686 Y146.850 E423.6230 F2400
G0 X147.734 Y147.464 F5400
G1 X112.603 Y112.333 E425.6886 F2400
G0 X112.603 Y112.898 F5400
G1 X147.865 Y148.161 E427.7619 F2400
G0 X148.134 Y148.995 F5400
G1 X112.603 Y113.464 E429.8509 F2400
G0 X112.243 Y113.859 F5400
G0 X112.243 Y116.360
G0 X109.965 Y116.360
G0 X109.965 Y116.360
G0 X109.628 Y116.730
G0 X109.637 Y116.720
G1 X151.063 Y158.146 E432.2866 F2400
G0 X151.210 Y158.859 F5400
G1 X109.071 Y116.720 E434.7642 F2400
G0 X108.506 Y116.720 F5400
G1 X152.263 Y160.478 E437.3370 F2400
G0 X152.269 Y160.484 F5400
G1 X154.584 Y162.799 E437.4731 F2400
G0 X154.019 Y162.799 F5400
G1 X107.940 Y116.720 E440.1823 F2400
G0 X107.374 Y116.720 F5400
G1 X153.453 Y162.799 E442.8916 F2400
G0 X152.887 Y162.799 F5400
G1 X106.809 Y116.720 E445.6009 F2400
G0 X106.243 Y116.720 F5400
G1 X152.322 Y162.799 E448.3101 F2400
G0 X151.756 Y162.799 F5400
G1 X108.395 Y119.438 E450.8596 F2400
G0 X107.948 Y118.991 F5400
G1 X105.677 Y116.720 E450.9931 F2400
G0 X106.695 Y118.304 F5400
G1 X105.111 Y116.720 E451.0861 F2400
G0 X104.556 Y116.730 F5400
G1 X105.996 Y118.171 E451.1709 F2400
G0 X105.418 Y118.159 F5400
G1 X104.031 Y116.771 E451.2524 F2400
G0 X103.572 Y116.878 F5400
G1 X104.918 Y118.224 E451.3315 F2400
G0 X104.480 Y118.351 F5400
G1 X103.151 Y117.022 E451.4096 F2400
G0 X102.758 Y117.195 F5400
G1 X104.079 Y118.516 E451.4873 F2400
G0 X103.708 Y118.711 F5400
G1 X102.407 Y117.410 E451.5638 F2400
G0 X102.084 Y117.653 F5400
G1 X103.383 Y118.952 E451.6401 F2400
G0 X103.088 Y119.222 F5400
G1 X101.781 Y117.915 E451.7170 F2400
G0 X101.520 Y118.220 F5400
G1 X102.814 Y119.514 E451.7931 F2400
G0 X102.587 Y119.853 F5400
G1 X101.280 Y118.546 E451.8699 F2400
G0 X101.065 Y118.897 F5400
G1 X102.387 Y120.219 E451.9477 F2400
G0 X102.220 Y120.617 F5400
G1 X100.895 Y119.292 E452.0255 F2400
G0 X100.755 Y119.717 F5400
G1 X102.102 Y121.065 E452.1048 F2400
G0 X102.044 Y121.573 F5400
G1 X100.652 Y120.180 E452.1867 F2400
G0 X100.611 Y120.705 F5400
G1 X102.063 Y122.157 E452.2720 F2400
G0 X100.603 Y122.395 F5400
G1 X105.008 Y126.799 E452.5310 F2400
G0 X104.422 Y126.779 F5400
G1 X100.624 Y122.981 E452.7543 F2400
G0 X100.715 Y123.638 F5400
G1 X103.765 Y126.687 E452.9336 F2400
G0 X102.909 Y126.397 F5400
G1 X101.005 Y124.494 E453.0455 F2400
G0 X105.245 Y125.340 F5400
G1 X106.707 Y126.801 E453.1315 F2400
G0 X107.321 Y126.850 F5400
G1 X105.828 Y125.356 E453.2193 F2400
G0 X106.332 Y125.295 F5400
G1 X108.012 Y126.974 E453.3180 F2400
G0 X108.836 Y127.233 F5400
G1 X106.784 Y125.181 E453.4387 F2400
G0 X107.188 Y125.020 F5400
G1 X110.034 Y127.865 E453.6060 F2400
G0 X109.963 Y128.251 F5400
G0 X110.604 Y128.798
G0 X111.175 Y129.467
G0 X111.634 Y130.217
G0 X111.971 Y131.031
G0 X112.177 Y131.889
G0 X112.243 Y132.730
G0 X112.243 Y146.790
G0 X112.176 Y147.631
G0 X111.972 Y148.488
G0 X111.636 Y149.301
G0 X111.182 Y150.043
G0 X110.605 Y150.721
G0 X109.936 Y151.292
G0 X109.186 Y151.751
G0 X108.374 Y152.088
G0 X107.519 Y152.293
G0 X106.666 Y152.360
G0 X105.539 Y152.360
G0 X105.539 Y152.360
G0 X105.471 Y152.733
G0 X105.473 Y152.720
G1 X107.310 Y154.557 E453.7140 F2400
G0 X106.434 Y154.247 F5400
G1 X104.908 Y152.720 E453.8037 F2400
G0 X104.367 Y152.745 F5400
G1 X105.783 Y154.162 E453.8870 F2400
G0 X105.237 Y154.181 F5400
G1 X103.864 Y152.808 E453.9677 F2400
G0 X103.408 Y152.918 F5400
G1 X104.756 Y154.266 E454.0470 F2400
G0 X104.324 Y154.399 F5400
G1 X103.006 Y153.082 E454.1244 F2400
G0 X102.632 Y153.273 F5400
G1 X103.943 Y154.584 E454.2015 F2400
G0 X103.592 Y154.799 F5400
G1 X102.281 Y153.488 E454.2786 F2400
G0 X101.974 Y153.747 F5400
G1 X103.267 Y155.040 E454.3546 F2400
G0 X102.988 Y155.327 F5400
G1 X101.687 Y154.025 E454.4311 F2400
G0 X101.426 Y154.330 F5400
G1 X102.732 Y155.636 E454.5079 F2400
G0 X102.504 Y155.973 F5400
G1 X101.203 Y154.672 E454.5844 F2400
G0 X101.001 Y155.036 F5400
G1 X102.324 Y156.359 E454.6622 F2400
G0 X102.177 Y156.778 F5400
G1 X100.835 Y155.436 E454.7411 F2400
G0 X100.715 Y155.882 F5400
G1 X102.073 Y157.240 E454.8210 F2400
G0 X102.029 Y157.762 F5400
G1 X100.637 Y156.369 E454.9029 F2400
G0 X100.603 Y156.901 F5400
G1 X102.085 Y158.383 E454.9900 F2400
G0 X102.347 Y159.211 F5400
G1 X100.603 Y157.467 E455.0925 F2400
G0 X101.277 Y160.970 F5400
G1 X102.433 Y162.125 E455.1604 F2400
G0 X103.497 Y162.623 F5400
G1 X100.780 Y159.906 E455.3202 F2400
G0 X100.641 Y159.202 F5400
G1 X104.201 Y162.761 E455.5294 F2400
G0 X105.011 Y161.309 F5400
G1 X106.501 Y162.799 E455.6171 F2400
G0 X107.067 Y162.799 F5400
G1 X105.632 Y161.364 E455.7014 F2400
G0 X106.165 Y161.331 F5400
G1 X107.632 Y162.799 E455.7877 F2400
G0 X108.198 Y162.799 F5400
G1 X106.628 Y161.229 E455.8800 F2400
G0 X107.043 Y161.078 F5400
G1 X108.764 Y162.799 E455.9812 F2400
G0 X109.330 Y162.799 F5400
G1 X107.423 Y160.892 E456.0933 F2400
G0 X107.773 Y160.677 F5400
G1 X109.895 Y162.799 E456.2181 F2400
G0 X110.461 Y162.799 F5400
G1 X108.076 Y160.414 E456.3583 F2400
G0 X108.358 Y160.130 F5400
G1 X111.027 Y162.799 E456.5153 F2400
G0 X111.724 Y162.930 F5400
G1 X108.610 Y159.817 E456.6983 F2400
G0 X108.818 Y159.459 F5400
G1 X113.158 Y163.799 E456.9535 F2400
G0 X113.724 Y163.799 F5400
G1 X108.998 Y159.073 E457.2313 F2400
G0 X109.143 Y158.652 F5400
G1 X114.289 Y163.799 E457.5339 F2400
G0 X114.855 Y163.799 F5400
G1 X109.226 Y158.170 E457.8649 F2400
G0 X109.242 Y157.621 F5400
G1 X115.421 Y163.799 E458.2282 F2400
G0 X115.986 Y163.799 F5400
G1 X109.162 Y156.975 E458.6294 F2400
G0 X108.824 Y156.071 F5400
G1 X116.552 Y163.799 E459.0838 F2400
G0 X117.118 Y163.799 F5400
G1 X106.039 Y152.720 E459.7352 F2400
G0 X106.605 Y152.720 F5400
G1 X117.683 Y163.799 E460.3866 F2400
G0 X118.249 Y163.799 F5400
G1 X107.135 Y152.685 E461.0401 F2400
G0 X107.648 Y152.633 F5400
G1 X118.815 Y163.799 E461.6966 F2400
G0 X119.381 Y163.799 F5400
G1 X108.104 Y152.523 E462.3596 F2400
G0 X108.551 Y152.404 F5400
G1 X119.946 Y163.799 E463.0296 F2400
G0 X120.512 Y163.799 F5400
G1 X108.951 Y152.239 E463.7093 F2400
G0 X109.351 Y152.073 F5400
G1 X121.078 Y163.799 E464.3988 F2400
G0 X121.643 Y163.799 F5400
G1 X109.702 Y151.858 E465.1009 F2400
G0 X110.053 Y151.643 F5400
G1 X122.209 Y163.799 E465.8157 F2400
G0 X122.775 Y163.799 F5400
G1 X110.370 Y151.395 E466.5450 F2400
G0 X110.675 Y151.134 F5400
G1 X123.340 Y163.799 E467.2897 F2400
G0 X123.906 Y163.799 F5400
G1 X110.963 Y150.856 E468.0507 F2400
G0 X111.223 Y150.550 F5400
G1 X124.472 Y163.799 E468.8297 F2400
G0 X125.037 Y163.799 F5400
G1 X111.481 Y150.243 E469.6267 F2400
G0 X111.696 Y149.892 F5400
G1 X125.603 Y163.799 E470.4444 F2400
G0 X126.169 Y163.799 F5400
G1 X111.911 Y149.541 E471.2827 F2400
G0 X112.087 Y149.152 F5400
G1 X126.734 Y163.799 E472.1439 F2400
G0 X127.300 Y163.799 F5400
G1 X112.252 Y148.751 E473.0287 F2400
G0 X112.383 Y148.316 F5400
G1 X127.866 Y163.799 E473.9390 F2400
G0 X128.431 Y163.799 F5400
G1 X112.492 Y147.860 E474.8762 F2400
G0 X112.559 Y147.361 F5400
G1 X128.997 Y163.799 E475.8427 F2400
G0 X129.563 Y163.799 F5400
G1 X112.601 Y146.837 E476.8400 F2400
G0 X112.603 Y146.274 F5400
G1 X130.129 Y163.799 E477.8704 F2400
G0 X130.694 Y163.799 F5400
G1 X112.603 Y145.708 E478.9341 F2400
G0 X112.603 Y145.142 F5400
G1 X131.260 Y163.799 E480.0311 F2400
G0 X131.826 Y163.799 F5400
G1 X112.603 Y144.577 E481.1612 F2400
G0 X112.603 Y144.011 F5400
G1 X132.391 Y163.799 E482.3247 F2400
G0 X132.957 Y163.799 F5400
G1 X112.603 Y143.445 E483.5214 F2400
G0 X112.603 Y142.880 F5400
G1 X133.523 Y163.799 E484.7514 F2400
G0 X134.088 Y163.799 F5400
G1 X112.603 Y142.314 E486.0146 F2400
G0 X112.603 Y141.748 F5400
G1 X134.654 Y163.799 E487.3112 F2400
G0 X135.220 Y163.799 F5400
G1 X112.603 Y141.183 E488.6409 F2400
G0 X112.603 Y140.617 F5400
G1 X135.785 Y163.799 E490.0040 F2400
G0 X136.351 Y163.799 F5400
G1 X112.603 Y140.051 E491.4002 F2400
G0 X112.603 Y139.486 F5400
G1 X136.917 Y163.799 E492.8298 F2400
G0 X137.482 Y163.799 F5400
G1 X112.603 Y138.920 E494.2926 F2400
G0 X112.603 Y138.354 F5400
G1 X138.048 Y163.799 E495.7886 F2400
G0 X138.614 Y163.799 F5400
G1 X112.603 Y137.789 E497.3180 F2400
G0 X112.603 Y137.223 F5400
G1 X139.180 Y163.799 E498.8805 F2400
G0 X139.745 Y163.799 F5400
G1 X112.603 Y136.657 E500.4764 F2400
G0 X112.603 Y136.092 F5400
G1 X140.311 Y163.799 E502.1055 F2400
G0 X140.877 Y163.799 F5400
G1 X112.603 Y135.526 E503.7679 F2400
G0 X112.603 Y134.960 F5400
G1 X141.442 Y163.799 E505.4635 F2400
G0 X142.008 Y163.799 F5400
G1 X112.603 Y134.394 E507.1924 F2400
G0 X112.603 Y133.829 F5400
G1 X142.574 Y163.799 E508.9545 F2400
G0 X143.139 Y163.799 F5400
G1 X112.603 Y133.263 E510.7499 F2400
G0 X112.602 Y132.696 F5400
G1 X143.705 Y163.799 E512.5787 F2400
G0 X144.271 Y163.799 F5400
G1 X112.553 Y132.082 E514.4436 F2400
G0 X112.428 Y131.391 F5400
G1 X144.836 Y163.799 E516.3491 F2400
G0 X145.402 Y163.799 F5400
G1 X112.169 Y130.566 E518.3031 F2400
G0 X111.537 Y129.369 F5400
G1 X145.968 Y163.799 E520.3274 F2400
G0 X146.533 Y163.799 F5400
G1 X107.549 Y124.815 E522.6195 F2400
G0 X107.884 Y124.584 F5400
G1 X147.099 Y163.799 E524.9253 F2400
G0 X147.641 Y163.776 F5400
G1 X108.184 Y124.318 E527.2452 F2400
G0 X108.449 Y124.017 F5400
G1 X148.021 Y163.590 E529.5719 F2400
G0 X148.383 Y163.386 F5400
G1 X108.688 Y123.691 E531.9058 F2400
G0 X108.891 Y123.329 F5400
G1 X148.786 Y163.224 E534.2514 F2400
G0 X149.195 Y163.067 F5400
G1 X109.051 Y122.923 E536.6118 F2400
G0 X109.173 Y122.479 F5400
G1 X149.652 Y162.958 E538.9918 F2400
G0 X150.118 Y162.858 F5400
G1 X109.243 Y121.984 E541.3951 F2400
G0 X109.237 Y121.411 F5400
G1 X150.645 Y162.820 E543.8297 F2400
G0 X151.190 Y162.799 F5400
G1 X109.085 Y120.694 E546.3054 F2400
G0 X110.768 Y116.720 F5400
G1 X151.106 Y157.058 E548.6771 F2400
G0 X151.406 Y157.568 F5400
G0 X151.390 Y157.756
G0 X151.440 Y158.325
G0 X151.582 Y158.858
G0 X151.811 Y159.358
G0 X152.110 Y159.801
G0 X152.506 Y160.211
G0 X152.951 Y160.537
G0 X153.240 Y160.681
G0 X153.240 Y160.681
G0 X153.545 Y161.198
G0 X153.538 Y161.187
G1 X155.150 Y162.799 E548.7719 F2400
G0 X155.708 Y162.791 F5400
G1 X154.258 Y161.341 E548.8571 F2400
G0 X154.837 Y161.355 F5400
G1 X156.232 Y162.750 E548.9392 F2400
G0 X156.694 Y162.646 F5400
G1 X155.341 Y161.293 E549.0187 F2400
G0 X155.792 Y161.178 F5400
G1 X157.118 Y162.504 E549.0966 F2400
G0 X157.513 Y162.333 F5400
G1 X156.196 Y161.017 E549.1740 F2400
G0 X156.556 Y160.811 F5400
G1 X157.863 Y162.118 E549.2509 F2400
G0 X158.188 Y161.878 F5400
G1 X156.890 Y160.579 E549.3273 F2400
G0 X157.191 Y160.315 F5400
G1 X158.493 Y161.617 E549.4039 F2400
G0 X158.755 Y161.312 F5400
G1 X157.452 Y160.010 E549.4804 F2400
G0 X157.693 Y159.685 F5400
G1 X158.996 Y160.989 E549.5571 F2400
G0 X159.211 Y160.638 F5400
G1 X157.895 Y159.322 E549.6345 F2400
G0 X158.054 Y158.915 F5400
G1 X159.383 Y160.244 E549.7127 F2400
G0 X159.526 Y159.821 F5400
G1 X158.174 Y158.469 E549.7922 F2400
G0 X158.244 Y157.974 F5400
G1 X159.632 Y159.361 E549.8738 F2400
G0 X159.673 Y158.837 F5400
G1 X158.234 Y157.398 E549.9585 F2400
G0 X158.079 Y156.677 F5400
G1 X159.682 Y158.280 E550.0527 F2400
G0 X159.682 Y157.715 F5400
G1 X157.347 Y155.379 E550.1900 F2400
G0 X157.047 Y155.080 F5400
G1 X154.688 Y152.720 E550.3288 F2400
G0 X155.254 Y152.720 F5400
G1 X159.682 Y157.149 E550.5891 F2400
G0 X159.664 Y156.565 F5400
G1 X155.838 Y152.739 E550.8141 F2400
G0 X156.489 Y152.825 F5400
G1 X159.578 Y155.913 E550.9957 F2400
G0 X159.297 Y155.067 F5400
G1 X157.336 Y153.106 E551.1110 F2400
G0 X155.714 Y154.312 F5400
G1 X154.122 Y152.720 E551.2046 F2400
G0 X153.552 Y152.716 F5400
G1 X155.008 Y154.171 E551.2901 F2400
G0 X154.428 Y154.157 F5400
G1 X152.938 Y152.668 E551.3777 F2400
G0 X152.242 Y152.538 F5400
G1 X153.926 Y154.221 E551.4767 F2400
G0 X153.488 Y154.349 F5400
G1 X151.408 Y152.269 E551.5990 F2400
G0 X151.391 Y156.212 F5400
G1 X111.900 Y116.720 E553.9209 F2400
G0 X112.465 Y116.720 F5400
G1 X151.590 Y155.845 E556.2213 F2400
G0 X151.819 Y155.508 F5400
G1 X112.603 Y116.293 E558.5271 F2400
G0 X112.603 Y115.727 F5400
G1 X152.093 Y155.216 E560.8489 F2400
G0 X152.389 Y154.947 F5400
G1 X112.603 Y115.161 E563.1882 F2400
G0 X112.603 Y114.595 F5400
G1 X152.715 Y154.707 E565.5466 F2400
G0 X153.085 Y154.512 F5400
G1 X150.190 Y151.616 E565.7168 F2400
G0 X148.786 Y150.213 F5400
G1 X112.603 Y114.030 E567.8443 F2400
G0 X129.709 Y101.720 F5400
G1 X151.472 Y123.483 E569.1239 F2400
G0 X151.136 Y122.581 F5400
G1 X130.275 Y101.720 E570.3504 F2400
G0 X130.841 Y101.720 F5400
G1 X151.043 Y121.923 E571.5383 F2400
G0 X151.061 Y121.375 F5400
G1 X131.406 Y101.720 E572.6939 F2400
G0 X131.972 Y101.720 F5400
G1 X151.148 Y120.896 E573.8214 F2400
G0 X151.278 Y120.460 F5400
G1 X132.538 Y101.720 E574.9232 F2400
G0 X133.103 Y101.720 F5400
G1 X151.455 Y120.071 E576.0022 F2400
G0 X151.672 Y119.723 F5400
G1 X133.669 Y101.720 E577.0608 F2400
G0 X134.235 Y101.720 F5400
G1 X151.917 Y119.402 E578.1004 F2400
G0 X152.193 Y119.112 F5400
G1 X134.800 Y101.720 E579.1229 F2400
G0 X135.366 Y101.720 F5400
G1 X152.507 Y118.861 E580.1308 F2400
G0 X152.845 Y118.633 F5400
G1 X135.932 Y101.720 E581.1252 F2400
G0 X136.498 Y101.720 F5400
G1 X148.464 Y113.686 E581.8288 F2400
G0 X147.990 Y112.647 F5400
G1 X137.063 Y101.720 E582.4712 F2400
G0 X137.629 Y101.720 F5400
G1 X147.801 Y111.892 E583.0693 F2400
G0 X147.717 Y111.243 F5400
G1 X138.195 Y101.720 E583.6292 F2400
G0 X138.760 Y101.720 F5400
G1 X147.682 Y110.642 E584.1538 F2400
G0 X147.682 Y110.077 F5400
G1 X139.326 Y101.720 E584.6451 F2400
G0 X139.892 Y101.720 F5400
G1 X147.682 Y109.511 E585.1032 F2400
G0 X147.682 Y108.945 F5400
G1 X140.457 Y101.720 E585.5280 F2400
G0 X141.023 Y101.720 F5400
G1 X147.682 Y108.380 E585.9195 F2400
G0 X147.682 Y107.814 F5400
G1 X141.589 Y101.720 E586.2778 F2400
G0 X142.154 Y101.720 F5400
G1 X147.682 Y107.248 E586.6028 F2400
G0 X147.682 Y106.683 F5400
G1 X142.720 Y101.720 E586.8946 F2400
G0 X143.286 Y101.720 F5400
G1 X147.682 Y106.117 E587.1530 F2400
G0 X147.682 Y105.551 F5400
G1 X143.851 Y101.720 E587.3783 F2400
G0 X144.417 Y101.720 F5400
G1 X147.682 Y104.985 E587.5702 F2400
G0 X147.682 Y104.420 F5400
G1 X144.983 Y101.720 E587.7290 F2400
G0 X145.548 Y101.720 F5400
G1 X147.682 Y103.854 E587.8545 F2400
G0 X147.682 Y103.288 F5400
G1 X146.114 Y101.720 E587.9467 F2400
G0 X146.680 Y101.720 F5400
G1 X147.682 Y102.723 E588.0056 F2400
G0 X147.682 Y102.157 F5400
G1 X147.246 Y101.720 E588.0313 F2400
G0 X148.042 Y104.985 F5400
G0 X148.042 Y110.790
G0 X148.109 Y111.631
G0 X148.314 Y112.488
G0 X148.651 Y113.303
G0 X149.111 Y114.053
G0 X149.681 Y114.721
G0 X150.350 Y115.292
G0 X150.595 Y115.443
G0 X150.595 Y115.443
G0 X150.720 Y115.952
G0 X150.717 Y115.939
G1 X153.221 Y118.444 E588.1786 F2400
G0 X153.644 Y118.301 F5400
G1 X151.756 Y116.413 E588.2895 F2400
G0 X152.511 Y116.602 F5400
G1 X154.106 Y118.198 E588.3833 F2400
G0 X154.631 Y118.156 F5400
G1 X153.160 Y116.685 E588.4698 F2400
G0 X153.760 Y116.720 F5400
G1 X155.248 Y118.208 E588.5573 F2400
G0 X155.457 Y116.720 F5400
G1 X159.682 Y120.945 E588.8057 F2400
G0 X159.647 Y120.344 F5400
G1 X156.059 Y116.756 E589.0166 F2400
G0 X156.757 Y116.889 F5400
G1 X159.513 Y119.645 E589.1787 F2400
G0 X159.046 Y118.612 F5400
G1 X157.791 Y117.357 E589.2525 F2400
; ------------------------------------
; Layer #1
; ------------------------------------
M106 S0 ;turn off fan
G92 E0 ;reset extr
G0 F3000 E-1.0000
G0 F1200 Z0.500
G0 X155.667 Y115.704 F7200
G0 X149.295 Y110.745
G0 X147.172 Y109.092
G0 X134.428 Y99.173
G0 X132.305 Y97.520
G0 F3000 E0.0000
;segType:HShell
G1 X151.221 Y78.604 E1.1122 F3600
G0 X151.376 Y79.014 F7200
G1 X147.870 Y82.520 E1.3183 F3600
;segType:Perimeter
G0 X148.442 Y82.540 F7200
G1 X148.442 Y83.340 E1.3516 F2159
G1 X148.442 Y97.707 E1.9489
G1 X148.377 Y97.978 E1.9605
G1 X148.213 Y98.171 E1.9710
G1 X147.964 Y98.274 E1.9822
G1 X147.885 Y98.280 E1.9855
G1 X112.416 Y98.280 E3.4601
G1 X112.146 Y98.215 E3.4717
G1 X111.953 Y98.050 E3.4823
G1 X111.865 Y97.838 E3.4918
G1 X111.843 Y97.677 E3.4986
G1 X111.843 Y88.472 E3.8813
G1 X111.782 Y87.682 E3.9142
G1 X111.591 Y86.882 E3.9484
G1 X111.277 Y86.120 E3.9827
G1 X110.850 Y85.424 E4.0166
G1 X110.321 Y84.803 E4.0506
G1 X109.700 Y84.273 E4.0845
G1 X109.004 Y83.846 E4.1184
G1 X108.250 Y83.534 E4.1524
G1 X107.456 Y83.344 E4.1863
G1 X106.651 Y83.280 E4.2199
G1 X104.651 Y83.280 E4.3030
G1 X103.892 Y83.221 E4.3347
G1 X103.160 Y83.045 E4.3660
G1 X102.464 Y82.756 E4.3973
G1 X101.822 Y82.363 E4.4286
G1 X101.249 Y81.874 E4.4599
G1 X100.760 Y81.301 E4.4912
G1 X100.367 Y80.659 E4.5225
G1 X100.079 Y79.964 E4.5538
G1 X99.903 Y79.231 E4.5851
G1 X99.843 Y78.473 E4.6168
G1 X99.843 Y76.489 E4.6993
G1 X99.903 Y75.730 E4.7309
G1 X100.079 Y74.998 E4.7622
G1 X100.367 Y74.302 E4.7935
G1 X100.760 Y73.660 E4.8248
G1 X101.249 Y73.087 E4.8561
G1 X101.822 Y72.598 E4.8874
G1 X102.464 Y72.205 E4.9187
G1 X103.160 Y71.917 E4.9500
G1 X103.892 Y71.741 E4.9814
G1 X104.651 Y71.681 E5.0130
G1 X106.651 Y71.681 E5.0962
G1 X107.456 Y71.618 E5.1298
G1 X108.250 Y71.427 E5.1637
G1 X109.004 Y71.115 E5.1976
G1 X109.700 Y70.688 E5.2315
G1 X110.321 Y70.158 E5.2655
G1 X110.850 Y69.538 E5.2994
G1 X111.279 Y68.836 E5.3336
G1 X111.591 Y68.080 E5.3676
G1 X111.780 Y67.294 E5.4012
G1 X111.843 Y66.490 E5.4348
G1 X111.843 Y52.472 E6.0175
G1 X111.782 Y51.682 E6.0505
G1 X111.589 Y50.874 E6.0850
G1 X111.277 Y50.120 E6.1190
G1 X110.850 Y49.424 E6.1529
G1 X110.321 Y48.803 E6.1868
G1 X109.700 Y48.273 E6.2208
G1 X109.004 Y47.846 E6.2547
G1 X108.250 Y47.534 E6.2886
G1 X107.456 Y47.344 E6.3225
G1 X106.651 Y47.280 E6.3561
G1 X104.651 Y47.280 E6.4393
G1 X103.892 Y47.221 E6.4709
G1 X103.160 Y47.045 E6.5023
G1 X102.464 Y46.757 E6.5335
G1 X101.822 Y46.363 E6.5649
G1 X101.249 Y45.874 E6.5962
G1 X100.760 Y45.301 E6.6275
G1 X100.367 Y44.659 E6.6588
G1 X100.079 Y43.964 E6.6901
G1 X99.903 Y43.232 E6.7214
G1 X99.843 Y42.473 E6.7530
G1 X99.843 Y40.488 E6.8355
G1 X99.903 Y39.730 E6.8672
G1 X100.079 Y38.998 E6.8985
G1 X100.367 Y38.302 E6.9298
G1 X100.760 Y37.660 E6.9611
G1 X101.249 Y37.087 E6.9924
G1 X101.822 Y36.598 E7.0237
G1 X102.464 Y36.205 E7.0550
G1 X103.160 Y35.916 E7.0863
G1 X103.892 Y35.741 E7.1176
G1 X104.651 Y35.681 E7.1493
G1 X109.333 Y35.681 E7.3440
G1 X110.085 Y35.626 E7.3753
G1 X110.846 Y35.454 E7.4077
G1 X111.540 Y35.187 E7.4386
G1 X112.270 Y34.774 E7.4735
G1 X112.526 Y34.691 E7.4847
G1 X112.650 Y34.681 E7.4899
G1 X147.627 Y34.681 E8.9440
G1 X147.889 Y34.723 E8.9551
G1 X148.111 Y34.836 E8.9655
G1 X148.295 Y35.020 E8.9763
G1 X148.539 Y35.396 E8.9949
G1 X148.914 Y35.633 E9.0133
G1 X149.208 Y35.681 E9.0257
G1 X155.635 Y35.681 E9.2929
G1 X156.394 Y35.741 E9.3246
G1 X157.126 Y35.917 E9.3559
G1 X157.821 Y36.205 E9.3872
G1 X158.464 Y36.598 E9.4185
G1 X159.036 Y37.087 E9.4498
G1 X159.525 Y37.660 E9.4811
G1 X159.919 Y38.302 E9.5124
G1 X160.207 Y38.998 E9.5437
G1 X160.383 Y39.730 E9.5750
G1 X160.442 Y40.488 E9.6067
G1 X160.442 Y42.473 E9.6892
G1 X160.383 Y43.231 E9.7208
G1 X160.207 Y43.964 E9.7521
G1 X159.919 Y44.659 E9.7834
G1 X159.525 Y45.301 E9.8147
G1 X159.036 Y45.874 E9.8460
G1 X158.464 Y46.363 E9.8773
G1 X157.821 Y46.756 E9.9086
G1 X157.126 Y47.045 E9.9399
G1 X156.394 Y47.221 E9.9713
G1 X155.635 Y47.280 E10.0029
G1 X153.635 Y47.280 E10.0860
G1 X152.829 Y47.344 E10.1197
G1 X152.036 Y47.534 E10.1536
G1 X151.282 Y47.846 E10.1875
G1 X150.586 Y48.273 E10.2214
G1 X149.965 Y48.803 E10.2554
G1 X149.435 Y49.424 E10.2893
G1 X149.006 Y50.125 E10.3235
G1 X148.694 Y50.881 E10.3575
G1 X148.506 Y51.667 E10.3911
G1 X148.442 Y52.472 E10.4247
G1 X148.442 Y66.489 E11.0074
G1 X148.504 Y67.279 E11.0404
G1 X148.695 Y68.080 E11.0746
G1 X149.009 Y68.842 E11.1089
G1 X149.435 Y69.538 E11.1428
G1 X149.965 Y70.158 E11.1767
G1 X150.586 Y70.688 E11.2107
G1 X151.281 Y71.115 E11.2446
G1 X152.036 Y71.427 E11.2785
G1 X152.829 Y71.618 E11.3124
G1 X153.635 Y71.681 E11.3461
G1 X155.635 Y71.681 E11.4292
G1 X156.393 Y71.741 E11.4608
G1 X157.126 Y71.917 E11.4922
G1 X157.821 Y72.205 E11.5235
G1 X158.464 Y72.598 E11.5548
G1 X159.036 Y73.087 E11.5861
G1 X159.525 Y73.660 E11.6174
G1 X159.919 Y74.302 E11.6487
G1 X160.207 Y74.998 E11.6800
G1 X160.383 Y75.730 E11.7113
G1 X160.442 Y76.489 E11.7429
G1 X160.442 Y78.473 E11.8254
G1 X160.383 Y79.231 E11.8571
G1 X160.207 Y79.964 E11.8884
G1 X159.919 Y80.659 E11.9197
G1 X159.525 Y81.301 E11.9510
G1 X159.036 Y81.874 E11.9823
G1 X158.464 Y82.363 E12.0136
G1 X157.821 Y82.756 E12.0449
G1 X157.126 Y83.045 E12.0762
G1 X156.393 Y83.221 E12.1075
G1 X155.635 Y83.280 E12.1392
G1 X148.502 Y83.280 E12.4357
G0 X147.702 Y83.280 F7200
;segType:Loop
G0 X148.042 Y84.380
G1 X148.042 Y97.677 E12.9885 F3600
G1 X147.819 Y97.880 E13.0011
G1 X112.464 Y97.880 E14.4710
G1 X112.265 Y97.760 E14.4806
G1 X112.243 Y97.563 E14.4889
G1 X112.243 Y88.456 E14.8675
G1 X112.178 Y87.620 E14.9024
G1 X111.973 Y86.758 E14.9392
G1 X111.635 Y85.938 E14.9761
G1 X111.175 Y85.188 E15.0127
G1 X110.604 Y84.519 E15.0492
G1 X109.936 Y83.948 E15.0858
G1 X109.186 Y83.489 E15.1223
G1 X108.374 Y83.153 E15.1589
G1 X107.519 Y82.947 E15.1954
G1 X106.666 Y82.880 E15.2310
G1 X104.666 Y82.880 E15.3141
G1 X103.955 Y82.824 E15.3438
G1 X103.284 Y82.663 E15.3725
G1 X102.646 Y82.399 E15.4012
G1 X102.058 Y82.038 E15.4299
G1 X101.533 Y81.590 E15.4586
G1 X101.085 Y81.065 E15.4873
G1 X100.724 Y80.477 E15.5159
G1 X100.460 Y79.840 E15.5446
G1 X100.299 Y79.169 E15.5733
G1 X100.243 Y78.457 E15.6030
G1 X100.243 Y76.504 E15.6842
G1 X100.299 Y75.793 E15.7139
G1 X100.460 Y75.122 E15.7426
G1 X100.724 Y74.484 E15.7712
G1 X101.085 Y73.896 E15.7999
G1 X101.533 Y73.371 E15.8286
G1 X102.058 Y72.923 E15.8573
G1 X102.646 Y72.562 E15.8860
G1 X103.284 Y72.298 E15.9147
G1 X103.955 Y72.137 E15.9434
G1 X104.666 Y72.081 E15.9731
G1 X106.666 Y72.081 E16.0562
G1 X107.519 Y72.014 E16.0918
G1 X108.374 Y71.809 E16.1283
G1 X109.186 Y71.472 E16.1649
G1 X109.936 Y71.013 E16.2014
G1 X110.604 Y70.442 E16.2380
G1 X111.175 Y69.773 E16.2745
G1 X111.637 Y69.018 E16.3113
G1 X111.973 Y68.204 E16.3479
G1 X112.176 Y67.357 E16.3842
G1 X112.243 Y66.505 E16.4197
G1 X112.243 Y52.456 E17.0038
G1 X112.178 Y51.620 E17.0387
G1 X111.970 Y50.750 E17.0758
G1 X111.634 Y49.938 E17.1124
G1 X111.175 Y49.188 E17.1489
G1 X110.604 Y48.519 E17.1855
G1 X109.936 Y47.948 E17.2220
G1 X109.186 Y47.489 E17.2586
G1 X108.374 Y47.153 E17.2951
G1 X107.519 Y46.947 E17.3317
G1 X106.666 Y46.880 E17.3672
G1 X104.666 Y46.880 E17.4504
G1 X103.955 Y46.824 E17.4801
G1 X103.284 Y46.663 E17.5088
G1 X102.646 Y46.399 E17.5374
G1 X102.058 Y46.038 E17.5661
G1 X101.533 Y45.590 E17.5948
G1 X101.085 Y45.066 E17.6235
G1 X100.724 Y44.477 E17.6522
G1 X100.460 Y43.840 E17.6809
G1 X100.299 Y43.169 E17.7096
G1 X100.243 Y42.457 E17.7393
G1 X100.243 Y40.504 E17.8205
G1 X100.299 Y39.793 E17.8501
G1 X100.460 Y39.122 E17.8788
G1 X100.724 Y38.484 E17.9075
G1 X101.085 Y37.896 E17.9362
G1 X101.533 Y37.371 E17.9649
G1 X102.058 Y36.923 E17.9936
G1 X102.646 Y36.562 E18.0223
G1 X103.284 Y36.298 E18.0510
G1 X103.955 Y36.137 E18.0796
G1 X104.666 Y36.081 E18.1093
G1 X109.348 Y36.081 E18.3040
G1 X110.144 Y36.023 E18.3372
G1 X110.963 Y35.838 E18.3720
G1 X111.712 Y35.550 E18.4054
G1 X112.418 Y35.150 E18.4392
G1 X112.699 Y35.081 E18.4512
G1 X147.596 Y35.081 E19.9020
G1 X147.872 Y35.162 E19.9140
G1 X147.982 Y35.273 E19.9205
G1 X148.251 Y35.687 E19.9410
G1 X148.769 Y36.015 E19.9665
G1 X149.175 Y36.081 E19.9836
G1 X155.619 Y36.081 E20.2515
G1 X156.331 Y36.137 E20.2812
G1 X157.002 Y36.298 E20.3099
G1 X157.639 Y36.562 E20.3386
G1 X158.228 Y36.923 E20.3673
G1 X158.753 Y37.371 E20.3960
G1 X159.201 Y37.896 E20.4246
G1 X159.561 Y38.484 E20.4533
G1 X159.825 Y39.122 E20.4820
G1 X159.986 Y39.793 E20.5107
G1 X160.042 Y40.504 E20.5404
G1 X160.042 Y42.457 E20.6216
G1 X159.986 Y43.169 E20.6513
G1 X159.825 Y43.840 E20.6799
G1 X159.561 Y44.477 E20.7086
G1 X159.201 Y45.066 E20.7373
G1 X158.752 Y45.590 E20.7660
G1 X158.228 Y46.038 E20.7947
G1 X157.639 Y46.399 E20.8234
G1 X157.002 Y46.663 E20.8521
G1 X156.331 Y46.824 E20.8808
G1 X155.619 Y46.880 E20.9104
G1 X153.619 Y46.880 E20.9936
G1 X152.766 Y46.947 E21.0292
G1 X151.912 Y47.153 E21.0657
G1 X151.099 Y47.489 E21.1023
G1 X150.350 Y47.948 E21.1388
G1 X149.681 Y48.519 E21.1754
G1 X149.110 Y49.188 E21.2119
G1 X148.648 Y49.943 E21.2487
G1 X148.313 Y50.757 E21.2853
G1 X148.110 Y51.605 E21.3216
G1 X148.042 Y52.456 E21.3571
G1 X148.042 Y66.505 E21.9412
G1 X148.107 Y67.342 E21.9760
G1 X148.313 Y68.203 E22.0129
G1 X148.651 Y69.024 E22.0498
G1 X149.110 Y69.774 E22.0863
G1 X149.681 Y70.442 E22.1229
G1 X150.350 Y71.013 E22.1594
G1 X151.099 Y71.472 E22.1960
G1 X151.912 Y71.809 E22.2325
G1 X152.766 Y72.014 E22.2691
G1 X153.619 Y72.081 E22.3046
G1 X155.619 Y72.081 E22.3878
G1 X156.330 Y72.137 E22.4174
G1 X157.002 Y72.298 E22.4462
G1 X157.639 Y72.562 E22.4748
G1 X158.228 Y72.923 E22.5035
G1 X158.752 Y73.371 E22.5322
G1 X159.201 Y73.896 E22.5609
G1 X159.561 Y74.484 E22.5896
G1 X159.825 Y75.122 E22.6183
G1 X159.986 Y75.793 E22.6470
G1 X160.042 Y76.504 E22.6767
G1 X160.042 Y78.457 E22.7578
G1 X159.986 Y79.169 E22.7875
G1 X159.825 Y79.840 E22.8162
G1 X159.561 Y80.477 E22.8449
G1 X159.201 Y81.066 E22.8736
G1 X158.752 Y81.590 E22.9023
G1 X158.228 Y82.038 E22.9310
G1 X157.639 Y82.399 E22.9597
G1 X157.002 Y82.663 E22.9883
G1 X156.331 Y82.824 E23.0170
G1 X155.619 Y82.880 E23.0467
G1 X148.042 Y82.880 E23.3617
G1 X148.042 Y84.180 E23.4158
G0 X148.042 Y84.180 F7200
G0 X148.042 Y82.880
G0 X149.103 Y82.880
G0 X149.103 Y82.880
G0 X151.986 Y79.348
G0 X151.986 Y79.348
G0 X151.940 Y79.290
G0 X151.673 Y78.807
G0 X151.492 Y78.287
G0 X151.408 Y77.794
G0 X151.403 Y77.194
G0 X151.499 Y76.647
G0 X151.685 Y76.128
G0 X151.956 Y75.647
G0 X152.305 Y75.220
G0 X152.721 Y74.857
G0 X153.192 Y74.570
G0 X153.704 Y74.367
G0 X154.244 Y74.253
G0 X154.795 Y74.232
G0 X155.342 Y74.304
G0 X155.869 Y74.468
G0 X155.939 Y74.504
G0 X155.939 Y74.504
G0 X156.180 Y74.208
;segType:HShell
G0 X156.172 Y74.219
G1 X157.495 Y72.896 E23.4935 F3600
G0 X157.845 Y73.111 F7200
G1 X156.547 Y74.410 E23.5699 F3600
G0 X156.871 Y74.651 F7200
G1 X158.173 Y73.349 E23.6464 F3600
G0 X158.478 Y73.610 F7200
G1 X157.172 Y74.915 E23.7232 F3600
G0 X157.448 Y75.205 F7200
G1 X158.741 Y73.912 E23.7992 F3600
