; GCode generated by CraftWare

G28 X0 Y0
G28 Z0


M104 S215 ;set head temp (no wait)
M190 S60 ;set bed temp (wait)
M109 S215 ;set head temp (wait)
; ------------------------------------
; Layer #0
; ------------------------------------
M106 S0 ;turn off fan
G21 ; mm
G90 ; abs
G92 E0 ;reset extr
G0 F1200 Z0.250
;segType:Skirt
G0 F3000 E-1.0000
G0 X92.287 Y171.422 F5400
G0 F3000 E0.0000
G1 X91.627 Y171.027 E0.0320 F2400
G1 X87.934 Y167.333 E0.2491
G1 X87.736 Y167.003 E0.2651
G1 X87.604 Y166.608 E0.2825
G1 X87.604 Y121.231 E2.1690
G1 X87.736 Y121.099 E2.1768
G1 X87.868 Y120.176 E2.2156
G1 X88.263 Y119.516 E2.2475
G1 X88.395 Y119.121 E2.2649
G1 X88.659 Y118.857 E2.2804
G1 X88.791 Y118.461 E2.2977
G1 X89.319 Y117.933 E2.3287
G1 X89.517 Y117.603 E2.3448
G1 X91.627 Y115.493 E2.4688
G1 X91.825 Y115.163 E2.4848
G1 X89.714 Y113.053 E2.6089
G1 X89.517 Y112.723 E2.6249
G1 X89.253 Y112.459 E2.6404
G1 X89.055 Y112.129 E2.6564
G1 X88.791 Y111.866 E2.6719
G1 X88.659 Y111.470 E2.6893
G1 X88.263 Y110.810 E2.7212
G1 X88.131 Y110.415 E2.7386
G1 X88.131 Y110.151 E2.7495
G1 X88.000 Y110.019 E2.7573
G1 X87.868 Y109.095 E2.7961
G1 X87.868 Y63.983 E4.6716
G1 X88.263 Y63.323 E4.7036
G1 X91.693 Y59.894 E4.9053
G1 X92.023 Y59.696 E4.9213
G1 X92.287 Y59.432 E4.9368
G1 X92.683 Y59.300 E4.9541
G1 X97.959 Y59.300 E5.1735
G1 X98.618 Y59.696 E5.2055
G1 X102.312 Y63.389 E5.4226
G1 X102.510 Y63.719 E5.4386
G1 X102.642 Y64.115 E5.4560
G1 X102.642 Y103.687 E7.1012
G1 X103.103 Y103.753 E7.1206
G1 X128.166 Y103.753 E8.1626
G1 X128.232 Y103.292 E8.1819
G1 X128.232 Y78.229 E9.2239
G1 X127.770 Y78.163 E9.2433
G1 X126.715 Y78.163 E9.2872
G1 X126.253 Y78.097 E9.3066
G1 X125.923 Y77.899 E9.3225
G1 X122.230 Y74.206 E9.5397
G1 X121.900 Y73.744 E9.5633
G1 X121.768 Y72.821 E9.6021
G1 X121.768 Y63.851 E9.9750
G1 X121.900 Y63.455 E9.9924
G1 X121.900 Y63.191 E10.0033
G1 X122.098 Y62.861 E10.0193
G1 X126.055 Y58.904 E10.2520
G1 X126.847 Y58.640 E10.2867
G1 X137.927 Y58.640 E10.7473
G1 X138.019 Y58.671 E10.7514
G0 F3000 E9.7514
G0 X155.513 Y119.078 F5400
G0 F3000 E10.7514
;segType:HShell
G1 X154.539 Y118.105 E10.8086 F2400
G0 X153.973 Y118.105 F5400
G1 X155.513 Y119.644 E10.8992 F2400
G0 X155.513 Y120.210 F5400
G1 X153.408 Y118.105 E11.0229 F2400
G0 X152.842 Y118.105 F5400
G1 X155.513 Y120.775 E11.1800 F2400
G0 X156.006 Y120.933 F5400
;segType:Perimeter
G1 X156.213 Y121.706 E11.2132 F1439
G1 X139.665 Y121.706 E11.9012
G1 X139.340 Y121.732 E11.9148
G1 X139.022 Y121.809 E11.9284
G1 X138.717 Y121.935 E11.9421
G1 X138.433 Y122.110 E11.9560
G1 X138.184 Y122.322 E11.9696
G1 X137.967 Y122.577 E11.9835
G1 X137.797 Y122.855 E11.9971
G1 X137.670 Y123.161 E12.0108
G1 X137.593 Y123.482 E12.0245
G1 X137.568 Y123.803 E12.0379
G1 X137.568 Y165.680 E13.7790
G1 X137.513 Y166.026 E13.7935
G1 X137.361 Y166.323 E13.8074
G1 X137.125 Y166.559 E13.8213
G1 X136.828 Y166.711 E13.8352
G1 X136.485 Y166.766 E13.8496
G1 X127.941 Y166.766 E14.2048
G1 X127.596 Y166.711 E14.2193
G1 X127.298 Y166.559 E14.2332
G1 X127.062 Y166.323 E14.2471
G1 X126.911 Y166.026 E14.2610
G1 X126.856 Y165.680 E14.2755
G1 X126.856 Y158.752 E14.5636
G1 X126.911 Y158.407 E14.5781
G1 X127.062 Y158.109 E14.5920
G1 X127.298 Y157.873 E14.6059
G1 X127.596 Y157.722 E14.6198
G1 X127.941 Y157.667 E14.6343
G1 X131.108 Y157.667 E14.7660
G1 X131.430 Y157.642 E14.7794
G1 X131.751 Y157.564 E14.7931
G1 X132.057 Y157.438 E14.8069
G1 X132.339 Y157.265 E14.8206
G1 X132.592 Y157.047 E14.8345
G1 X132.804 Y156.799 E14.8481
G1 X132.977 Y156.517 E14.8618
G1 X133.103 Y156.212 E14.8756
G1 X133.181 Y155.891 E14.8893
G1 X133.206 Y155.569 E14.9027
G1 X133.206 Y123.803 E16.2234
G1 X133.181 Y123.482 E16.2368
G1 X133.103 Y123.161 E16.2505
G1 X132.976 Y122.853 E16.2644
G1 X132.804 Y122.573 E16.2780
G1 X132.589 Y122.322 E16.2918
G1 X132.338 Y122.107 E16.3055
G1 X132.056 Y121.935 E16.3192
G1 X131.747 Y121.808 E16.3331
G1 X131.430 Y121.731 E16.3467
G1 X131.108 Y121.706 E16.3601
G1 X99.343 Y121.706 E17.6808
G1 X99.021 Y121.731 E17.6942
G1 X98.700 Y121.808 E17.7079
G1 X98.395 Y121.935 E17.7217
G1 X98.113 Y122.108 E17.7354
G1 X97.859 Y122.325 E17.7493
G1 X97.647 Y122.573 E17.7629
G1 X97.474 Y122.855 E17.7766
G1 X97.348 Y123.161 E17.7904
G1 X97.271 Y123.482 E17.8041
G1 X97.245 Y123.803 E17.8175
G1 X97.245 Y165.045 E19.5321
G1 X97.190 Y165.391 E19.5467
G1 X97.039 Y165.688 E19.5606
G1 X96.803 Y165.924 E19.5744
G1 X96.505 Y166.076 E19.5883
G1 X96.160 Y166.131 E19.6029
G1 X93.969 Y166.131 E19.6940
G1 X93.623 Y166.076 E19.7085
G1 X93.326 Y165.924 E19.7224
G1 X93.090 Y165.688 E19.7363
G1 X92.938 Y165.391 E19.7501
G1 X92.883 Y165.045 E19.7647
G1 X92.883 Y123.502 E21.4919
G1 X92.960 Y122.532 E21.5323
G1 X93.185 Y121.594 E21.5724
G1 X93.554 Y120.702 E21.6125
G1 X94.058 Y119.880 E21.6526
G1 X94.685 Y119.146 E21.6928
G1 X95.419 Y118.519 E21.7329
G1 X96.242 Y118.015 E21.7730
G1 X97.133 Y117.646 E21.8131
G1 X98.071 Y117.421 E21.8532
G1 X99.041 Y117.344 E21.8937
G1 X156.273 Y117.344 E24.2731
G1 X156.273 Y121.646 E24.4519
G0 X155.500 Y121.439 F5400
G0 X155.173 Y121.306
;segType:Loop
G1 X139.649 Y121.306 E25.0974 F2400
G1 X139.277 Y121.336 E25.1129
G1 X138.899 Y121.427 E25.1291
G1 X138.535 Y121.577 E25.1454
G1 X138.197 Y121.785 E25.1619
G1 X137.900 Y122.038 E25.1781
G1 X137.642 Y122.342 E25.1947
G1 X137.439 Y122.673 E25.2109
G1 X137.289 Y123.037 E25.2272
G1 X137.197 Y123.419 E25.2436
G1 X137.168 Y123.788 E25.2589
G1 X137.168 Y165.649 E26.9993
G1 X137.128 Y165.900 E27.0099
G1 X137.034 Y166.085 E27.0185
G1 X136.887 Y166.232 E27.0271
G1 X136.703 Y166.326 E27.0358
G1 X136.453 Y166.366 E27.0463
G1 X127.973 Y166.366 E27.3988
G1 X127.721 Y166.326 E27.4094
G1 X127.536 Y166.232 E27.4180
G1 X127.390 Y166.085 E27.4267
G1 X127.296 Y165.901 E27.4353
G1 X127.256 Y165.649 E27.4459
G1 X127.256 Y158.784 E27.7313
G1 X127.296 Y158.532 E27.7419
G1 X127.390 Y158.347 E27.7505
G1 X127.536 Y158.201 E27.7591
G1 X127.721 Y158.107 E27.7677
G1 X127.973 Y158.067 E27.7783
G1 X131.124 Y158.067 E27.9093
G1 X131.493 Y158.038 E27.9247
G1 X131.875 Y157.946 E27.9411
G1 X132.239 Y157.795 E27.9574
G1 X132.575 Y157.589 E27.9738
G1 X132.876 Y157.331 E27.9903
G1 X133.129 Y157.035 E28.0065
G1 X133.335 Y156.699 E28.0229
G1 X133.485 Y156.336 E28.0392
G1 X133.577 Y155.954 E28.0556
G1 X133.606 Y155.585 E28.0709
G1 X133.606 Y123.788 E29.3929
G1 X133.577 Y123.419 E29.4083
G1 X133.485 Y123.037 E29.4246
G1 X133.333 Y122.671 E29.4411
G1 X133.129 Y122.337 E29.4574
G1 X132.873 Y122.038 E29.4738
G1 X132.574 Y121.783 E29.4901
G1 X132.238 Y121.577 E29.5065
G1 X131.871 Y121.426 E29.5230
G1 X131.493 Y121.335 E29.5391
G1 X131.124 Y121.306 E29.5545
G1 X99.327 Y121.306 E30.8765
G1 X98.958 Y121.335 E30.8919
G1 X98.576 Y121.427 E30.9082
G1 X98.212 Y121.577 E30.9246
G1 X97.876 Y121.783 E30.9410
G1 X97.575 Y122.042 E30.9575
G1 X97.322 Y122.338 E30.9736
G1 X97.117 Y122.673 E30.9900
G1 X96.966 Y123.037 E31.0064
G1 X96.874 Y123.419 E31.0227
G1 X96.845 Y123.788 E31.0381
G1 X96.845 Y165.014 E32.7521
G1 X96.805 Y165.265 E32.7627
G1 X96.711 Y165.450 E32.7713
G1 X96.565 Y165.597 E32.7799
G1 X96.380 Y165.691 E32.7885
G1 X96.128 Y165.731 E32.7991
G1 X94.001 Y165.731 E32.8876
G1 X93.749 Y165.691 E32.8982
G1 X93.564 Y165.597 E32.9068
G1 X93.418 Y165.450 E32.9154
G1 X93.323 Y165.265 E32.9240
G1 X93.283 Y165.014 E32.9346
G1 X93.283 Y123.517 E34.6598
G1 X93.356 Y122.595 E34.6983
G1 X93.567 Y121.718 E34.7358
G1 X93.912 Y120.884 E34.7733
G1 X94.383 Y120.116 E34.8108
G1 X94.969 Y119.430 E34.8483
G1 X95.655 Y118.844 E34.8858
G1 X96.424 Y118.373 E34.9233
G1 X97.257 Y118.027 E34.9608
G1 X98.134 Y117.817 E34.9983
G1 X99.057 Y117.744 E35.0368
G1 X155.873 Y117.744 E37.3989
G1 X155.873 Y121.306 E37.5470
G1 X155.373 Y121.306 E37.5678
G0 X155.513 Y118.513 F5400
;segType:HShell
G1 X155.105 Y118.105 E37.5918 F2400
G0 F3000 E36.5918
G0 X155.103 Y117.744 F5400
G0 X155.119 Y121.306
G0 X155.118 Y120.946
G0 F3000 E37.5918
G1 X152.276 Y118.105 E37.7588 F2400
G0 X151.711 Y118.105 F5400
G1 X154.552 Y120.946 E37.9259 F2400
G0 X153.986 Y120.946 F5400
G1 X151.145 Y118.105 E38.0930 F2400
G0 X150.579 Y118.105 F5400
G1 X153.420 Y120.946 E38.2600 F2400
G0 X152.855 Y120.946 F5400
G1 X150.013 Y118.105 E38.4271 F2400
G0 X149.448 Y118.105 F5400
G1 X152.289 Y120.946 E38.5941 F2400
G0 X151.723 Y120.946 F5400
G1 X148.882 Y118.105 E38.7612 F2400
G0 X148.316 Y118.105 F5400
G1 X151.158 Y120.946 E38.9282 F2400
G0 X150.592 Y120.946 F5400
G1 X147.751 Y118.105 E39.0953 F2400
G0 X147.185 Y118.105 F5400
G1 X150.026 Y120.946 E39.2624 F2400
G0 X149.461 Y120.946 F5400
G1 X146.619 Y118.105 E39.4294 F2400
G0 X146.054 Y118.105 F5400
G1 X148.895 Y120.946 E39.5965 F2400
G0 X148.329 Y120.946 F5400
G1 X145.488 Y118.105 E39.7635 F2400
G0 X144.922 Y118.105 F5400
G1 X147.764 Y120.946 E39.9306 F2400
G0 X147.198 Y120.946 F5400
G1 X144.357 Y118.105 E40.0976 F2400
G0 X143.791 Y118.105 F5400
G1 X146.632 Y120.946 E40.2647 F2400
G0 X146.067 Y120.946 F5400
G1 X143.225 Y118.105 E40.4318 F2400
G0 X142.660 Y118.105 F5400
G1 X145.501 Y120.946 E40.5988 F2400
G0 X144.935 Y120.946 F5400
G1 X142.094 Y118.105 E40.7659 F2400
G0 X141.528 Y118.105 F5400
G1 X144.369 Y120.946 E40.9329 F2400
G0 X143.804 Y120.946 F5400
G1 X140.963 Y118.105 E41.1000 F2400
G0 X140.397 Y118.105 F5400
G1 X143.238 Y120.946 E41.2670 F2400
G0 X142.672 Y120.946 F5400
G1 X139.831 Y118.105 E41.4341 F2400
G0 X139.265 Y118.105 F5400
G1 X142.107 Y120.946 E41.6012 F2400
G0 X141.541 Y120.946 F5400
G1 X138.700 Y118.105 E41.7682 F2400
G0 X138.134 Y118.105 F5400
G1 X140.975 Y120.946 E41.9353 F2400
G0 X140.410 Y120.946 F5400
G1 X137.568 Y118.104 E42.1023 F2400
G0 X137.003 Y118.104 F5400
G1 X139.844 Y120.946 E42.2694 F2400
G0 X139.305 Y120.973 F5400
G1 X136.437 Y118.104 E42.4380 F2400
G0 X135.871 Y118.104 F5400
G1 X138.838 Y121.071 E42.6124 F2400
G0 X138.432 Y121.230 F5400
G1 X135.306 Y118.104 E42.7962 F2400
G0 X134.740 Y118.104 F5400
G1 X138.074 Y121.438 E42.9922 F2400
G0 X137.757 Y121.687 F5400
G1 X134.174 Y118.104 E43.2029 F2400
G0 X133.609 Y118.104 F5400
G1 X137.480 Y121.976 E43.4305 F2400
G0 X137.243 Y122.304 F5400
G1 X133.043 Y118.104 E43.6775 F2400
G0 X132.477 Y118.104 F5400
G1 X137.048 Y122.676 E43.9462 F2400
G0 X136.904 Y123.097 F5400
G1 X131.912 Y118.104 E44.2398 F2400
G0 X131.346 Y118.105 F5400
G1 X136.823 Y123.581 E44.5618 F2400
G0 X136.808 Y124.132 F5400
G1 X130.780 Y118.104 E44.9162 F2400
G0 X130.214 Y118.104 F5400
G1 X136.808 Y124.698 E45.3038 F2400
G0 X136.808 Y125.263 F5400
G1 X129.649 Y118.104 E45.7247 F2400
G0 X129.083 Y118.104 F5400
G1 X132.116 Y121.137 E45.9030 F2400
G0 X131.378 Y120.965 F5400
G1 X128.517 Y118.104 E46.0712 F2400
G0 X127.952 Y118.104 F5400
G1 X130.793 Y120.946 E46.2383 F2400
G0 X130.227 Y120.946 F5400
G1 X127.386 Y118.104 E46.4053 F2400
G0 X126.820 Y118.105 F5400
G1 X129.662 Y120.946 E46.5724 F2400
G0 X129.096 Y120.946 F5400
G1 X126.255 Y118.104 E46.7394 F2400
G0 X125.689 Y118.104 F5400
G1 X128.530 Y120.946 E46.9065 F2400
G0 X127.965 Y120.946 F5400
G1 X125.123 Y118.104 E47.0735 F2400
G0 X124.558 Y118.104 F5400
G1 X127.399 Y120.946 E47.2406 F2400
G0 X126.833 Y120.946 F5400
G1 X123.992 Y118.104 E47.4077 F2400
G0 X123.426 Y118.104 F5400
G1 X126.268 Y120.946 E47.5747 F2400
G0 X125.702 Y120.946 F5400
G1 X122.861 Y118.104 E47.7418 F2400
G0 X122.295 Y118.104 F5400
G1 X125.136 Y120.946 E47.9088 F2400
G0 X124.571 Y120.946 F5400
G1 X121.729 Y118.104 E48.0759 F2400
G0 X121.164 Y118.104 F5400
G1 X124.005 Y120.946 E48.2429 F2400
G0 X123.439 Y120.946 F5400
G1 X120.598 Y118.104 E48.4100 F2400
G0 X120.032 Y118.104 F5400
G1 X122.873 Y120.946 E48.5771 F2400
G0 X122.308 Y120.946 F5400
G1 X119.466 Y118.104 E48.7441 F2400
G0 X118.901 Y118.104 F5400
G1 X121.742 Y120.946 E48.9112 F2400
G0 X121.176 Y120.946 F5400
G1 X118.335 Y118.104 E49.0782 F2400
G0 X117.769 Y118.104 F5400
G1 X120.611 Y120.946 E49.2453 F2400
G0 X120.045 Y120.946 F5400
G1 X117.204 Y118.104 E49.4123 F2400
G0 X116.638 Y118.104 F5400
G1 X119.479 Y120.946 E49.5794 F2400
G0 X118.914 Y120.946 F5400
G1 X116.072 Y118.104 E49.7465 F2400
G0 X115.507 Y118.104 F5400
G1 X118.348 Y120.946 E49.9135 F2400
G0 X117.782 Y120.946 F5400
G1 X114.941 Y118.104 E50.0806 F2400
G0 X114.375 Y118.104 F5400
G1 X117.217 Y120.946 E50.2476 F2400
G0 X116.651 Y120.946 F5400
G1 X113.810 Y118.104 E50.4147 F2400
G0 X113.244 Y118.104 F5400
G1 X116.085 Y120.946 E50.5817 F2400
G0 X115.520 Y120.946 F5400
G1 X112.678 Y118.104 E50.7488 F2400
G0 X112.113 Y118.104 F5400
G1 X114.954 Y120.946 E50.9159 F2400
G0 X114.388 Y120.946 F5400
G1 X111.547 Y118.104 E51.0829 F2400
G0 X110.981 Y118.104 F5400
G1 X113.822 Y120.946 E51.2500 F2400
G0 X113.257 Y120.946 F5400
G1 X110.416 Y118.104 E51.4170 F2400
G0 X109.850 Y118.104 F5400
G1 X112.691 Y120.946 E51.5841 F2400
G0 X112.125 Y120.946 F5400
G1 X109.284 Y118.104 E51.7511 F2400
G0 X108.718 Y118.104 F5400
G1 X111.560 Y120.946 E51.9182 F2400
G0 X110.994 Y120.946 F5400
G1 X108.153 Y118.104 E52.0853 F2400
G0 X107.587 Y118.104 F5400
G1 X110.428 Y120.946 E52.2523 F2400
G0 X109.863 Y120.946 F5400
G1 X107.021 Y118.104 E52.4194 F2400
G0 X106.456 Y118.104 F5400
G1 X109.297 Y120.946 E52.5864 F2400
G0 X108.731 Y120.946 F5400
G1 X105.890 Y118.104 E52.7535 F2400
G0 X105.324 Y118.104 F5400
G1 X108.166 Y120.946 E52.9205 F2400
G0 X107.600 Y120.946 F5400
G1 X104.759 Y118.104 E53.0876 F2400
G0 X104.193 Y118.104 F5400
G1 X107.034 Y120.946 E53.2547 F2400
G0 X106.469 Y120.946 F5400
G1 X103.627 Y118.104 E53.4217 F2400
G0 X103.062 Y118.104 F5400
G1 X105.903 Y120.946 E53.5888 F2400
G0 X105.337 Y120.946 F5400
G1 X102.496 Y118.104 E53.7558 F2400
G0 X101.930 Y118.104 F5400
G1 X104.772 Y120.946 E53.9229 F2400
G0 X104.206 Y120.946 F5400
G1 X101.365 Y118.104 E54.0899 F2400
G0 X100.799 Y118.104 F5400
G1 X103.640 Y120.946 E54.2570 F2400
G0 X103.074 Y120.946 F5400
G1 X100.233 Y118.104 E54.4241 F2400
G0 X99.667 Y118.104 F5400
G1 X102.509 Y120.946 E54.5911 F2400
G0 X101.943 Y120.946 F5400
G1 X99.102 Y118.104 E54.7582 F2400
G0 X98.575 Y118.143 F5400
G1 X101.377 Y120.946 E54.9229 F2400
G0 X100.812 Y120.946 F5400
G1 X98.069 Y118.203 E55.0842 F2400
G0 X97.613 Y118.312 F5400
G1 X100.246 Y120.946 E55.2390 F2400
G0 X99.680 Y120.946 F5400
G1 X97.183 Y118.448 E55.3859 F2400
G0 X96.783 Y118.614 F5400
G1 X99.129 Y120.960 E55.5239 F2400
G0 X98.643 Y121.040 F5400
G1 X96.408 Y118.805 E55.6553 F2400
G0 X96.057 Y119.020 F5400
G1 X98.221 Y121.184 E55.7825 F2400
G0 X97.849 Y121.377 F5400
G1 X95.727 Y119.255 E55.9073 F2400
G0 X95.422 Y119.516 F5400
G1 X97.520 Y121.614 E56.0307 F2400
G0 X97.231 Y121.890 F5400
G1 X95.133 Y119.792 E56.1540 F2400
G0 X94.872 Y120.097 F5400
G1 X96.981 Y122.206 E56.2780 F2400
G0 X96.772 Y122.563 F5400
G1 X94.623 Y120.414 E56.4044 F2400
G0 X94.408 Y120.764 F5400
G1 X96.612 Y122.969 E56.5340 F2400
G0 X96.512 Y123.434 F5400
G1 X94.202 Y121.125 E56.6698 F2400
G0 X94.037 Y121.524 F5400
G1 X96.485 Y123.973 E56.8138 F2400
G0 X96.485 Y124.539 F5400
G1 X93.884 Y121.938 E56.9667 F2400
G0 X93.775 Y122.394 F5400
G1 X96.485 Y125.105 E57.1261 F2400
G0 X96.485 Y125.670 F5400
G1 X93.695 Y122.880 E57.2901 F2400
G0 X93.654 Y123.404 F5400
G1 X96.485 Y126.236 E57.4566 F2400
G0 X96.485 Y126.802 F5400
G1 X93.644 Y123.960 E57.6237 F2400
G0 X93.644 Y124.526 F5400
G1 X96.485 Y127.367 E57.7907 F2400
G0 X96.485 Y127.933 F5400
G1 X93.644 Y125.091 E57.9578 F2400
G0 X93.644 Y125.657 F5400
G1 X96.485 Y128.499 E58.1249 F2400
G0 X96.485 Y129.064 F5400
G1 X93.644 Y126.223 E58.2920 F2400
G0 X93.644 Y126.788 F5400
G1 X96.485 Y129.630 E58.4590 F2400
G0 X96.485 Y130.196 F5400
G1 X93.644 Y127.354 E58.6261 F2400
G0 X93.644 Y127.920 F5400
G1 X96.485 Y130.761 E58.7932 F2400
G0 X96.485 Y131.327 F5400
G1 X93.644 Y128.486 E58.9603 F2400
G0 X93.644 Y129.051 F5400
G1 X96.485 Y131.893 E59.1273 F2400
G0 X96.485 Y132.458 F5400
G1 X93.644 Y129.617 E59.2944 F2400
G0 X93.644 Y130.183 F5400
G1 X96.485 Y133.024 E59.4615 F2400
G0 X96.485 Y133.590 F5400
G1 X93.644 Y130.748 E59.6285 F2400
G0 X93.644 Y131.314 F5400
G1 X96.485 Y134.155 E59.7956 F2400
G0 X96.485 Y134.721 F5400
G1 X93.644 Y131.880 E59.9627 F2400
G0 X93.644 Y132.445 F5400
G1 X96.485 Y135.287 E60.1298 F2400
G0 X96.485 Y135.853 F5400
G1 X93.644 Y133.011 E60.2968 F2400
G0 X93.644 Y133.577 F5400
G1 X96.485 Y136.418 E60.4639 F2400
G0 X96.485 Y136.984 F5400
G1 X93.644 Y134.142 E60.6310 F2400
G0 X93.644 Y134.708 F5400
G1 X96.485 Y137.550 E60.7980 F2400
G0 X96.485 Y138.115 F5400
G1 X93.644 Y135.274 E60.9651 F2400
G0 X93.644 Y135.839 F5400
G1 X96.485 Y138.681 E61.1322 F2400
G0 X96.485 Y139.247 F5400
G1 X93.644 Y136.405 E61.2993 F2400
G0 X93.644 Y136.971 F5400
G1 X96.485 Y139.812 E61.4663 F2400
G0 X96.485 Y140.378 F5400
G1 X93.644 Y137.536 E61.6334 F2400
G0 X93.644 Y138.102 F5400
G1 X96.485 Y140.944 E61.8005 F2400
G0 X96.485 Y141.509 F5400
G1 X93.644 Y138.668 E61.9676 F2400
G0 X93.644 Y139.234 F5400
G1 X96.485 Y142.075 E62.1346 F2400
G0 X96.485 Y142.641 F5400
G1 X93.644 Y139.799 E62.3017 F2400
G0 X93.644 Y140.365 F5400
G1 X96.485 Y143.206 E62.4688 F2400
G0 X96.485 Y143.772 F5400
G1 X93.644 Y140.931 E62.6358 F2400
G0 X93.644 Y141.496 F5400
G1 X96.485 Y144.338 E62.8029 F2400
G0 X96.485 Y144.904 F5400
G1 X93.644 Y142.062 E62.9700 F2400
G0 X93.644 Y142.628 F5400
G1 X96.485 Y145.469 E63.1371 F2400
G0 X96.485 Y146.035 F5400
G1 X93.644 Y143.193 E63.3041 F2400
G0 X93.644 Y143.759 F5400
G1 X96.485 Y146.601 E63.4712 F2400
G0 X96.485 Y147.166 F5400
G1 X93.644 Y144.325 E63.6383 F2400
G0 X93.644 Y144.890 F5400
G1 X96.485 Y147.732 E63.8053 F2400
G0 X96.485 Y148.298 F5400
G1 X93.644 Y145.456 E63.9724 F2400
G0 X93.644 Y146.022 F5400
G1 X96.485 Y148.863 E64.1395 F2400
G0 X96.485 Y149.429 F5400
G1 X93.644 Y146.587 E64.3066 F2400
G0 X93.644 Y147.153 F5400
G1 X96.485 Y149.995 E64.4736 F2400
G0 X96.485 Y150.560 F5400
G1 X93.644 Y147.719 E64.6407 F2400
G0 X93.644 Y148.284 F5400
G1 X96.485 Y151.126 E64.8078 F2400
G0 X96.485 Y151.692 F5400
G1 X93.644 Y148.850 E64.9748 F2400
G0 X93.644 Y149.416 F5400
G1 X96.485 Y152.257 E65.1419 F2400
G0 X96.485 Y152.823 F5400
G1 X93.644 Y149.982 E65.3090 F2400
G0 X93.644 Y150.547 F5400
G1 X96.485 Y153.389 E65.4761 F2400
G0 X96.485 Y153.954 F5400
G1 X93.644 Y151.113 E65.6431 F2400
G0 X93.644 Y151.679 F5400
G1 X96.485 Y154.520 E65.8102 F2400
G0 X96.485 Y155.086 F5400
G1 X93.644 Y152.244 E65.9773 F2400
G0 X93.644 Y152.810 F5400
G1 X96.485 Y155.652 E66.1443 F2400
G0 X96.485 Y156.217 F5400
G1 X93.644 Y153.376 E66.3114 F2400
G0 X93.644 Y153.941 F5400
G1 X96.485 Y156.783 E66.4785 F2400
G0 X96.485 Y157.349 F5400
G1 X93.644 Y154.507 E66.6456 F2400
G0 X93.644 Y155.073 F5400
G1 X96.485 Y157.914 E66.8126 F2400
G0 X96.485 Y158.480 F5400
G1 X93.644 Y155.638 E66.9797 F2400
G0 X93.644 Y156.204 F5400
G1 X96.485 Y159.046 E67.1468 F2400
G0 X96.485 Y159.611 F5400
G1 X93.644 Y156.770 E67.3139 F2400
G0 X93.644 Y157.335 F5400
G1 X96.485 Y160.177 E67.4809 F2400
G0 X96.485 Y160.743 F5400
G1 X93.644 Y157.901 E67.6480 F2400
G0 X93.644 Y158.467 F5400
G1 X96.485 Y161.308 E67.8151 F2400
G0 X96.485 Y161.874 F5400
G1 X93.644 Y159.033 E67.9822 F2400
G0 X93.644 Y159.598 F5400
G1 X96.485 Y162.440 E68.1492 F2400
G0 X96.485 Y163.005 F5400
G1 X93.644 Y160.164 E68.3163 F2400
G0 X93.644 Y160.730 F5400
G1 X96.485 Y163.571 E68.4834 F2400
G0 X96.485 Y164.137 F5400
G1 X93.644 Y161.295 E68.6505 F2400
G0 X93.644 Y161.861 F5400
G1 X96.485 Y164.702 E68.8175 F2400
G0 X96.401 Y165.184 F5400
G1 X93.644 Y162.427 E68.9796 F2400
G0 X93.644 Y162.992 F5400
G1 X96.022 Y165.371 E69.1195 F2400
G0 X95.456 Y165.371 F5400
G1 X93.644 Y163.558 E69.2260 F2400
G0 X93.644 Y164.124 F5400
G1 X94.890 Y165.371 E69.2994 F2400
G0 X94.325 Y165.371 F5400
G1 X93.644 Y164.689 E69.3394 F2400
G0 F3000 E68.3394
G0 X93.283 Y165.014 F5400
G0 X96.845 Y161.807
G0 X96.845 Y161.807
G0 X96.845 Y123.788
G0 X96.874 Y123.419
G0 X96.966 Y123.037
G0 X97.117 Y122.673
G0 X97.322 Y122.338
G0 X97.575 Y122.042
G0 X97.876 Y121.783
G0 X98.212 Y121.577
G0 X98.576 Y121.427
G0 X98.958 Y121.335
G0 X99.327 Y121.306
G0 X131.124 Y121.306
G0 X131.493 Y121.335
G0 X131.871 Y121.426
G0 X132.238 Y121.577
G0 X132.574 Y121.783
G0 X132.873 Y122.038
G0 X133.129 Y122.337
G0 X133.333 Y122.671
G0 X133.485 Y123.037
G0 X133.577 Y123.419
G0 X133.606 Y123.788
G0 X133.606 Y128.711
G0 X133.606 Y128.711
G0 X137.168 Y125.505
G0 X136.808 Y125.829
G0 F3000 E69.3394
G1 X133.776 Y122.797 E69.5177 F2400
G0 X133.947 Y123.534 F5400
G1 X136.808 Y126.395 E69.6859 F2400
G0 X136.808 Y126.960 F5400
G1 X133.966 Y124.119 E69.8529 F2400
G0 X133.966 Y124.685 F5400
G1 X136.808 Y127.526 E70.0200 F2400
G0 X136.808 Y128.092 F5400
G1 X133.966 Y125.250 E70.1871 F2400
G0 X133.966 Y125.816 F5400
G1 X136.808 Y128.657 E70.3542 F2400
G0 X136.808 Y129.223 F5400
G1 X133.966 Y126.382 E70.5212 F2400
G0 X133.966 Y126.947 F5400
G1 X136.808 Y129.789 E70.6883 F2400
G0 X136.808 Y130.354 F5400
G1 X133.966 Y127.513 E70.8554 F2400
G0 X133.966 Y128.079 F5400
G1 X136.808 Y130.920 E71.0225 F2400
G0 X136.808 Y131.486 F5400
G1 X133.966 Y128.644 E71.1895 F2400
G0 X133.966 Y129.210 F5400
G1 X136.808 Y132.052 E71.3566 F2400
G0 X136.808 Y132.617 F5400
G1 X133.966 Y129.776 E71.5237 F2400
G0 X133.966 Y130.341 F5400
G1 X136.808 Y133.183 E71.6908 F2400
G0 X136.808 Y133.749 F5400
G1 X133.966 Y130.907 E71.8578 F2400
G0 X133.966 Y131.473 F5400
G1 X136.808 Y134.314 E72.0249 F2400
G0 X136.808 Y134.880 F5400
G1 X133.966 Y132.038 E72.1920 F2400
G0 X133.966 Y132.604 F5400
G1 X136.808 Y135.446 E72.3590 F2400
G0 X136.808 Y136.011 F5400
G1 X133.966 Y133.170 E72.5261 F2400
G0 X133.966 Y133.735 F5400
G1 X136.808 Y136.577 E72.6932 F2400
G0 X136.808 Y137.143 F5400
G1 X133.966 Y134.301 E72.8602 F2400
G0 X133.966 Y134.867 F5400
G1 X136.808 Y137.708 E73.0273 F2400
G0 X136.808 Y138.274 F5400
G1 X133.966 Y135.433 E73.1944 F2400
G0 X133.966 Y135.998 F5400
G1 X136.808 Y138.840 E73.3615 F2400
G0 X136.808 Y139.405 F5400
G1 X133.966 Y136.564 E73.5285 F2400
G0 X133.966 Y137.130 F5400
G1 X136.808 Y139.971 E73.6956 F2400
G0 X136.808 Y140.537 F5400
G1 X133.966 Y137.695 E73.8627 F2400
G0 X133.966 Y138.261 F5400
G1 X136.808 Y141.103 E74.0298 F2400
G0 X136.808 Y141.668 F5400
G1 X133.966 Y138.827 E74.1968 F2400
G0 X133.966 Y139.392 F5400
G1 X136.808 Y142.234 E74.3639 F2400
G0 X136.808 Y142.800 F5400
G1 X133.966 Y139.958 E74.5310 F2400
G0 X133.966 Y140.524 F5400
G1 X136.808 Y143.365 E74.6980 F2400
G0 X136.808 Y143.931 F5400
G1 X133.966 Y141.089 E74.8651 F2400
G0 X133.966 Y141.655 F5400
G1 X136.808 Y144.497 E75.0322 F2400
G0 X136.808 Y145.062 F5400
G1 X133.966 Y142.221 E75.1993 F2400
G0 X133.966 Y142.786 F5400
G1 X136.808 Y145.628 E75.3663 F2400
G0 X136.808 Y146.194 F5400
G1 X133.966 Y143.352 E75.5334 F2400
G0 X133.966 Y143.918 F5400
G1 X136.808 Y146.759 E75.7005 F2400
G0 X136.808 Y147.325 F5400
G1 X133.966 Y144.484 E75.8676 F2400
G0 X133.966 Y145.049 F5400
G1 X136.808 Y147.891 E76.0346 F2400
G0 X136.808 Y148.456 F5400
G1 X133.966 Y145.615 E76.2017 F2400
G0 X133.966 Y146.181 F5400
G1 X136.808 Y149.022 E76.3688 F2400
G0 X136.808 Y149.588 F5400
G1 X133.966 Y146.746 E76.5358 F2400
G0 X133.966 Y147.312 F5400
G1 X136.808 Y150.153 E76.7029 F2400
G0 X136.808 Y150.719 F5400
G1 X133.966 Y147.878 E76.8700 F2400
G0 X133.966 Y148.443 F5400
G1 X136.808 Y151.285 E77.0371 F2400
G0 X136.808 Y151.851 F5400
G1 X133.966 Y149.009 E77.2041 F2400
G0 X133.966 Y149.575 F5400
G1 X136.808 Y152.416 E77.3712 F2400
G0 X136.808 Y152.982 F5400
G1 X133.966 Y150.140 E77.5383 F2400
G0 X133.966 Y150.706 F5400
G1 X136.808 Y153.548 E77.7053 F2400
G0 X136.808 Y154.113 F5400
G1 X133.966 Y151.272 E77.8724 F2400
G0 X133.966 Y151.837 F5400
G1 X136.808 Y154.679 E78.0395 F2400
G0 X136.808 Y155.245 F5400
G1 X133.966 Y152.403 E78.2066 F2400
G0 X133.966 Y152.969 F5400
G1 X136.808 Y155.810 E78.3737 F2400
G0 X136.808 Y156.376 F5400
G1 X133.966 Y153.534 E78.5407 F2400
G0 X133.966 Y154.100 F5400
G1 X136.808 Y156.942 E78.7078 F2400
G0 X136.808 Y157.507 F5400
G1 X133.966 Y154.666 E78.8749 F2400
G0 X133.966 Y155.232 F5400
G1 X136.808 Y158.073 E79.0419 F2400
G0 X136.808 Y158.639 F5400
G1 X133.952 Y155.783 E79.2099 F2400
G0 X133.872 Y156.269 F5400
G1 X136.808 Y159.204 E79.3825 F2400
G0 X136.808 Y159.770 F5400
G1 X133.728 Y156.691 E79.5636 F2400
G0 X133.534 Y157.063 F5400
G1 X136.808 Y160.336 E79.7560 F2400
G0 X136.808 Y160.902 F5400
G1 X133.298 Y157.392 E79.9624 F2400
G0 X133.021 Y157.681 F5400
G1 X136.808 Y161.467 E80.1850 F2400
G0 X136.808 Y162.033 F5400
G1 X132.706 Y157.931 E80.4261 F2400
G0 X132.349 Y158.140 F5400
G1 X136.808 Y162.599 E80.6883 F2400
G0 X136.808 Y163.164 F5400
G1 X131.943 Y158.300 E80.9743 F2400
G0 X131.478 Y158.400 F5400
G1 X136.808 Y163.730 E81.2877 F2400
G0 X136.808 Y164.296 F5400
G1 X130.939 Y158.427 E81.6327 F2400
G0 X130.373 Y158.427 F5400
G1 X136.808 Y164.861 E82.0110 F2400
G0 X136.808 Y165.427 F5400
G1 X129.808 Y158.427 E82.4226 F2400
G0 X129.242 Y158.427 F5400
G1 X136.712 Y165.897 E82.8618 F2400
G0 X136.255 Y166.005 F5400
G1 X128.676 Y158.427 E83.3074 F2400
G0 X128.111 Y158.427 F5400
G1 X135.689 Y166.005 E83.7530 F2400
G0 X135.123 Y166.005 F5400
G1 X127.683 Y158.565 E84.1904 F2400
G0 X127.616 Y159.064 F5400
G1 X134.558 Y166.005 E84.5986 F2400
G0 X133.992 Y166.005 F5400
G1 X127.616 Y159.630 E84.9734 F2400
G0 X127.616 Y160.195 F5400
G1 X133.426 Y166.005 E85.3151 F2400
G0 X132.861 Y166.005 F5400
G1 X127.616 Y160.761 E85.6234 F2400
G0 X127.616 Y161.327 F5400
G1 X132.295 Y166.005 E85.8985 F2400
G0 X131.729 Y166.005 F5400
G1 X127.616 Y161.892 E86.1403 F2400
G0 X127.616 Y162.458 F5400
G1 X131.163 Y166.005 E86.3489 F2400
G0 X130.598 Y166.005 F5400
G1 X127.616 Y163.024 E86.5242 F2400
G0 X127.616 Y163.589 F5400
G1 X130.032 Y166.005 E86.6662 F2400
G0 X129.466 Y166.005 F5400
G1 X127.616 Y164.155 E86.7750 F2400
G0 X127.616 Y164.721 F5400
G1 X128.901 Y166.005 E86.8505 F2400
G0 X128.335 Y166.005 F5400
G1 X127.616 Y165.287 E86.8928 F2400
G0 F3000 E85.8928
G0 X127.295 Y165.896 F5400
G0 X131.433 Y158.043
G0 X131.433 Y158.043
G0 X131.493 Y158.038
G0 X131.875 Y157.946
G0 X132.239 Y157.795
G0 X132.575 Y157.589
G0 X132.876 Y157.331
G0 X133.129 Y157.035
G0 X133.335 Y156.699
G0 X133.485 Y156.336
G0 X133.577 Y155.954
G0 X133.606 Y155.585
G0 X133.606 Y153.918
G0 X133.606 Y153.918
G0 X137.168 Y147.157
G0 X146.550 Y129.349
G0 F3000 E86.8928
G1 X143.709 Y126.508 E87.0599 F2400
G0 X143.143 Y126.508 F5400
G1 X145.985 Y129.349 E87.2269 F2400
G0 X145.419 Y129.349 F5400
G1 X142.578 Y126.508 E87.3940 F2400
G0 X142.034 Y126.520 F5400
;segType:Perimeter
G1 X141.827 Y125.748 E87.4272 F1439
G1 X159.346 Y125.748 E88.1556
G1 X159.346 Y130.109 E88.3369
G1 X141.767 Y130.109 E89.0678
G1 X141.767 Y125.808 E89.2466
G0 X142.540 Y126.015 F5400
G0 X142.867 Y126.148
;segType:Loop
G1 X158.946 Y126.148 E89.9151 F2400
G1 X158.946 Y129.709 E90.0631
G1 X142.167 Y129.709 E90.7607
G1 X142.167 Y126.148 E90.9088
G1 X142.667 Y126.148 E90.9296
G0 X142.527 Y127.023 F5400
;segType:HShell
G1 X144.853 Y129.349 E91.0663 F2400
G0 X144.287 Y129.349 F5400
G1 X142.527 Y127.589 E91.1698 F2400
G0 X142.527 Y128.155 F5400
G1 X143.722 Y129.349 E91.2401 F2400
G0 X143.156 Y129.349 F5400
G1 X142.527 Y128.720 E91.2770 F2400
G0 X147.116 Y129.349 F5400
G1 X144.275 Y126.508 E91.4441 F2400
G0 X144.840 Y126.508 F5400
G1 X147.682 Y129.349 E91.6111 F2400
G0 X148.247 Y129.349 F5400
G1 X145.406 Y126.508 E91.7782 F2400
G0 X145.972 Y126.508 F5400
G1 X148.813 Y129.349 E91.9453 F2400
G0 X149.379 Y129.349 F5400
G1 X146.537 Y126.508 E92.1123 F2400
G0 X147.103 Y126.508 F5400
G1 X149.944 Y129.349 E92.2794 F2400
G0 X150.510 Y129.349 F5400
G1 X147.669 Y126.508 E92.4464 F2400
G0 X148.234 Y126.508 F5400
G1 X151.076 Y129.349 E92.6135 F2400
G0 X151.641 Y129.349 F5400
G1 X148.800 Y126.508 E92.7806 F2400
G0 X149.366 Y126.508 F5400
G1 X152.207 Y129.349 E92.9476 F2400
G0 X152.773 Y129.349 F5400
G1 X149.931 Y126.508 E93.1147 F2400
G0 X150.497 Y126.508 F5400
G1 X153.338 Y129.349 E93.2817 F2400
G0 X153.904 Y129.349 F5400
G1 X151.063 Y126.508 E93.4488 F2400
G0 X151.628 Y126.508 F5400
G1 X154.470 Y129.349 E93.6159 F2400
G0 X155.035 Y129.349 F5400
G1 X152.194 Y126.508 E93.7829 F2400
G0 X152.760 Y126.508 F5400
G1 X155.601 Y129.349 E93.9500 F2400
G0 X156.167 Y129.349 F5400
G1 X153.326 Y126.508 E94.1171 F2400
G0 X153.891 Y126.508 F5400
G1 X156.733 Y129.349 E94.2841 F2400
G0 X157.298 Y129.349 F5400
G1 X154.457 Y126.508 E94.4512 F2400
G0 X155.023 Y126.508 F5400
G1 X157.864 Y129.349 E94.6182 F2400
G0 X158.430 Y129.349 F5400
G1 X155.588 Y126.508 E94.7853 F2400
G0 X156.154 Y126.508 F5400
G1 X158.586 Y128.939 E94.9283 F2400
G0 X158.586 Y128.374 F5400
G1 X156.720 Y126.508 E95.0380 F2400
G0 X157.285 Y126.508 F5400
G1 X158.586 Y127.808 E95.1144 F2400
G0 X158.586 Y127.242 F5400
G1 X157.851 Y126.508 E95.1576 F2400
G0 F3000 E94.1576
G0 X142.786 Y112.885 F5400
G0 X138.847 Y109.324
G0 X138.847 Y109.324
G0 X137.426 Y109.324
G0 X137.426 Y108.039
G0 X137.426 Y108.039
G0 X133.865 Y104.819
G0 X134.225 Y105.144
G0 F3000 E95.1576
G1 X137.066 Y107.986 E95.3247 F2400
G0 X137.066 Y108.551 F5400
G1 X134.225 Y105.710 E95.4918 F2400
G0 X134.225 Y106.276 F5400
G1 X137.066 Y109.117 E95.6588 F2400
G0 X137.086 Y108.924 F5400
;segType:Perimeter
G1 X137.886 Y108.924 E95.6921 F1439
G1 X156.532 Y108.924 E96.4673
G1 X156.532 Y113.285 E96.6486
G1 X99.300 Y113.285 E99.0280
G1 X98.330 Y113.209 E99.0685
G1 X97.392 Y112.984 E99.1086
G1 X96.500 Y112.615 E99.1487
G1 X95.678 Y112.111 E99.1888
G1 X94.944 Y111.484 E99.2289
G1 X94.317 Y110.750 E99.2690
G1 X93.813 Y109.927 E99.3092
G1 X93.444 Y109.036 E99.3493
G1 X93.219 Y108.098 E99.3894
G1 X93.142 Y107.128 E99.4298
G1 X93.142 Y65.585 E101.1570
G1 X93.197 Y65.239 E101.1716
G1 X93.349 Y64.941 E101.1854
G1 X93.585 Y64.706 E101.1993
G1 X93.882 Y64.554 E101.2132
G1 X94.228 Y64.499 E101.2277
G1 X96.419 Y64.499 E101.3188
G1 X96.764 Y64.554 E101.3334
G1 X97.062 Y64.706 E101.3472
G1 X97.298 Y64.941 E101.3611
G1 X97.449 Y65.239 E101.3750
G1 X97.504 Y65.585 E101.3896
G1 X97.504 Y106.826 E103.1042
G1 X97.529 Y107.148 E103.1176
G1 X97.606 Y107.469 E103.1313
G1 X97.733 Y107.774 E103.1451
G1 X97.905 Y108.056 E103.1588
G1 X98.120 Y108.308 E103.1726
G1 X98.371 Y108.522 E103.1863
G1 X98.653 Y108.695 E103.2000
G1 X98.959 Y108.821 E103.2138
G1 X99.280 Y108.898 E103.2275
G1 X99.601 Y108.924 E103.2409
G1 X131.367 Y108.924 E104.5616
G1 X131.689 Y108.898 E104.5750
G1 X132.010 Y108.821 E104.5887
G1 X132.315 Y108.695 E104.6025
G1 X132.597 Y108.522 E104.6162
G1 X132.849 Y108.308 E104.6300
G1 X133.063 Y108.057 E104.6437
G1 X133.236 Y107.774 E104.6574
G1 X133.362 Y107.469 E104.6712
G1 X133.440 Y107.148 E104.6849
G1 X133.465 Y106.826 E104.6983
G1 X133.465 Y75.060 E106.0190
G1 X133.440 Y74.739 E106.0324
G1 X133.362 Y74.417 E106.0461
G1 X133.236 Y74.112 E106.0599
G1 X133.063 Y73.830 E106.0736
G1 X132.849 Y73.579 E106.0874
G1 X132.597 Y73.365 E106.1011
G1 X132.315 Y73.192 E106.1149
G1 X132.010 Y73.065 E106.1286
G1 X131.689 Y72.988 E106.1423
G1 X131.367 Y72.963 E106.1557
G1 X128.200 Y72.963 E106.2874
G1 X127.854 Y72.908 E106.3020
G1 X127.557 Y72.757 E106.3158
G1 X127.321 Y72.521 E106.3297
G1 X127.170 Y72.223 E106.3436
G1 X127.115 Y71.877 E106.3582
G1 X127.115 Y64.950 E106.6462
G1 X127.170 Y64.604 E106.6607
G1 X127.321 Y64.306 E106.6746
G1 X127.557 Y64.070 E106.6885
G1 X127.855 Y63.919 E106.7024
G1 X128.200 Y63.864 E106.7169
G1 X136.741 Y63.864 E107.0720
G1 X137.087 Y63.919 E107.0866
G1 X137.384 Y64.070 E107.1004
G1 X137.620 Y64.306 E107.1143
G1 X137.772 Y64.605 E107.1283
G1 X137.826 Y64.949 E107.1427
G1 X137.826 Y108.864 E108.9685
G0 X137.426 Y108.696 F5400
G0 X137.426 Y109.324
G0 X138.926 Y109.324
G0 X138.926 Y109.324
;segType:Loop
G1 X156.132 Y109.324 E109.6838 F2400
G1 X156.132 Y112.885 E109.8319
G1 X99.316 Y112.885 E112.1940
G1 X98.393 Y112.813 E112.2325
G1 X97.516 Y112.602 E112.2700
G1 X96.682 Y112.257 E112.3075
G1 X95.914 Y111.786 E112.3450
G1 X95.228 Y111.200 E112.3825
G1 X94.642 Y110.514 E112.4200
G1 X94.171 Y109.745 E112.4575
G1 X93.825 Y108.912 E112.4950
G1 X93.615 Y108.035 E112.5325
G1 X93.542 Y107.112 E112.5710
G1 X93.542 Y65.616 E114.2962
G1 X93.582 Y65.364 E114.3068
G1 X93.676 Y65.180 E114.3154
G1 X93.823 Y65.033 E114.3240
G1 X94.007 Y64.939 E114.3326
G1 X94.259 Y64.899 E114.3432
G1 X96.387 Y64.899 E114.4317
G1 X96.639 Y64.939 E114.4423
G1 X96.824 Y65.033 E114.4509
G1 X96.970 Y65.180 E114.4595
G1 X97.064 Y65.364 E114.4681
G1 X97.104 Y65.616 E114.4787
G1 X97.104 Y106.842 E116.1927
G1 X97.133 Y107.211 E116.2081
G1 X97.225 Y107.593 E116.2244
G1 X97.375 Y107.957 E116.2408
G1 X97.581 Y108.292 E116.2571
G1 X97.837 Y108.591 E116.2735
G1 X98.136 Y108.847 E116.2899
G1 X98.471 Y109.052 E116.3062
G1 X98.835 Y109.203 E116.3226
G1 X99.217 Y109.295 E116.3390
G1 X99.586 Y109.324 E116.3543
G1 X131.383 Y109.324 E117.6763
G1 X131.752 Y109.295 E117.6917
G1 X132.134 Y109.203 E117.7080
G1 X132.498 Y109.052 E117.7244
G1 X132.833 Y108.847 E117.7407
G1 X133.132 Y108.591 E117.7571
G1 X133.387 Y108.292 E117.7734
G1 X133.593 Y107.957 E117.7898
G1 X133.744 Y107.593 E117.8062
G1 X133.836 Y107.211 E117.8225
G1 X133.865 Y106.842 E117.8379
G1 X133.865 Y75.045 E119.1599
G1 X133.836 Y74.676 E119.1752
G1 X133.744 Y74.293 E119.1916
G1 X133.593 Y73.930 E119.2080
G1 X133.388 Y73.595 E119.2243
G1 X133.132 Y73.296 E119.2407
G1 X132.833 Y73.040 E119.2570
G1 X132.497 Y72.834 E119.2734
G1 X132.134 Y72.684 E119.2897
G1 X131.752 Y72.592 E119.3061
G1 X131.383 Y72.563 E119.3215
G1 X128.232 Y72.563 E119.4525
G1 X127.980 Y72.523 E119.4631
G1 X127.795 Y72.429 E119.4717
G1 X127.649 Y72.283 E119.4803
G1 X127.555 Y72.098 E119.4889
G1 X127.515 Y71.846 E119.4995
G1 X127.515 Y64.981 E119.7849
G1 X127.555 Y64.729 E119.7955
G1 X127.649 Y64.544 E119.8042
G1 X127.795 Y64.398 E119.8128
G1 X127.980 Y64.304 E119.8214
G1 X128.232 Y64.264 E119.8320
G1 X136.710 Y64.264 E120.1845
G1 X136.961 Y64.304 E120.1951
G1 X137.146 Y64.398 E120.2037
G1 X137.293 Y64.544 E120.2123
G1 X137.387 Y64.730 E120.2209
G1 X137.426 Y64.981 E120.2315
G1 X137.426 Y109.324 E122.0751
G1 X138.726 Y109.324 E122.1291
G0 X137.066 Y109.683 F5400
;segType:HShell
G1 X134.225 Y106.842 E122.2962 F2400
G0 X134.225 Y104.579 F5400
G1 X137.066 Y107.420 E122.4632 F2400
G0 X137.066 Y106.854 F5400
G1 X134.225 Y104.013 E122.6303 F2400
G0 X134.225 Y103.447 F5400
G1 X137.066 Y106.289 E122.7973 F2400
G0 X137.066 Y105.723 F5400
G1 X134.225 Y102.882 E122.9644 F2400
G0 X134.225 Y102.316 F5400
G1 X137.066 Y105.157 E123.1315 F2400
G0 X137.066 Y104.592 F5400
G1 X134.225 Y101.750 E123.2985 F2400
G0 X134.225 Y101.185 F5400
G1 X137.066 Y104.026 E123.4656 F2400
G0 X137.066 Y103.460 F5400
G1 X134.225 Y100.619 E123.6327 F2400
G0 X134.225 Y100.053 F5400
G1 X137.066 Y102.895 E123.7997 F2400
G0 X137.066 Y102.329 F5400
G1 X134.225 Y99.488 E123.9668 F2400
G0 X134.225 Y98.922 F5400
G1 X137.066 Y101.763 E124.1338 F2400
G0 X137.066 Y101.198 F5400
G1 X134.225 Y98.356 E124.3009 F2400
G0 X134.225 Y97.791 F5400
G1 X137.066 Y100.632 E124.4680 F2400
G0 X137.066 Y100.066 F5400
G1 X134.225 Y97.225 E124.6350 F2400
G0 X134.225 Y96.659 F5400
G1 X137.066 Y99.500 E124.8021 F2400
G0 X137.066 Y98.935 F5400
G1 X134.225 Y96.093 E124.9691 F2400
G0 X134.225 Y95.528 F5400
G1 X137.066 Y98.369 E125.1362 F2400
G0 X137.066 Y97.803 F5400
G1 X134.225 Y94.962 E125.3033 F2400
G0 X134.225 Y94.396 F5400
G1 X137.066 Y97.238 E125.4703 F2400
G0 X137.066 Y96.672 F5400
G1 X134.225 Y93.831 E125.6374 F2400
G0 X134.225 Y93.265 F5400
G1 X137.066 Y96.106 E125.8044 F2400
G0 X137.066 Y95.541 F5400
G1 X134.225 Y92.699 E125.9715 F2400
G0 X134.225 Y92.134 F5400
G1 X137.066 Y94.975 E126.1386 F2400
G0 X137.066 Y94.409 F5400
G1 X134.225 Y91.568 E126.3056 F2400
G0 X134.225 Y91.002 F5400
G1 X137.066 Y93.844 E126.4727 F2400
G0 X137.066 Y93.278 F5400
G1 X134.225 Y90.437 E126.6397 F2400
G0 X134.225 Y89.871 F5400
G1 X137.066 Y92.712 E126.8068 F2400
G0 X137.066 Y92.147 F5400
G1 X134.225 Y89.305 E126.9739 F2400
G0 X134.225 Y88.740 F5400
G1 X137.066 Y91.581 E127.1409 F2400
G0 X137.066 Y91.015 F5400
G1 X134.225 Y88.174 E127.3080 F2400
G0 X134.225 Y87.608 F5400
G1 X137.066 Y90.450 E127.4751 F2400
G0 X137.066 Y89.884 F5400
G1 X134.225 Y87.043 E127.6421 F2400
G0 X134.225 Y86.477 F5400
G1 X137.066 Y89.318 E127.8092 F2400
G0 X137.066 Y88.752 F5400
G1 X134.225 Y85.911 E127.9762 F2400
G0 X134.225 Y85.345 F5400
G1 X137.066 Y88.187 E128.1433 F2400
G0 X137.066 Y87.621 F5400
G1 X134.225 Y84.780 E128.3103 F2400
G0 X134.225 Y84.214 F5400
G1 X137.066 Y87.055 E128.4774 F2400
G0 X137.066 Y86.490 F5400
G1 X134.225 Y83.648 E128.6444 F2400
G0 X134.225 Y83.083 F5400
G1 X137.066 Y85.924 E128.8115 F2400
G0 X137.066 Y85.358 F5400
G1 X134.225 Y82.517 E128.9786 F2400
G0 X134.225 Y81.951 F5400
G1 X137.066 Y84.793 E129.1456 F2400
G0 X137.066 Y84.227 F5400
G1 X134.225 Y81.386 E129.3127 F2400
G0 X134.225 Y80.820 F5400
G1 X137.066 Y83.661 E129.4797 F2400
G0 X137.066 Y83.096 F5400
G1 X134.225 Y80.254 E129.6468 F2400
G0 X134.225 Y79.689 F5400
G1 X137.066 Y82.530 E129.8138 F2400
G0 X137.066 Y81.964 F5400
G1 X134.225 Y79.123 E129.9809 F2400
G0 X134.225 Y78.557 F5400
G1 X137.066 Y81.399 E130.1479 F2400
G0 X137.066 Y80.833 F5400
G1 X134.225 Y77.992 E130.3150 F2400
G0 X134.225 Y77.426 F5400
G1 X137.066 Y80.267 E130.4820 F2400
G0 X137.066 Y79.701 F5400
G1 X134.225 Y76.860 E130.6491 F2400
G0 X134.225 Y76.294 F5400
G1 X137.066 Y79.136 E130.8161 F2400
G0 X137.066 Y78.570 F5400
G1 X134.225 Y75.729 E130.9832 F2400
G0 X134.225 Y75.163 F5400
G1 X137.066 Y78.004 E131.1502 F2400
G0 X137.066 Y77.439 F5400
G1 X134.176 Y74.548 E131.3202 F2400
G0 X133.846 Y73.653 F5400
G1 X137.066 Y76.873 E131.5096 F2400
G0 X137.066 Y76.307 F5400
G1 X127.875 Y67.116 E132.0500 F2400
G0 X127.875 Y66.550 F5400
G1 X137.066 Y75.742 E132.5904 F2400
G0 X137.066 Y75.176 F5400
G1 X127.875 Y65.985 E133.1308 F2400
G0 X127.875 Y65.419 F5400
G1 X137.066 Y74.610 E133.6713 F2400
G0 X137.066 Y74.045 F5400
G1 X127.908 Y64.887 E134.2097 F2400
G0 X128.221 Y64.633 F5400
G1 X137.066 Y73.479 E134.7298 F2400
G0 X137.066 Y72.913 F5400
G1 X128.777 Y64.624 E135.2172 F2400
G0 X129.343 Y64.624 F5400
G1 X137.066 Y72.348 E135.6713 F2400
G0 X137.066 Y71.782 F5400
G1 X129.909 Y64.624 E136.0921 F2400
G0 X130.474 Y64.624 F5400
G1 X137.066 Y71.216 E136.4797 F2400
G0 X137.066 Y70.651 F5400
G1 X131.040 Y64.624 E136.8340 F2400
G0 X131.606 Y64.624 F5400
G1 X137.066 Y70.085 E137.1551 F2400
G0 X137.066 Y69.519 F5400
G1 X132.171 Y64.624 E137.4429 F2400
G0 X132.737 Y64.624 F5400
G1 X137.066 Y68.953 E137.6975 F2400
G0 X137.066 Y68.388 F5400
G1 X133.303 Y64.624 E137.9187 F2400
G0 X133.868 Y64.624 F5400
G1 X137.066 Y67.822 E138.1068 F2400
G0 X137.066 Y67.256 F5400
G1 X134.434 Y64.624 E138.2615 F2400
G0 X135.000 Y64.624 F5400
G1 X137.066 Y66.691 E138.3830 F2400
G0 X137.066 Y66.125 F5400
G1 X135.565 Y64.624 E138.4713 F2400
G0 X136.131 Y64.624 F5400
G1 X137.066 Y65.559 E138.5263 F2400
G0 X137.063 Y64.991 F5400
G1 X136.700 Y64.627 E138.5476 F2400
G0 X127.875 Y67.682 F5400
G1 X132.776 Y72.582 E138.8358 F2400
G0 X131.880 Y72.252 F5400
G1 X127.875 Y68.247 E139.0713 F2400
G0 X127.875 Y68.813 F5400
G1 X131.265 Y72.203 E139.2706 F2400
G0 X130.699 Y72.203 F5400
G1 X127.875 Y69.379 E139.4366 F2400
G0 X127.875 Y69.944 F5400
G1 X130.133 Y72.203 E139.5694 F2400
G0 X129.568 Y72.203 F5400
G1 X127.875 Y70.510 E139.6690 F2400
G0 X127.875 Y71.076 F5400
G1 X129.002 Y72.203 E139.7352 F2400
G0 X128.436 Y72.203 F5400
G1 X127.875 Y71.641 E139.7682 F2400
G0 F3000 E138.7682
G0 X127.515 Y71.576 F5400
G0 X127.515 Y71.846
G0 X127.555 Y72.098
G0 X127.649 Y72.283
G0 X127.795 Y72.429
G0 X127.980 Y72.523
G0 X128.232 Y72.563
G0 X131.383 Y72.563
G0 X131.752 Y72.592
G0 X132.134 Y72.684
G0 X132.497 Y72.834
G0 X132.833 Y73.040
G0 X133.132 Y73.296
G0 X133.388 Y73.595
G0 X133.593 Y73.930
G0 X133.744 Y74.293
G0 X133.836 Y74.676
G0 X133.865 Y75.045
G0 X133.865 Y106.842
G0 X133.836 Y107.211
G0 X133.744 Y107.593
G0 X133.593 Y107.957
G0 X133.387 Y108.292
G0 X133.132 Y108.591
G0 X132.833 Y108.847
G0 X132.498 Y109.052
G0 X132.134 Y109.203
G0 X131.752 Y109.295
G0 X131.383 Y109.324
G0 X99.586 Y109.324
G0 X99.217 Y109.295
G0 X98.835 Y109.203
G0 X98.471 Y109.052
G0 X98.136 Y108.847
G0 X97.837 Y108.591
G0 X97.581 Y108.292
G0 X97.375 Y107.957
G0 X97.225 Y107.593
G0 X97.133 Y107.211
G0 X97.104 Y106.842
G0 X97.104 Y66.032
G0 X96.744 Y65.966
G0 F3000 E139.7682
G1 X96.037 Y65.259 E139.8098 F2400
G0 X95.471 Y65.259 F5400
G1 X96.744 Y66.532 E139.8846 F2400
G0 X96.744 Y67.098 F5400
G1 X94.905 Y65.259 E139.9927 F2400
G0 X94.340 Y65.259 F5400
G1 X96.744 Y67.663 E140.1341 F2400
G0 X96.744 Y68.229 F5400
G1 X93.950 Y65.435 E140.2983 F2400
G0 X93.903 Y65.953 F5400
G1 X96.744 Y68.795 E140.4654 F2400
G0 X96.744 Y69.360 F5400
G1 X93.903 Y66.519 E140.6324 F2400
G0 X93.903 Y67.085 F5400
G1 X96.744 Y69.926 E140.7995 F2400
G0 X96.744 Y70.492 F5400
G1 X93.903 Y67.650 E140.9665 F2400
G0 X93.903 Y68.216 F5400
G1 X96.744 Y71.057 E141.1336 F2400
G0 X96.744 Y71.623 F5400
G1 X93.903 Y68.782 E141.3007 F2400
G0 X93.903 Y69.347 F5400
G1 X96.744 Y72.189 E141.4677 F2400
G0 X96.744 Y72.754 F5400
G1 X93.903 Y69.913 E141.6348 F2400
G0 X93.903 Y70.479 F5400
G1 X96.744 Y73.320 E141.8018 F2400
G0 X96.744 Y73.886 F5400
G1 X93.903 Y71.045 E141.9689 F2400
G0 X93.903 Y71.610 F5400
G1 X96.744 Y74.451 E142.1359 F2400
G0 X96.744 Y75.017 F5400
G1 X93.903 Y72.176 E142.3030 F2400
G0 X93.903 Y72.742 F5400
G1 X96.744 Y75.583 E142.4700 F2400
G0 X96.744 Y76.149 F5400
G1 X93.903 Y73.307 E142.6371 F2400
G0 X93.903 Y73.873 F5400
G1 X96.744 Y76.714 E142.8041 F2400
G0 X96.744 Y77.280 F5400
G1 X93.903 Y74.439 E142.9712 F2400
G0 X93.903 Y75.004 F5400
G1 X96.744 Y77.846 E143.1382 F2400
G0 X96.744 Y78.411 F5400
G1 X93.903 Y75.570 E143.3053 F2400
G0 X93.903 Y76.136 F5400
G1 X96.744 Y78.977 E143.4723 F2400
G0 X96.744 Y79.543 F5400
G1 X93.903 Y76.701 E143.6394 F2400
G0 X93.903 Y77.267 F5400
G1 X96.744 Y80.108 E143.8064 F2400
G0 X96.744 Y80.674 F5400
G1 X93.903 Y77.833 E143.9735 F2400
G0 X93.903 Y78.398 F5400
G1 X96.744 Y81.240 E144.1406 F2400
G0 X96.744 Y81.805 F5400
G1 X93.903 Y78.964 E144.3076 F2400
G0 X93.903 Y79.530 F5400
G1 X96.744 Y82.371 E144.4747 F2400
G0 X96.744 Y82.937 F5400
G1 X93.903 Y80.095 E144.6417 F2400
G0 X93.903 Y80.661 F5400
G1 X96.744 Y83.502 E144.8088 F2400
G0 X96.744 Y84.068 F5400
G1 X93.903 Y81.227 E144.9758 F2400
G0 X93.903 Y81.793 F5400
G1 X96.744 Y84.634 E145.1429 F2400
G0 X96.744 Y85.200 F5400
G1 X93.903 Y82.358 E145.3099 F2400
G0 X93.903 Y82.924 F5400
G1 X96.744 Y85.765 E145.4770 F2400
G0 X96.744 Y86.331 F5400
G1 X93.903 Y83.490 E145.6440 F2400
G0 X93.903 Y84.055 F5400
G1 X96.744 Y86.897 E145.8111 F2400
G0 X96.744 Y87.462 F5400
G1 X93.903 Y84.621 E145.9781 F2400
G0 X93.903 Y85.187 F5400
G1 X96.744 Y88.028 E146.1452 F2400
G0 X96.744 Y88.594 F5400
G1 X93.903 Y85.752 E146.3122 F2400
G0 X93.903 Y86.318 F5400
G1 X96.744 Y89.159 E146.4793 F2400
G0 X96.744 Y89.725 F5400
G1 X93.903 Y86.884 E146.6464 F2400
G0 X93.903 Y87.449 F5400
G1 X96.744 Y90.291 E146.8134 F2400
G0 X96.744 Y90.856 F5400
G1 X93.903 Y88.015 E146.9805 F2400
G0 X93.903 Y88.581 F5400
G1 X96.744 Y91.422 E147.1475 F2400
G0 X96.744 Y91.988 F5400
G1 X93.903 Y89.146 E147.3146 F2400
G0 X93.903 Y89.712 F5400
G1 X96.744 Y92.553 E147.4816 F2400
G0 X96.744 Y93.119 F5400
G1 X93.903 Y90.278 E147.6487 F2400
G0 X93.903 Y90.843 F5400
G1 X96.744 Y93.685 E147.8157 F2400
G0 X96.744 Y94.250 F5400
G1 X93.903 Y91.409 E147.9828 F2400
G0 X93.903 Y91.975 F5400
G1 X96.744 Y94.816 E148.1498 F2400
G0 X96.744 Y95.382 F5400
G1 X93.903 Y92.541 E148.3169 F2400
G0 X93.903 Y93.106 F5400
G1 X96.744 Y95.948 E148.4839 F2400
G0 X96.744 Y96.513 F5400
G1 X93.903 Y93.672 E148.6510 F2400
G0 X93.903 Y94.238 F5400
G1 X96.744 Y97.079 E148.8180 F2400
G0 X96.744 Y97.645 F5400
G1 X93.903 Y94.803 E148.9851 F2400
G0 X93.903 Y95.369 F5400
G1 X96.744 Y98.210 E149.1522 F2400
G0 X96.744 Y98.776 F5400
G1 X93.903 Y95.935 E149.3192 F2400
G0 X93.903 Y96.500 F5400
G1 X96.744 Y99.342 E149.4863 F2400
G0 X96.744 Y99.907 F5400
G1 X93.903 Y97.066 E149.6533 F2400
G0 X93.903 Y97.632 F5400
G1 X96.744 Y100.473 E149.8204 F2400
G0 X96.744 Y101.039 F5400
G1 X93.903 Y98.197 E149.9874 F2400
G0 X93.903 Y98.763 F5400
G1 X96.744 Y101.604 E150.1545 F2400
G0 X96.744 Y102.170 F5400
G1 X93.903 Y99.329 E150.3215 F2400
G0 X93.903 Y99.894 F5400
G1 X96.744 Y102.736 E150.4886 F2400
G0 X96.744 Y103.301 F5400
G1 X93.903 Y100.460 E150.6556 F2400
G0 X93.903 Y101.026 F5400
G1 X96.744 Y103.867 E150.8227 F2400
G0 X96.744 Y104.433 F5400
G1 X93.903 Y101.592 E150.9897 F2400
G0 X93.903 Y102.157 F5400
G1 X96.744 Y104.999 E151.1568 F2400
G0 X96.744 Y105.564 F5400
G1 X93.903 Y102.723 E151.3238 F2400
G0 X93.903 Y103.289 F5400
G1 X96.744 Y106.130 E151.4909 F2400
G0 X96.744 Y106.696 F5400
G1 X93.903 Y103.854 E151.6579 F2400
G0 X93.903 Y104.420 F5400
G1 X96.785 Y107.302 E151.8274 F2400
G0 X97.079 Y108.162 F5400
G1 X93.903 Y104.986 E152.0142 F2400
G0 X94.460 Y109.503 F5400
G1 X96.925 Y111.968 E152.1591 F2400
G0 X97.830 Y112.307 F5400
G1 X94.120 Y108.598 E152.3772 F2400
G0 X93.964 Y107.875 F5400
G1 X98.553 Y112.464 E152.6470 F2400
G0 X99.167 Y112.512 F5400
G1 X93.915 Y107.261 E152.9558 F2400
G0 X93.903 Y106.683 F5400
G1 X99.745 Y112.525 E153.2993 F2400
G0 X100.311 Y112.525 F5400
G1 X93.903 Y106.117 E153.6761 F2400
G0 X93.903 Y105.551 F5400
G1 X100.877 Y112.525 E154.0861 F2400
G0 X101.442 Y112.525 F5400
G1 X98.266 Y109.349 E154.2729 F2400
G0 X99.125 Y109.643 F5400
G1 X102.008 Y112.525 E154.4424 F2400
G0 X102.574 Y112.525 F5400
G1 X99.732 Y109.684 E154.6095 F2400
G0 X100.298 Y109.684 F5400
G1 X103.139 Y112.525 E154.7765 F2400
G0 X103.705 Y112.525 F5400
G1 X100.863 Y109.684 E154.9436 F2400
G0 X101.429 Y109.684 F5400
G1 X104.271 Y112.525 E155.1107 F2400
G0 X104.836 Y112.525 F5400
G1 X101.995 Y109.684 E155.2777 F2400
G0 X102.560 Y109.684 F5400
G1 X105.402 Y112.525 E155.4448 F2400
G0 X105.968 Y112.525 F5400
G1 X103.126 Y109.684 E155.6119 F2400
G0 X103.692 Y109.684 F5400
G1 X106.533 Y112.525 E155.7789 F2400
G0 X107.099 Y112.525 F5400
G1 X104.257 Y109.684 E155.9460 F2400
G0 X104.823 Y109.684 F5400
G1 X107.665 Y112.525 E156.1131 F2400
G0 X108.230 Y112.525 F5400
G1 X105.389 Y109.684 E156.2801 F2400
G0 X105.955 Y109.684 F5400
G1 X108.796 Y112.525 E156.4472 F2400
G0 X109.362 Y112.525 F5400
G1 X106.520 Y109.684 E156.6143 F2400
G0 X107.086 Y109.684 F5400
G1 X109.927 Y112.525 E156.7813 F2400
G0 X110.493 Y112.525 F5400
G1 X107.652 Y109.684 E156.9484 F2400
G0 X108.217 Y109.684 F5400
G1 X111.059 Y112.525 E157.1155 F2400
G0 X111.625 Y112.525 F5400
G1 X108.783 Y109.684 E157.2826 F2400
G0 X109.349 Y109.684 F5400
G1 X112.190 Y112.525 E157.4496 F2400
G0 X112.756 Y112.525 F5400
G1 X109.914 Y109.684 E157.6167 F2400
G0 X110.480 Y109.684 F5400
G1 X113.322 Y112.525 E157.7838 F2400
G0 X113.887 Y112.525 F5400
G1 X111.046 Y109.684 E157.9508 F2400
G0 X111.611 Y109.684 F5400
G1 X114.453 Y112.525 E158.1179 F2400
G0 X115.019 Y112.525 F5400
G1 X112.177 Y109.684 E158.2850 F2400
G0 X112.743 Y109.684 F5400
G1 X115.584 Y112.525 E158.4520 F2400
G0 X116.150 Y112.525 F5400
G1 X113.308 Y109.684 E158.6191 F2400
G0 X113.874 Y109.684 F5400
G1 X116.716 Y112.525 E158.7862 F2400
G0 X117.281 Y112.525 F5400
G1 X114.440 Y109.684 E158.9532 F2400
G0 X115.005 Y109.684 F5400
G1 X117.847 Y112.525 E159.1203 F2400
G0 X118.413 Y112.525 F5400
G1 X115.571 Y109.684 E159.2874 F2400
G0 X116.137 Y109.684 F5400
G1 X118.978 Y112.525 E159.4544 F2400
G0 X119.544 Y112.525 F5400
G1 X116.703 Y109.684 E159.6215 F2400
G0 X117.268 Y109.684 F5400
G1 X120.110 Y112.525 E159.7886 F2400
G0 X120.676 Y112.525 F5400
G1 X117.834 Y109.684 E159.9556 F2400
G0 X118.400 Y109.684 F5400
G1 X121.241 Y112.525 E160.1227 F2400
G0 X121.807 Y112.525 F5400
G1 X118.965 Y109.684 E160.2898 F2400
G0 X119.531 Y109.684 F5400
G1 X122.373 Y112.525 E160.4569 F2400
G0 X122.938 Y112.525 F5400
G1 X120.097 Y109.684 E160.6239 F2400
G0 X120.662 Y109.684 F5400
G1 X123.504 Y112.525 E160.7910 F2400
G0 X124.070 Y112.525 F5400
G1 X121.228 Y109.684 E160.9581 F2400
G0 X121.794 Y109.684 F5400
G1 X124.635 Y112.525 E161.1251 F2400
G0 X125.201 Y112.525 F5400
G1 X122.359 Y109.684 E161.2922 F2400
G0 X122.925 Y109.684 F5400
G1 X125.767 Y112.525 E161.4593 F2400
G0 X126.332 Y112.525 F5400
G1 X123.491 Y109.684 E161.6263 F2400
G0 X124.056 Y109.684 F5400
G1 X126.898 Y112.525 E161.7934 F2400
G0 X127.464 Y112.525 F5400
G1 X124.622 Y109.684 E161.9605 F2400
G0 X125.188 Y109.684 F5400
G1 X128.029 Y112.525 E162.1275 F2400
G0 X128.595 Y112.525 F5400
G1 X125.754 Y109.684 E162.2946 F2400
G0 X126.319 Y109.684 F5400
G1 X129.161 Y112.525 E162.4617 F2400
G0 X129.726 Y112.525 F5400
G1 X126.885 Y109.684 E162.6287 F2400
G0 X127.451 Y109.684 F5400
G1 X130.292 Y112.525 E162.7958 F2400
G0 X130.858 Y112.525 F5400
G1 X128.016 Y109.684 E162.9629 F2400
G0 X128.582 Y109.684 F5400
G1 X131.424 Y112.525 E163.1300 F2400
G0 X131.989 Y112.525 F5400
G1 X129.148 Y109.684 E163.2970 F2400
G0 X129.713 Y109.684 F5400
G1 X132.555 Y112.525 E163.4641 F2400
G0 X133.121 Y112.525 F5400
G1 X130.279 Y109.684 E163.6312 F2400
G0 X130.845 Y109.684 F5400
G1 X133.686 Y112.525 E163.7982 F2400
G0 X134.252 Y112.525 F5400
G1 X131.409 Y109.683 E163.9654 F2400
G0 X131.918 Y109.625 F5400
G1 X134.818 Y112.525 E164.1359 F2400
G0 X135.383 Y112.525 F5400
G1 X132.358 Y109.500 E164.3137 F2400
G0 X132.746 Y109.322 F5400
G1 X135.949 Y112.525 E164.5021 F2400
G0 X136.515 Y112.525 F5400
G1 X133.090 Y109.101 E164.7034 F2400
G0 X133.394 Y108.839 F5400
G1 X137.080 Y112.525 E164.9201 F2400
G0 X137.646 Y112.525 F5400
G1 X133.655 Y108.534 E165.1548 F2400
G0 X133.874 Y108.188 F5400
G1 X138.212 Y112.525 E165.4099 F2400
G0 X138.777 Y112.525 F5400
G1 X134.049 Y107.797 E165.6879 F2400
G0 X134.172 Y107.354 F5400
G1 X139.343 Y112.525 E165.9919 F2400
G0 X139.909 Y112.525 F5400
G1 X137.067 Y109.684 E166.1590 F2400
G0 X137.633 Y109.684 F5400
G1 X140.475 Y112.525 E166.3260 F2400
G0 X141.040 Y112.525 F5400
G1 X138.199 Y109.684 E166.4931 F2400
G0 X138.764 Y109.684 F5400
G1 X141.606 Y112.525 E166.6602 F2400
G0 X142.172 Y112.525 F5400
G1 X139.330 Y109.684 E166.8272 F2400
G0 X139.896 Y109.684 F5400
G1 X142.737 Y112.525 E166.9943 F2400
G0 X143.303 Y112.525 F5400
G1 X140.461 Y109.684 E167.1614 F2400
G0 X141.027 Y109.684 F5400
G1 X143.869 Y112.525 E167.3285 F2400
G0 X144.434 Y112.525 F5400
G1 X141.593 Y109.684 E167.4955 F2400
G0 X142.158 Y109.684 F5400
G1 X145.000 Y112.525 E167.6626 F2400
G0 X145.566 Y112.525 F5400
G1 X142.724 Y109.684 E167.8297 F2400
G0 X143.290 Y109.684 F5400
G1 X146.131 Y112.525 E167.9967 F2400
G0 X146.697 Y112.525 F5400
G1 X143.855 Y109.684 E168.1638 F2400
G0 X144.421 Y109.684 F5400
G1 X147.263 Y112.525 E168.3309 F2400
G0 X147.828 Y112.525 F5400
G1 X144.987 Y109.684 E168.4979 F2400
G0 X145.553 Y109.684 F5400
G1 X148.394 Y112.525 E168.6650 F2400
G0 X148.960 Y112.525 F5400
G1 X146.118 Y109.684 E168.8321 F2400
G0 X146.684 Y109.684 F5400
G1 X149.525 Y112.525 E168.9991 F2400
G0 X150.091 Y112.525 F5400
G1 X147.250 Y109.684 E169.1662 F2400
G0 X147.815 Y109.684 F5400
G1 X150.657 Y112.525 E169.3333 F2400
G0 X151.223 Y112.525 F5400
G1 X148.381 Y109.684 E169.5003 F2400
G0 X148.947 Y109.684 F5400
G1 X151.788 Y112.525 E169.6674 F2400
G0 X152.354 Y112.525 F5400
G1 X149.512 Y109.684 E169.8345 F2400
G0 X150.078 Y109.684 F5400
G1 X152.920 Y112.525 E170.0015 F2400
G0 X153.485 Y112.525 F5400
G1 X150.644 Y109.684 E170.1686 F2400
G0 X151.209 Y109.684 F5400
G1 X154.051 Y112.525 E170.3357 F2400
G0 X154.617 Y112.525 F5400
G1 X151.775 Y109.684 E170.5028 F2400
G0 X152.341 Y109.684 F5400
G1 X155.182 Y112.525 E170.6698 F2400
G0 X155.748 Y112.525 F5400
G1 X152.906 Y109.684 E170.8369 F2400
G0 X153.472 Y109.684 F5400
G1 X155.772 Y111.983 E170.9721 F2400
G0 X155.772 Y111.417 F5400
G1 X154.038 Y109.684 E171.0740 F2400
G0 X154.603 Y109.684 F5400
G1 X155.772 Y110.852 E171.1427 F2400
G0 X155.772 Y110.286 F5400
G1 X155.169 Y109.684 E171.1781 F2400
G0 F3000 E170.1781
G0 X174.981 Y112.525 F5400
G0 F3000 E171.1781
G1 X172.140 Y109.684 E171.3452 F2400
G0 X171.574 Y109.684 F5400
G1 X174.416 Y112.525 E171.5123 F2400
G0 X173.850 Y112.525 F5400
G1 X171.082 Y109.758 E171.6750 F2400
G0 X170.589 Y109.696 F5400
;segType:Perimeter
G1 X170.382 Y108.924 E171.7082 F1439
G1 X187.901 Y108.924 E172.4366
G1 X187.901 Y113.285 E172.6179
G1 X170.322 Y113.285 E173.3487
G1 X170.322 Y108.984 E173.5276
G0 X171.095 Y109.191 F5400
G0 X171.422 Y109.324
;segType:Loop
G1 X187.501 Y109.324 E174.1961 F2400
G1 X187.501 Y112.885 E174.3441
G1 X170.722 Y112.885 E175.0417
G1 X170.722 Y109.324 E175.1898
G1 X171.222 Y109.324 E175.2106
G0 X171.082 Y110.323 F5400
;segType:HShell
G1 X173.284 Y112.525 E175.3400 F2400
G0 X172.719 Y112.525 F5400
G1 X171.082 Y110.889 E175.4363 F2400
G0 X171.082 Y111.455 F5400
G1 X172.153 Y112.525 E175.4992 F2400
G0 X171.587 Y112.525 F5400
G1 X171.082 Y112.020 E175.5289 F2400
G0 X175.547 Y112.525 F5400
G1 X172.705 Y109.684 E175.6959 F2400
G0 X173.271 Y109.684 F5400
G1 X176.113 Y112.525 E175.8630 F2400
G0 X176.678 Y112.525 F5400
G1 X173.837 Y109.684 E176.0301 F2400
G0 X174.402 Y109.684 F5400
G1 X177.244 Y112.525 E176.1971 F2400
G0 X177.810 Y112.525 F5400
G1 X174.968 Y109.684 E176.3642 F2400
G0 X175.534 Y109.684 F5400
G1 X178.375 Y112.525 E176.5313 F2400
G0 X178.941 Y112.525 F5400
G1 X176.100 Y109.684 E176.6984 F2400
G0 X176.665 Y109.684 F5400
G1 X179.507 Y112.525 E176.8654 F2400
G0 X180.072 Y112.525 F5400
G1 X177.231 Y109.684 E177.0325 F2400
G0 X177.797 Y109.684 F5400
G1 X180.638 Y112.525 E177.1996 F2400
G0 X181.204 Y112.525 F5400
G1 X178.362 Y109.684 E177.3666 F2400
G0 X178.928 Y109.684 F5400
G1 X181.770 Y112.525 E177.5337 F2400
G0 X182.335 Y112.525 F5400
G1 X179.494 Y109.684 E177.7008 F2400
G0 X180.059 Y109.684 F5400
G1 X182.901 Y112.525 E177.8678 F2400
G0 X183.467 Y112.525 F5400
G1 X180.625 Y109.684 E178.0349 F2400
G0 X181.191 Y109.684 F5400
G1 X184.032 Y112.525 E178.2020 F2400
G0 X184.598 Y112.525 F5400
G1 X181.756 Y109.684 E178.3690 F2400
G0 X182.322 Y109.684 F5400
G1 X185.164 Y112.525 E178.5361 F2400
G0 X185.729 Y112.525 F5400
G1 X182.888 Y109.684 E178.7032 F2400
G0 X183.453 Y109.684 F5400
G1 X186.295 Y112.525 E178.8702 F2400
G0 X186.861 Y112.525 F5400
G1 X184.019 Y109.684 E179.0373 F2400
G0 X184.585 Y109.684 F5400
G1 X187.141 Y112.239 E179.1876 F2400
G0 X187.141 Y111.674 F5400
G1 X185.150 Y109.684 E179.3046 F2400
G0 X185.716 Y109.684 F5400
G1 X187.141 Y111.108 E179.3883 F2400
G0 X187.141 Y110.542 F5400
G1 X186.282 Y109.684 E179.4388 F2400
G0 X186.848 Y109.684 F5400
G1 X187.141 Y109.977 E179.4560 F2400
G0 F3000 E178.4560
G0 X174.917 Y120.946 F5400
G0 F3000 E179.4560
G1 X172.075 Y118.104 E179.6231 F2400
G0 X171.510 Y118.104 F5400
G1 X174.351 Y120.946 E179.7902 F2400
G0 X173.785 Y120.946 F5400
G1 X170.944 Y118.104 E179.9572 F2400
G0 X170.330 Y118.117 F5400
;segType:Perimeter
G1 X170.123 Y117.344 E179.9905 F1439
G1 X187.642 Y117.344 E180.7188
G1 X187.642 Y121.706 E180.9002
G1 X170.063 Y121.706 E181.6310
G1 X170.063 Y117.404 E181.8098
G0 X170.836 Y117.611 F5400
G0 X171.163 Y117.744
;segType:Loop
G1 X187.242 Y117.744 E182.4783 F2400
G1 X187.242 Y121.306 E182.6264
G1 X170.463 Y121.306 E183.3239
G1 X170.463 Y117.744 E183.4720
G1 X170.963 Y117.744 E183.4928
G0 X170.823 Y118.550 F5400
;segType:HShell
G1 X173.219 Y120.946 E183.6337 F2400
G0 X172.654 Y120.946 F5400
G1 X170.823 Y119.115 E183.7413 F2400
G0 X170.823 Y119.681 F5400
G1 X172.088 Y120.946 E183.8156 F2400
G0 X171.522 Y120.946 F5400
G1 X170.823 Y120.247 E183.8567 F2400
G0 X175.482 Y120.946 F5400
G1 X172.641 Y118.104 E184.0238 F2400
G0 X173.207 Y118.104 F5400
G1 X176.048 Y120.946 E184.1908 F2400
G0 X176.614 Y120.946 F5400
G1 X173.772 Y118.104 E184.3579 F2400
G0 X174.338 Y118.104 F5400
G1 X177.179 Y120.946 E184.5250 F2400
G0 X177.745 Y120.946 F5400
G1 X174.904 Y118.104 E184.6920 F2400
G0 X175.469 Y118.104 F5400
G1 X178.311 Y120.946 E184.8591 F2400
G0 X178.876 Y120.946 F5400
G1 X176.035 Y118.104 E185.0261 F2400
G0 X176.601 Y118.104 F5400
G1 X179.442 Y120.946 E185.1932 F2400
G0 X180.008 Y120.946 F5400
G1 X177.166 Y118.104 E185.3602 F2400
G0 X177.732 Y118.104 F5400
G1 X180.573 Y120.946 E185.5273 F2400
G0 X181.139 Y120.946 F5400
G1 X178.298 Y118.104 E185.6943 F2400
G0 X178.863 Y118.104 F5400
G1 X181.705 Y120.946 E185.8614 F2400
G0 X182.270 Y120.946 F5400
G1 X179.429 Y118.104 E186.0284 F2400
G0 X179.995 Y118.104 F5400
G1 X182.836 Y120.946 E186.1955 F2400
G0 X183.402 Y120.946 F5400
G1 X180.560 Y118.104 E186.3625 F2400
G0 X181.126 Y118.104 F5400
G1 X183.967 Y120.946 E186.5296 F2400
G0 X184.533 Y120.946 F5400
G1 X181.692 Y118.104 E186.6966 F2400
G0 X182.258 Y118.104 F5400
G1 X185.099 Y120.946 E186.8637 F2400
G0 X185.665 Y120.946 F5400
G1 X182.823 Y118.104 E187.0308 F2400
G0 X183.389 Y118.104 F5400
G1 X186.230 Y120.946 E187.1978 F2400
G0 X186.796 Y120.946 F5400
G1 X183.955 Y118.104 E187.3649 F2400
G0 X184.520 Y118.104 F5400
G1 X186.882 Y120.466 E187.5037 F2400
G0 X186.882 Y119.900 F5400
G1 X185.086 Y118.104 E187.6093 F2400
G0 X185.652 Y118.104 F5400
G1 X186.882 Y119.335 E187.6816 F2400
G0 X186.882 Y118.769 F5400
G1 X186.217 Y118.104 E187.7207 F2400
G0 F3000 E186.7207
G0 X177.663 Y129.349 F5400
G0 F3000 E187.7207
G1 X174.822 Y126.508 E187.8877 F2400
G0 X174.256 Y126.508 F5400
G1 X177.097 Y129.349 E188.0548 F2400
G0 X176.532 Y129.349 F5400
G1 X173.896 Y126.714 E188.2098 F2400
G0 X173.403 Y126.520 F5400
;segType:Perimeter
G1 X173.196 Y125.748 E188.2430 F1439
G1 X189.744 Y125.748 E188.9310
G1 X190.069 Y125.721 E188.9446
G1 X190.387 Y125.645 E188.9581
G1 X190.692 Y125.519 E188.9719
G1 X190.976 Y125.344 E188.9858
G1 X191.225 Y125.132 E188.9993
G1 X191.442 Y124.877 E189.0133
G1 X191.612 Y124.598 E189.0268
G1 X191.739 Y124.293 E189.0406
G1 X191.816 Y123.971 E189.0543
G1 X191.841 Y123.650 E189.0677
G1 X191.841 Y81.773 E190.8088
G1 X191.896 Y81.428 E190.8233
G1 X192.048 Y81.130 E190.8372
G1 X192.284 Y80.894 E190.8511
G1 X192.581 Y80.743 E190.8649
G1 X192.927 Y80.688 E190.8795
G1 X201.468 Y80.688 E191.2346
G1 X201.813 Y80.743 E191.2491
G1 X202.111 Y80.894 E191.2630
G1 X202.347 Y81.130 E191.2769
G1 X202.498 Y81.428 E191.2908
G1 X202.553 Y81.773 E191.3053
G1 X202.553 Y88.701 E191.5933
G1 X202.498 Y89.047 E191.6079
G1 X202.347 Y89.344 E191.6218
G1 X202.111 Y89.580 E191.6357
G1 X201.813 Y89.732 E191.6495
G1 X201.470 Y89.787 E191.6640
G1 X198.300 Y89.787 E191.7958
G1 X197.979 Y89.812 E191.8092
G1 X197.658 Y89.889 E191.8229
G1 X197.352 Y90.016 E191.8366
G1 X197.067 Y90.191 E191.8505
G1 X196.819 Y90.403 E191.8641
G1 X196.605 Y90.654 E191.8779
G1 X196.432 Y90.936 E191.8916
G1 X196.306 Y91.242 E191.9054
G1 X196.228 Y91.563 E191.9191
G1 X196.203 Y91.884 E191.9325
G1 X196.203 Y123.650 E193.2532
G1 X196.228 Y123.971 E193.2666
G1 X196.306 Y124.293 E193.2803
G1 X196.433 Y124.601 E193.2941
G1 X196.605 Y124.881 E193.3078
G1 X196.820 Y125.132 E193.3216
G1 X197.071 Y125.346 E193.3353
G1 X197.353 Y125.519 E193.3490
G1 X197.662 Y125.646 E193.3629
G1 X197.979 Y125.722 E193.3765
G1 X198.301 Y125.748 E193.3899
G1 X230.066 Y125.748 E194.7105
G1 X230.388 Y125.722 E194.7240
G1 X230.709 Y125.645 E194.7377
G1 X231.015 Y125.519 E194.7514
G1 X231.296 Y125.346 E194.7652
G1 X231.548 Y125.131 E194.7789
G1 X231.762 Y124.880 E194.7926
G1 X231.935 Y124.598 E194.8064
G1 X232.061 Y124.293 E194.8201
G1 X232.138 Y123.972 E194.8339
G1 X232.164 Y123.650 E194.8473
G1 X232.164 Y82.408 E196.5619
G1 X232.219 Y82.063 E196.5764
G1 X232.370 Y81.765 E196.5903
G1 X232.606 Y81.529 E196.6042
G1 X232.904 Y81.378 E196.6181
G1 X233.247 Y81.323 E196.6325
G1 X235.440 Y81.323 E196.7237
G1 X235.786 Y81.378 E196.7383
G1 X236.083 Y81.529 E196.7521
G1 X236.319 Y81.765 E196.7660
G1 X236.471 Y82.063 E196.7799
G1 X236.526 Y82.408 E196.7945
G1 X236.526 Y123.952 E198.5217
G1 X236.449 Y124.921 E198.5621
G1 X236.224 Y125.860 E198.6022
G1 X235.855 Y126.751 E198.6423
G1 X235.351 Y127.574 E198.6824
G1 X234.724 Y128.308 E198.7225
G1 X233.990 Y128.934 E198.7627
G1 X233.167 Y129.438 E198.8028
G1 X232.276 Y129.808 E198.8429
G1 X231.338 Y130.033 E198.8830
G1 X230.368 Y130.109 E198.9235
G1 X173.136 Y130.109 E201.3029
G1 X173.136 Y125.808 E201.4817
G0 X173.909 Y126.015 F5400
G0 X174.236 Y126.148
;segType:Loop
G1 X189.760 Y126.148 E202.1271 F2400
G1 X190.132 Y126.117 E202.1426
G1 X190.511 Y126.027 E202.1588
G1 X190.875 Y125.876 E202.1752
G1 X191.213 Y125.668 E202.1917
G1 X191.509 Y125.415 E202.2079
G1 X191.767 Y125.112 E202.2244
G1 X191.970 Y124.780 E202.2406
G1 X192.120 Y124.417 E202.2570
G1 X192.212 Y124.034 E202.2734
G1 X192.241 Y123.666 E202.2887
G1 X192.241 Y81.805 E204.0291
G1 X192.281 Y81.553 E204.0397
G1 X192.375 Y81.368 E204.0483
G1 X192.522 Y81.222 E204.0569
G1 X192.706 Y81.128 E204.0655
G1 X192.958 Y81.088 E204.0761
G1 X201.436 Y81.088 E204.4286
G1 X201.688 Y81.128 E204.4392
G1 X201.873 Y81.222 E204.4478
G1 X202.019 Y81.368 E204.4565
G1 X202.113 Y81.553 E204.4651
G1 X202.153 Y81.805 E204.4757
G1 X202.153 Y88.670 E204.7611
G1 X202.113 Y88.922 E204.7717
G1 X202.019 Y89.106 E204.7803
G1 X201.873 Y89.253 E204.7889
G1 X201.688 Y89.347 E204.7975
G1 X201.439 Y89.387 E204.8080
G1 X198.285 Y89.387 E204.9392
G1 X197.916 Y89.416 E204.9545
G1 X197.534 Y89.508 E204.9709
G1 X197.170 Y89.658 E204.9872
G1 X196.831 Y89.867 E205.0038
G1 X196.536 Y90.119 E205.0199
G1 X196.280 Y90.418 E205.0363
G1 X196.075 Y90.754 E205.0526
G1 X195.924 Y91.117 E205.0690
G1 X195.832 Y91.500 E205.0854
G1 X195.803 Y91.869 E205.1007
G1 X195.803 Y123.666 E206.4227
G1 X195.832 Y124.034 E206.4381
G1 X195.924 Y124.417 E206.4545
G1 X196.076 Y124.783 E206.4709
G1 X196.280 Y125.117 E206.4872
G1 X196.536 Y125.416 E206.5035
G1 X196.835 Y125.671 E206.5199
G1 X197.171 Y125.876 E206.5362
G1 X197.538 Y126.028 E206.5528
G1 X197.916 Y126.119 E206.5689
G1 X198.285 Y126.148 E206.5843
G1 X230.082 Y126.148 E207.9063
G1 X230.451 Y126.119 E207.9217
G1 X230.833 Y126.027 E207.9380
G1 X231.197 Y125.876 E207.9544
G1 X231.532 Y125.671 E207.9707
G1 X231.831 Y125.415 E207.9871
G1 X232.087 Y125.116 E208.0035
G1 X232.292 Y124.781 E208.0198
G1 X232.443 Y124.417 E208.0362
G1 X232.535 Y124.034 E208.0525
G1 X232.564 Y123.666 E208.0679
G1 X232.564 Y82.440 E209.7819
G1 X232.604 Y82.188 E209.7925
G1 X232.698 Y82.003 E209.8011
G1 X232.844 Y81.857 E209.8097
G1 X233.029 Y81.763 E209.8183
G1 X233.279 Y81.723 E209.8288
G1 X235.409 Y81.723 E209.9174
G1 X235.661 Y81.763 E209.9280
G1 X235.845 Y81.857 E209.9366
G1 X235.991 Y82.003 E209.9452
G1 X236.086 Y82.188 E209.9538
G1 X236.126 Y82.440 E209.9644
G1 X236.126 Y123.937 E211.6897
G1 X236.053 Y124.859 E211.7281
G1 X235.842 Y125.736 E211.7656
G1 X235.497 Y126.569 E211.8031
G1 X235.026 Y127.338 E211.8406
G1 X234.440 Y128.024 E211.8781
G1 X233.754 Y128.610 E211.9156
G1 X232.985 Y129.081 E211.9531
G1 X232.152 Y129.426 E211.9906
G1 X231.275 Y129.637 E212.0281
G1 X230.352 Y129.709 E212.0666
G1 X173.536 Y129.709 E214.4287
G1 X173.536 Y126.148 E214.5768
G1 X174.036 Y126.148 E214.5976
G0 X173.896 Y127.279 F5400
;segType:HShell
G1 X175.966 Y129.349 E214.7193 F2400
G0 X175.400 Y129.349 F5400
G1 X173.896 Y127.845 E214.8077 F2400
G0 X173.896 Y128.411 F5400
G1 X174.834 Y129.349 E214.8629 F2400
G0 X174.269 Y129.349 F5400
G1 X173.896 Y128.976 E214.8848 F2400
G0 X178.229 Y129.349 F5400
G1 X175.387 Y126.508 E215.0518 F2400
G0 X175.953 Y126.508 F5400
G1 X178.794 Y129.349 E215.2189 F2400
G0 X179.360 Y129.349 F5400
G1 X176.519 Y126.508 E215.3859 F2400
G0 X177.084 Y126.508 F5400
G1 X179.926 Y129.349 E215.5530 F2400
G0 X180.491 Y129.349 F5400
G1 X177.650 Y126.508 E215.7200 F2400
G0 X178.216 Y126.508 F5400
G1 X181.057 Y129.349 E215.8871 F2400
G0 X181.623 Y129.349 F5400
G1 X178.781 Y126.508 E216.0541 F2400
G0 X179.347 Y126.508 F5400
G1 X182.188 Y129.349 E216.2212 F2400
G0 X182.754 Y129.349 F5400
G1 X179.913 Y126.508 E216.3882 F2400
G0 X180.478 Y126.508 F5400
G1 X183.320 Y129.349 E216.5553 F2400
G0 X183.885 Y129.349 F5400
G1 X181.044 Y126.508 E216.7223 F2400
G0 X181.610 Y126.508 F5400
G1 X184.451 Y129.349 E216.8894 F2400
G0 X185.017 Y129.349 F5400
G1 X182.176 Y126.508 E217.0565 F2400
G0 X182.741 Y126.508 F5400
G1 X185.582 Y129.349 E217.2235 F2400
G0 X186.148 Y129.349 F5400
G1 X183.307 Y126.508 E217.3906 F2400
G0 X183.873 Y126.508 F5400
G1 X186.714 Y129.349 E217.5576 F2400
G0 X187.280 Y129.349 F5400
G1 X184.438 Y126.508 E217.7247 F2400
G0 X185.004 Y126.508 F5400
G1 X187.845 Y129.349 E217.8917 F2400
G0 X188.411 Y129.349 F5400
G1 X185.570 Y126.508 E218.0588 F2400
G0 X186.135 Y126.508 F5400
G1 X188.977 Y129.349 E218.2258 F2400
G0 X189.542 Y129.349 F5400
G1 X186.701 Y126.508 E218.3929 F2400
G0 X187.267 Y126.508 F5400
G1 X190.108 Y129.349 E218.5599 F2400
G0 X190.674 Y129.349 F5400
G1 X187.832 Y126.508 E218.7270 F2400
G0 X188.398 Y126.508 F5400
G1 X191.239 Y129.349 E218.8940 F2400
G0 X191.805 Y129.349 F5400
G1 X188.964 Y126.508 E219.0611 F2400
G0 X189.529 Y126.508 F5400
G1 X192.371 Y129.349 E219.2281 F2400
G0 X192.936 Y129.349 F5400
G1 X190.071 Y126.484 E219.3966 F2400
G0 X190.543 Y126.389 F5400
G1 X193.502 Y129.349 E219.5706 F2400
G0 X194.068 Y129.349 F5400
G1 X190.952 Y126.234 E219.7538 F2400
G0 X191.313 Y126.029 F5400
G1 X194.633 Y129.349 E219.9490 F2400
G0 X195.199 Y129.349 F5400
G1 X191.633 Y125.783 E220.1587 F2400
G0 X191.912 Y125.497 F5400
G1 X195.765 Y129.349 E220.3852 F2400
G0 X196.331 Y129.349 F5400
G1 X192.153 Y125.171 E220.6308 F2400
G0 X192.350 Y124.803 F5400
G1 X196.896 Y129.349 E220.8981 F2400
G0 X197.462 Y129.349 F5400
G1 X192.498 Y124.385 E221.1900 F2400
G0 X192.584 Y123.905 F5400
G1 X198.028 Y129.349 E221.5100 F2400
G0 X198.593 Y129.349 F5400
G1 X192.601 Y123.357 E221.8623 F2400
G0 X192.601 Y122.791 F5400
G1 X199.159 Y129.349 E222.2479 F2400
G0 X199.725 Y129.349 F5400
G1 X192.601 Y122.226 E222.6667 F2400
G0 X192.601 Y121.660 F5400
G1 X195.659 Y124.717 E222.8465 F2400
G0 X195.465 Y123.958 F5400
G1 X192.601 Y121.094 E223.0148 F2400
G0 X192.601 Y120.529 F5400
G1 X195.443 Y123.370 E223.1819 F2400
G0 X195.443 Y122.805 F5400
G1 X192.601 Y119.963 E223.3490 F2400
G0 X192.601 Y119.397 F5400
G1 X195.443 Y122.239 E223.5160 F2400
G0 X195.443 Y121.673 F5400
G1 X192.601 Y118.832 E223.6831 F2400
G0 X192.601 Y118.266 F5400
G1 X195.443 Y121.108 E223.8502 F2400
G0 X195.443 Y120.542 F5400
G1 X192.601 Y117.700 E224.0172 F2400
G0 X192.601 Y117.135 F5400
G1 X195.443 Y119.976 E224.1843 F2400
G0 X195.443 Y119.411 F5400
G1 X192.601 Y116.569 E224.3514 F2400
G0 X192.601 Y116.003 F5400
G1 X195.443 Y118.845 E224.5184 F2400
G0 X195.443 Y118.279 F5400
G1 X192.601 Y115.438 E224.6855 F2400
G0 X192.601 Y114.872 F5400
G1 X195.443 Y117.713 E224.8526 F2400
G0 X195.443 Y117.148 F5400
G1 X192.601 Y114.306 E225.0197 F2400
G0 X192.601 Y113.741 F5400
G1 X195.443 Y116.582 E225.1867 F2400
G0 X195.443 Y116.016 F5400
G1 X192.601 Y113.175 E225.3538 F2400
G0 X192.601 Y112.609 F5400
G1 X195.443 Y115.451 E225.5209 F2400
G0 X195.443 Y114.885 F5400
G1 X192.601 Y112.043 E225.6879 F2400
G0 X192.601 Y111.478 F5400
G1 X195.443 Y114.319 E225.8550 F2400
G0 X195.443 Y113.754 F5400
G1 X192.601 Y110.912 E226.0221 F2400
G0 X192.601 Y110.346 F5400
G1 X195.443 Y113.188 E226.1891 F2400
G0 X195.443 Y112.622 F5400
G1 X192.601 Y109.781 E226.3562 F2400
G0 X192.601 Y109.215 F5400
G1 X195.443 Y112.057 E226.5233 F2400
G0 X195.443 Y111.491 F5400
G1 X192.601 Y108.649 E226.6903 F2400
G0 X192.601 Y108.084 F5400
G1 X195.443 Y110.925 E226.8574 F2400
G0 X195.443 Y110.360 F5400
G1 X192.601 Y107.518 E227.0245 F2400
G0 X192.601 Y106.952 F5400
G1 X195.443 Y109.794 E227.1915 F2400
G0 X195.443 Y109.228 F5400
G1 X192.601 Y106.387 E227.3586 F2400
G0 X192.601 Y105.821 F5400
G1 X195.443 Y108.663 E227.5257 F2400
G0 X195.443 Y108.097 F5400
G1 X192.601 Y105.255 E227.6927 F2400
G0 X192.601 Y104.690 F5400
G1 X195.443 Y107.531 E227.8598 F2400
G0 X195.443 Y106.965 F5400
G1 X192.601 Y104.124 E228.0269 F2400
G0 X192.601 Y103.558 F5400
G1 X195.443 Y106.400 E228.1940 F2400
G0 X195.443 Y105.834 F5400
G1 X192.601 Y102.993 E228.3610 F2400
G0 X192.601 Y102.427 F5400
G1 X195.443 Y105.268 E228.5281 F2400
G0 X195.443 Y104.703 F5400
G1 X192.601 Y101.861 E228.6952 F2400
G0 X192.601 Y101.295 F5400
G1 X195.443 Y104.137 E228.8622 F2400
G0 X195.443 Y103.571 F5400
G1 X192.601 Y100.730 E229.0293 F2400
G0 X192.601 Y100.164 F5400
G1 X195.443 Y103.006 E229.1964 F2400
G0 X195.443 Y102.440 F5400
G1 X192.601 Y99.598 E229.3634 F2400
G0 X192.601 Y99.033 F5400
G1 X195.443 Y101.874 E229.5305 F2400
G0 X195.443 Y101.309 F5400
G1 X192.601 Y98.467 E229.6976 F2400
G0 X192.601 Y97.901 F5400
G1 X195.443 Y100.743 E229.8646 F2400
G0 X195.443 Y100.177 F5400
G1 X192.601 Y97.336 E230.0317 F2400
G0 X192.601 Y96.770 F5400
G1 X195.443 Y99.612 E230.1988 F2400
G0 X195.443 Y99.046 F5400
G1 X192.601 Y96.204 E230.3658 F2400
G0 X192.601 Y95.639 F5400
G1 X195.443 Y98.480 E230.5329 F2400
G0 X195.443 Y97.914 F5400
G1 X192.601 Y95.073 E230.7000 F2400
G0 X192.601 Y94.507 F5400
G1 X195.443 Y97.349 E230.8670 F2400
G0 X195.443 Y96.783 F5400
G1 X192.601 Y93.942 E231.0341 F2400
G0 X192.601 Y93.376 F5400
G1 X195.443 Y96.217 E231.2012 F2400
G0 X195.443 Y95.652 F5400
G1 X192.601 Y92.810 E231.3683 F2400
G0 X192.601 Y92.244 F5400
G1 X195.443 Y95.086 E231.5353 F2400
G0 X195.443 Y94.520 F5400
G1 X192.601 Y91.679 E231.7024 F2400
G0 X192.601 Y91.113 F5400
G1 X195.443 Y93.955 E231.8695 F2400
G0 X195.443 Y93.389 F5400
G1 X192.601 Y90.547 E232.0365 F2400
G0 X192.601 Y89.982 F5400
G1 X195.443 Y92.823 E232.2036 F2400
G0 X195.443 Y92.258 F5400
G1 X192.601 Y89.416 E232.3707 F2400
G0 X192.601 Y88.850 F5400
G1 X195.455 Y91.704 E232.5384 F2400
G0 X195.530 Y91.214 F5400
G1 X192.601 Y88.285 E232.7107 F2400
G0 X192.601 Y87.719 F5400
G1 X195.671 Y90.788 E232.8911 F2400
G0 X195.861 Y90.413 F5400
G1 X192.601 Y87.153 E233.0828 F2400
G0 X192.601 Y86.588 F5400
G1 X196.095 Y90.081 E233.2882 F2400
G0 X196.368 Y89.789 F5400
G1 X192.601 Y86.022 E233.5096 F2400
G0 X192.601 Y85.456 F5400
G1 X196.681 Y89.536 E233.7495 F2400
G0 X197.035 Y89.324 F5400
G1 X192.601 Y84.891 E234.0102 F2400
G0 X192.601 Y84.325 F5400
G1 X197.437 Y89.160 E234.2945 F2400
G0 X197.898 Y89.056 F5400
G1 X192.601 Y83.759 E234.6059 F2400
G0 X192.601 Y83.194 F5400
G1 X198.434 Y89.027 E234.9489 F2400
G0 X199.000 Y89.027 F5400
G1 X192.601 Y82.628 E235.3251 F2400
G0 X192.601 Y82.062 F5400
G1 X199.566 Y89.027 E235.7346 F2400
G0 X200.132 Y89.027 F5400
G1 X192.682 Y81.577 E236.1726 F2400
G0 X193.119 Y81.448 F5400
G1 X200.697 Y89.027 E236.6181 F2400
G0 X201.263 Y89.027 F5400
G1 X193.684 Y81.448 E237.0637 F2400
G0 X194.250 Y81.448 F5400
G1 X201.689 Y88.887 E237.5011 F2400
G0 X201.793 Y88.425 F5400
G1 X194.816 Y81.448 E237.9113 F2400
G0 X195.382 Y81.448 F5400
G1 X201.793 Y87.860 E238.2883 F2400
G0 X201.793 Y87.294 F5400
G1 X195.947 Y81.448 E238.6320 F2400
G0 X196.513 Y81.448 F5400
G1 X201.793 Y86.728 E238.9424 F2400
G0 X201.793 Y86.162 F5400
G1 X197.079 Y81.448 E239.2196 F2400
G0 X197.644 Y81.448 F5400
G1 X201.793 Y85.597 E239.4635 F2400
G0 X201.793 Y85.031 F5400
G1 X198.210 Y81.448 E239.6742 F2400
G0 X198.776 Y81.448 F5400
G1 X201.793 Y84.465 E239.8516 F2400
G0 X201.793 Y83.900 F5400
G1 X199.341 Y81.448 E239.9958 F2400
G0 X199.907 Y81.448 F5400
G1 X201.793 Y83.334 E240.1066 F2400
G0 X201.793 Y82.768 F5400
G1 X200.473 Y81.448 E240.1843 F2400
G0 X201.038 Y81.448 F5400
G1 X201.793 Y82.203 E240.2286 F2400
G0 F3000 E239.2286
G0 X202.153 Y82.201 F5400
G0 X202.153 Y88.670
G0 X202.113 Y88.922
G0 X202.019 Y89.106
G0 X201.873 Y89.253
G0 X201.688 Y89.347
G0 X201.439 Y89.387
G0 X198.285 Y89.387
G0 X197.916 Y89.416
G0 X197.534 Y89.508
G0 X197.170 Y89.658
G0 X196.831 Y89.867
G0 X196.536 Y90.119
G0 X196.280 Y90.418
G0 X196.075 Y90.754
G0 X195.924 Y91.117
G0 X195.832 Y91.500
G0 X195.803 Y91.869
G0 X195.803 Y123.666
G0 X195.832 Y124.034
G0 X195.924 Y124.417
G0 X196.076 Y124.783
G0 X196.280 Y125.117
G0 X196.536 Y125.416
G0 X196.835 Y125.671
G0 X197.171 Y125.876
G0 X197.538 Y126.028
G0 X197.916 Y126.119
G0 X198.285 Y126.148
G0 X230.082 Y126.148
G0 X230.451 Y126.119
G0 X230.833 Y126.027
G0 X231.197 Y125.876
G0 X231.532 Y125.671
G0 X231.831 Y125.415
G0 X232.087 Y125.116
G0 X232.292 Y124.781
G0 X232.443 Y124.417
G0 X232.535 Y124.034
G0 X232.564 Y123.666
G0 X232.564 Y82.440
G0 X232.604 Y82.188
G0 X232.653 Y82.092
G0 X235.049 Y82.083
G0 F3000 E240.2286
G1 X235.765 Y82.800 E240.2707 F2400
G0 X235.765 Y83.365 F5400
G1 X234.483 Y82.083 E240.3461 F2400
G0 X233.917 Y82.083 F5400
G1 X235.765 Y83.931 E240.4548 F2400
G0 X235.765 Y84.497 F5400
G1 X233.352 Y82.083 E240.5967 F2400
G0 X232.969 Y82.266 F5400
G1 X235.765 Y85.062 E240.7612 F2400
G0 X235.765 Y85.628 F5400
G1 X232.924 Y82.787 E240.9282 F2400
G0 X232.924 Y83.352 F5400
G1 X235.765 Y86.194 E241.0953 F2400
G0 X235.765 Y86.760 F5400
G1 X232.924 Y83.918 E241.2624 F2400
G0 X232.924 Y84.484 F5400
G1 X235.765 Y87.325 E241.4294 F2400
G0 X235.765 Y87.891 F5400
G1 X232.924 Y85.049 E241.5965 F2400
G0 X232.924 Y85.615 F5400
G1 X235.765 Y88.457 E241.7636 F2400
G0 X235.765 Y89.022 F5400
G1 X232.924 Y86.181 E241.9306 F2400
G0 X232.924 Y86.746 F5400
G1 X235.765 Y89.588 E242.0977 F2400
G0 X235.765 Y90.154 F5400
G1 X232.924 Y87.312 E242.2648 F2400
G0 X232.924 Y87.878 F5400
G1 X235.765 Y90.719 E242.4318 F2400
G0 X235.765 Y91.285 F5400
G1 X232.924 Y88.444 E242.5989 F2400
G0 X232.924 Y89.009 F5400
G1 X235.765 Y91.851 E242.7660 F2400
G0 X235.765 Y92.416 F5400
G1 X232.924 Y89.575 E242.9330 F2400
G0 X232.924 Y90.141 F5400
G1 X235.765 Y92.982 E243.1001 F2400
G0 X235.765 Y93.548 F5400
G1 X232.924 Y90.706 E243.2672 F2400
G0 X232.924 Y91.272 F5400
G1 X235.765 Y94.113 E243.4342 F2400
G0 X235.765 Y94.679 F5400
G1 X232.924 Y91.838 E243.6013 F2400
G0 X232.924 Y92.403 F5400
G1 X235.765 Y95.245 E243.7684 F2400
G0 X235.765 Y95.811 F5400
G1 X232.924 Y92.969 E243.9355 F2400
G0 X232.924 Y93.535 F5400
G1 X235.765 Y96.376 E244.1025 F2400
G0 X235.765 Y96.942 F5400
G1 X232.924 Y94.100 E244.2696 F2400
G0 X232.924 Y94.666 F5400
G1 X235.765 Y97.508 E244.4367 F2400
G0 X235.765 Y98.073 F5400
G1 X232.924 Y95.232 E244.6037 F2400
G0 X232.924 Y95.797 F5400
G1 X235.765 Y98.639 E244.7708 F2400
G0 X235.765 Y99.205 F5400
G1 X232.924 Y96.363 E244.9379 F2400
G0 X232.924 Y96.929 F5400
G1 X235.765 Y99.770 E245.1049 F2400
G0 X235.765 Y100.336 F5400
G1 X232.924 Y97.495 E245.2720 F2400
G0 X232.924 Y98.060 F5400
G1 X235.765 Y100.902 E245.4391 F2400
G0 X235.765 Y101.467 F5400
G1 X232.924 Y98.626 E245.6061 F2400
G0 X232.924 Y99.192 F5400
G1 X235.765 Y102.033 E245.7732 F2400
G0 X235.765 Y102.599 F5400
G1 X232.924 Y99.757 E245.9403 F2400
G0 X232.924 Y100.323 F5400
G1 X235.765 Y103.164 E246.1073 F2400
G0 X235.765 Y103.730 F5400
G1 X232.924 Y100.889 E246.2744 F2400
G0 X232.924 Y101.454 F5400
G1 X235.765 Y104.296 E246.4415 F2400
G0 X235.765 Y104.861 F5400
G1 X232.924 Y102.020 E246.6085 F2400
G0 X232.924 Y102.586 F5400
G1 X235.765 Y105.427 E246.7756 F2400
G0 X235.765 Y105.993 F5400
G1 X232.924 Y103.151 E246.9427 F2400
G0 X232.924 Y103.717 F5400
G1 X235.765 Y106.559 E247.1098 F2400
G0 X235.765 Y107.124 F5400
G1 X232.924 Y104.283 E247.2768 F2400
G0 X232.924 Y104.848 F5400
G1 X235.765 Y107.690 E247.4439 F2400
G0 X235.765 Y108.256 F5400
G1 X232.924 Y105.414 E247.6110 F2400
G0 X232.924 Y105.980 F5400
G1 X235.765 Y108.821 E247.7780 F2400
G0 X235.765 Y109.387 F5400
G1 X232.924 Y106.545 E247.9451 F2400
G0 X232.924 Y107.111 F5400
G1 X235.765 Y109.953 E248.1122 F2400
G0 X235.765 Y110.518 F5400
G1 X232.924 Y107.677 E248.2792 F2400
G0 X232.924 Y108.243 F5400
G1 X235.765 Y111.084 E248.4463 F2400
G0 X235.765 Y111.650 F5400
G1 X232.924 Y108.808 E248.6134 F2400
G0 X232.924 Y109.374 F5400
G1 X235.765 Y112.215 E248.7804 F2400
G0 X235.765 Y112.781 F5400
G1 X232.924 Y109.940 E248.9475 F2400
G0 X232.924 Y110.505 F5400
G1 X235.765 Y113.347 E249.1146 F2400
G0 X235.765 Y113.912 F5400
G1 X232.924 Y111.071 E249.2816 F2400
G0 X232.924 Y111.637 F5400
G1 X235.765 Y114.478 E249.4487 F2400
G0 X235.765 Y115.044 F5400
G1 X232.924 Y112.202 E249.6158 F2400
G0 X232.924 Y112.768 F5400
G1 X235.765 Y115.610 E249.7828 F2400
G0 X235.765 Y116.175 F5400
G1 X232.924 Y113.334 E249.9499 F2400
G0 X232.924 Y113.899 F5400
G1 X235.765 Y116.741 E250.1170 F2400
G0 X235.765 Y117.307 F5400
G1 X232.924 Y114.465 E250.2841 F2400
G0 X232.924 Y115.031 F5400
G1 X235.765 Y117.872 E250.4511 F2400
G0 X235.765 Y118.438 F5400
G1 X232.924 Y115.596 E250.6182 F2400
G0 X232.924 Y116.162 F5400
G1 X235.765 Y119.004 E250.7853 F2400
G0 X235.765 Y119.569 F5400
G1 X232.924 Y116.728 E250.9523 F2400
G0 X232.924 Y117.293 F5400
G1 X235.765 Y120.135 E251.1194 F2400
G0 X235.765 Y120.701 F5400
G1 X232.924 Y117.859 E251.2865 F2400
G0 X232.924 Y118.425 F5400
G1 X235.765 Y121.266 E251.4535 F2400
G0 X235.765 Y121.832 F5400
G1 X232.924 Y118.991 E251.6206 F2400
G0 X232.924 Y119.556 F5400
G1 X235.765 Y122.398 E251.7877 F2400
G0 X235.765 Y122.963 F5400
G1 X232.924 Y120.122 E251.9547 F2400
G0 X232.924 Y120.688 F5400
G1 X235.765 Y123.529 E252.1218 F2400
G0 X235.753 Y124.082 F5400
G1 X232.924 Y121.253 E252.2881 F2400
G0 X232.924 Y121.819 F5400
G1 X235.711 Y124.607 E252.4520 F2400
G0 X235.627 Y125.088 F5400
G1 X232.924 Y122.385 E252.6110 F2400
G0 X232.924 Y122.950 F5400
G1 X235.518 Y125.544 E252.7635 F2400
G0 X235.362 Y125.954 F5400
G1 X232.924 Y123.516 E252.9069 F2400
G0 X232.895 Y124.052 F5400
G1 X235.196 Y126.354 E253.0422 F2400
G0 X234.988 Y126.711 F5400
G1 X232.790 Y124.514 E253.1714 F2400
G0 X232.626 Y124.915 F5400
G1 X234.773 Y127.062 E253.2976 F2400
G0 X234.521 Y127.375 F5400
G1 X232.415 Y125.270 E253.4214 F2400
G0 X232.162 Y125.583 F5400
G1 X234.260 Y127.680 E253.5448 F2400
G0 X233.968 Y127.954 F5400
G1 X231.870 Y125.856 E253.6681 F2400
G0 X231.538 Y126.090 F5400
G1 X233.663 Y128.214 E253.7931 F2400
G0 X233.330 Y128.447 F5400
G1 X231.163 Y126.280 E253.9205 F2400
G0 X230.737 Y126.420 F5400
G1 X232.979 Y128.662 E254.0523 F2400
G0 X232.601 Y128.850 F5400
G1 X230.247 Y126.496 E254.1907 F2400
G0 X229.693 Y126.508 F5400
G1 X232.201 Y129.016 E254.3382 F2400
G0 X231.768 Y129.148 F5400
G1 X229.127 Y126.508 E254.4935 F2400
G0 X228.562 Y126.508 F5400
G1 X231.312 Y129.258 E254.6551 F2400
G0 X230.801 Y129.313 F5400
G1 X227.996 Y126.508 E254.8201 F2400
G0 X227.430 Y126.508 F5400
G1 X230.272 Y129.349 E254.9871 F2400
G0 X229.706 Y129.349 F5400
G1 X226.865 Y126.508 E255.1542 F2400
G0 X226.299 Y126.508 F5400
G1 X229.140 Y129.349 E255.3212 F2400
G0 X228.575 Y129.349 F5400
G1 X225.733 Y126.508 E255.4883 F2400
G0 X225.168 Y126.508 F5400
G1 X228.009 Y129.349 E255.6553 F2400
G0 X227.443 Y129.349 F5400
G1 X224.602 Y126.508 E255.8224 F2400
G0 X224.036 Y126.508 F5400
G1 X226.878 Y129.349 E255.9894 F2400
G0 X226.312 Y129.349 F5400
G1 X223.471 Y126.508 E256.1565 F2400
G0 X222.905 Y126.508 F5400
G1 X225.746 Y129.349 E256.3236 F2400
G0 X225.180 Y129.349 F5400
G1 X222.339 Y126.508 E256.4906 F2400
G0 X221.773 Y126.508 F5400
G1 X224.615 Y129.349 E256.6577 F2400
G0 X224.049 Y129.349 F5400
G1 X221.208 Y126.508 E256.8247 F2400
G0 X220.642 Y126.508 F5400
G1 X223.483 Y129.349 E256.9918 F2400
G0 X222.918 Y129.349 F5400
G1 X220.076 Y126.508 E257.1588 F2400
G0 X219.511 Y126.508 F5400
G1 X222.352 Y129.349 E257.3259 F2400
G0 X221.786 Y129.349 F5400
G1 X218.945 Y126.508 E257.4929 F2400
G0 X218.379 Y126.508 F5400
G1 X221.221 Y129.349 E257.6600 F2400
G0 X220.655 Y129.349 F5400
G1 X217.814 Y126.508 E257.8270 F2400
G0 X217.248 Y126.508 F5400
G1 X220.089 Y129.349 E257.9941 F2400
G0 X219.524 Y129.349 F5400
G1 X216.682 Y126.508 E258.1611 F2400
G0 X216.117 Y126.508 F5400
G1 X218.958 Y129.349 E258.3282 F2400
G0 X218.392 Y129.349 F5400
G1 X215.551 Y126.508 E258.4953 F2400
G0 X214.985 Y126.508 F5400
G1 X217.827 Y129.349 E258.6623 F2400
G0 X217.261 Y129.349 F5400
G1 X214.420 Y126.508 E258.8294 F2400
G0 X213.854 Y126.508 F5400
G1 X216.695 Y129.349 E258.9964 F2400
G0 X216.129 Y129.349 F5400
G1 X213.288 Y126.508 E259.1635 F2400
G0 X212.723 Y126.508 F5400
G1 X215.564 Y129.349 E259.3305 F2400
G0 X214.998 Y129.349 F5400
G1 X212.157 Y126.508 E259.4976 F2400
G0 X211.591 Y126.508 F5400
G1 X214.432 Y129.349 E259.6646 F2400
G0 X213.867 Y129.349 F5400
G1 X211.025 Y126.508 E259.8317 F2400
G0 X210.460 Y126.508 F5400
G1 X213.301 Y129.349 E259.9987 F2400
G0 X212.735 Y129.349 F5400
G1 X209.894 Y126.508 E260.1658 F2400
G0 X209.328 Y126.508 F5400
G1 X212.170 Y129.349 E260.3328 F2400
G0 X211.604 Y129.349 F5400
G1 X208.763 Y126.508 E260.4999 F2400
G0 X208.197 Y126.508 F5400
G1 X211.038 Y129.349 E260.6669 F2400
G0 X210.473 Y129.349 F5400
G1 X207.631 Y126.508 E260.8340 F2400
G0 X207.066 Y126.508 F5400
G1 X209.907 Y129.349 E261.0011 F2400
G0 X209.341 Y129.349 F5400
G1 X206.500 Y126.508 E261.1681 F2400
G0 X205.934 Y126.508 F5400
G1 X208.776 Y129.349 E261.3352 F2400
G0 X208.210 Y129.349 F5400
G1 X205.369 Y126.508 E261.5022 F2400
G0 X204.803 Y126.508 F5400
G1 X207.644 Y129.349 E261.6693 F2400
G0 X207.079 Y129.349 F5400
G1 X204.237 Y126.508 E261.8363 F2400
G0 X203.672 Y126.508 F5400
G1 X206.513 Y129.349 E262.0034 F2400
G0 X205.947 Y129.349 F5400
G1 X203.106 Y126.508 E262.1704 F2400
G0 X202.540 Y126.508 F5400
G1 X205.381 Y129.349 E262.3375 F2400
G0 X204.816 Y129.349 F5400
G1 X201.974 Y126.508 E262.5045 F2400
G0 X201.409 Y126.508 F5400
G1 X204.250 Y129.349 E262.6716 F2400
G0 X203.684 Y129.349 F5400
G1 X200.843 Y126.508 E262.8386 F2400
G0 X200.277 Y126.508 F5400
G1 X203.119 Y129.349 E263.0057 F2400
G0 X202.553 Y129.349 F5400
G1 X199.712 Y126.508 E263.1727 F2400
G0 X199.146 Y126.508 F5400
G1 X201.987 Y129.349 E263.3398 F2400
G0 X201.422 Y129.349 F5400
G1 X198.580 Y126.508 E263.5068 F2400
G0 X197.993 Y126.486 F5400
G1 X200.856 Y129.349 E263.6752 F2400
G0 X200.290 Y129.349 F5400
G1 X197.233 Y126.292 E263.8549 F2400
G0 F3000 E262.8549
G0 X197.291 Y125.926 F5400
G0 X196.686 Y129.709
G0 X194.893 Y140.922
G0 F3000 E263.8549
G1 X192.052 Y138.081 E264.0220 F2400
G0 X192.052 Y138.647 F5400
G1 X194.893 Y141.488 E264.1891 F2400
G0 X194.893 Y142.054 F5400
G1 X192.052 Y139.212 E264.3562 F2400
G0 X192.032 Y138.815 F5400
;segType:Perimeter
G1 X191.232 Y138.815 E264.3894 F1439
G1 X172.587 Y138.815 E265.1646
G1 X172.587 Y134.453 E265.3460
G1 X229.819 Y134.453 E267.7254
G1 X230.788 Y134.529 E267.7658
G1 X231.726 Y134.755 E267.8060
G1 X232.618 Y135.124 E267.8461
G1 X233.440 Y135.628 E267.8862
G1 X234.174 Y136.255 E267.9263
G1 X234.801 Y136.988 E267.9664
G1 X235.305 Y137.811 E268.0065
G1 X235.674 Y138.702 E268.0466
G1 X235.900 Y139.641 E268.0867
G1 X235.976 Y140.610 E268.1272
G1 X235.976 Y182.154 E269.8544
G1 X235.921 Y182.500 E269.8689
G1 X235.770 Y182.797 E269.8828
G1 X235.533 Y183.033 E269.8967
G1 X235.236 Y183.185 E269.9106
G1 X234.891 Y183.239 E269.9251
G1 X232.699 Y183.239 E270.0162
G1 X232.354 Y183.185 E270.0307
G1 X232.057 Y183.033 E270.0446
G1 X231.820 Y182.797 E270.0585
G1 X231.669 Y182.500 E270.0724
G1 X231.614 Y182.156 E270.0868
G1 X231.614 Y140.912 E271.8015
G1 X231.589 Y140.591 E271.8150
G1 X231.512 Y140.269 E271.8287
G1 X231.385 Y139.964 E271.8425
G1 X231.212 Y139.682 E271.8562
G1 X230.998 Y139.431 E271.8699
G1 X230.747 Y139.216 E271.8836
G1 X230.465 Y139.044 E271.8974
G1 X230.159 Y138.917 E271.9111
G1 X229.838 Y138.840 E271.9249
G1 X229.517 Y138.815 E271.9383
G1 X197.751 Y138.815 E273.2590
G1 X197.429 Y138.840 E273.2724
G1 X197.108 Y138.917 E273.2861
G1 X196.802 Y139.044 E273.2999
G1 X196.518 Y139.219 E273.3138
G1 X196.270 Y139.431 E273.3273
G1 X196.055 Y139.682 E273.3410
G1 X195.882 Y139.964 E273.3548
G1 X195.756 Y140.269 E273.3685
G1 X195.679 Y140.591 E273.3823
G1 X195.653 Y140.912 E273.3957
G1 X195.653 Y172.678 E274.7164
G1 X195.679 Y172.999 E274.7297
G1 X195.756 Y173.321 E274.7435
G1 X195.882 Y173.626 E274.7572
G1 X196.055 Y173.908 E274.7709
G1 X196.270 Y174.159 E274.7847
G1 X196.521 Y174.374 E274.7984
G1 X196.802 Y174.547 E274.8121
G1 X197.108 Y174.673 E274.8259
G1 X197.429 Y174.750 E274.8396
G1 X197.751 Y174.776 E274.8530
G1 X200.918 Y174.776 E274.9847
G1 X201.263 Y174.830 E274.9992
G1 X201.561 Y174.982 E275.0131
G1 X201.797 Y175.218 E275.0270
G1 X201.949 Y175.515 E275.0409
G1 X202.003 Y175.858 E275.0553
G1 X202.003 Y182.789 E275.3435
G1 X201.949 Y183.134 E275.3580
G1 X201.797 Y183.432 E275.3719
G1 X201.561 Y183.668 E275.3858
G1 X201.263 Y183.820 E275.3997
G1 X200.918 Y183.874 E275.4142
G1 X192.377 Y183.874 E275.7693
G1 X192.032 Y183.820 E275.7839
G1 X191.734 Y183.668 E275.7977
G1 X191.498 Y183.432 E275.8116
G1 X191.346 Y183.133 E275.8255
G1 X191.292 Y182.789 E275.8400
G1 X191.292 Y138.875 E277.6658
G0 X191.692 Y139.042 F5400
G0 X191.692 Y138.415
G0 X190.192 Y138.415
G0 X190.192 Y138.415
;segType:Loop
G1 X172.987 Y138.415 E278.3811 F2400
G1 X172.987 Y134.853 E278.5292
G1 X229.803 Y134.853 E280.8913
G1 X230.725 Y134.926 E280.9298
G1 X231.603 Y135.136 E280.9673
G1 X232.435 Y135.481 E281.0047
G1 X233.205 Y135.953 E281.0422
G1 X233.891 Y136.539 E281.0798
G1 X234.476 Y137.224 E281.1172
G1 X234.948 Y137.993 E281.1547
G1 X235.293 Y138.826 E281.1922
G1 X235.503 Y139.703 E281.2297
G1 X235.576 Y140.626 E281.2682
G1 X235.576 Y182.123 E282.9935
G1 X235.536 Y182.375 E283.0041
G1 X235.442 Y182.559 E283.0127
G1 X235.295 Y182.705 E283.0213
G1 X235.111 Y182.800 E283.0299
G1 X234.859 Y182.839 E283.0405
G1 X232.731 Y182.839 E283.1289
G1 X232.479 Y182.800 E283.1395
G1 X232.295 Y182.705 E283.1481
G1 X232.148 Y182.559 E283.1568
G1 X232.054 Y182.374 E283.1654
G1 X232.014 Y182.125 E283.1759
G1 X232.014 Y140.897 E284.8899
G1 X231.985 Y140.528 E284.9053
G1 X231.893 Y140.146 E284.9216
G1 X231.743 Y139.782 E284.9380
G1 X231.537 Y139.446 E284.9544
G1 X231.282 Y139.147 E284.9707
G1 X230.983 Y138.892 E284.9871
G1 X230.647 Y138.686 E285.0035
G1 X230.283 Y138.535 E285.0198
G1 X229.901 Y138.444 E285.0361
G1 X229.533 Y138.415 E285.0515
G1 X197.735 Y138.415 E286.3735
G1 X197.366 Y138.444 E286.3889
G1 X196.984 Y138.535 E286.4053
G1 X196.620 Y138.686 E286.4216
G1 X196.281 Y138.895 E286.4382
G1 X195.986 Y139.147 E286.4544
G1 X195.731 Y139.446 E286.4707
G1 X195.525 Y139.782 E286.4871
G1 X195.374 Y140.145 E286.5034
G1 X195.282 Y140.528 E286.5198
G1 X195.253 Y140.896 E286.5352
G1 X195.253 Y172.694 E287.8572
G1 X195.282 Y173.062 E287.8725
G1 X195.374 Y173.445 E287.8889
G1 X195.525 Y173.809 E287.9052
G1 X195.730 Y174.144 E287.9216
G1 X195.986 Y174.443 E287.9379
G1 X196.285 Y174.699 E287.9543
G1 X196.620 Y174.904 E287.9707
G1 X196.984 Y175.055 E287.9870
G1 X197.367 Y175.147 E288.0034
G1 X197.735 Y175.176 E288.0187
G1 X200.887 Y175.176 E288.1497
G1 X201.138 Y175.215 E288.1603
G1 X201.323 Y175.309 E288.1689
G1 X201.469 Y175.456 E288.1775
G1 X201.564 Y175.641 E288.1862
G1 X201.603 Y175.890 E288.1967
G1 X201.603 Y182.757 E288.4822
G1 X201.563 Y183.009 E288.4928
G1 X201.469 Y183.194 E288.5014
G1 X201.323 Y183.340 E288.5100
G1 X201.138 Y183.434 E288.5187
G1 X200.886 Y183.474 E288.5292
G1 X192.408 Y183.474 E288.8817
G1 X192.157 Y183.434 E288.8923
G1 X191.972 Y183.340 E288.9009
G1 X191.826 Y183.194 E288.9095
G1 X191.731 Y183.008 E288.9182
G1 X191.692 Y182.758 E288.9288
G1 X191.692 Y138.415 E290.7723
G1 X190.392 Y138.415 E290.8264
G0 X192.025 Y138.054 F5400
;segType:HShell
G1 X189.184 Y135.213 E290.9934 F2400
G0 X188.618 Y135.213 F5400
G1 X191.459 Y138.054 E291.1605 F2400
G0 X190.894 Y138.054 F5400
G1 X188.053 Y135.213 E291.3275 F2400
G0 X187.487 Y135.213 F5400
G1 X190.328 Y138.054 E291.4946 F2400
G0 X189.762 Y138.054 F5400
G1 X186.921 Y135.213 E291.6616 F2400
G0 X186.355 Y135.213 F5400
G1 X189.197 Y138.054 E291.8287 F2400
G0 X188.631 Y138.054 F5400
G1 X185.790 Y135.213 E291.9957 F2400
G0 X185.224 Y135.213 F5400
G1 X188.065 Y138.054 E292.1628 F2400
G0 X187.500 Y138.054 F5400
G1 X184.658 Y135.213 E292.3298 F2400
G0 X184.093 Y135.213 F5400
G1 X186.934 Y138.054 E292.4969 F2400
G0 X186.368 Y138.054 F5400
G1 X183.527 Y135.213 E292.6640 F2400
G0 X182.961 Y135.213 F5400
G1 X185.803 Y138.054 E292.8310 F2400
G0 X185.237 Y138.054 F5400
G1 X182.396 Y135.213 E292.9981 F2400
G0 X181.830 Y135.213 F5400
G1 X184.671 Y138.054 E293.1651 F2400
G0 X184.106 Y138.054 F5400
G1 X181.264 Y135.213 E293.3322 F2400
G0 X180.699 Y135.213 F5400
G1 X183.540 Y138.054 E293.4992 F2400
G0 X182.974 Y138.054 F5400
G1 X180.133 Y135.213 E293.6663 F2400
G0 X179.567 Y135.213 F5400
G1 X182.409 Y138.054 E293.8333 F2400
G0 X181.843 Y138.054 F5400
G1 X179.002 Y135.213 E294.0004 F2400
G0 X178.436 Y135.213 F5400
G1 X181.277 Y138.054 E294.1674 F2400
G0 X180.711 Y138.054 F5400
G1 X177.870 Y135.213 E294.3345 F2400
G0 X177.304 Y135.213 F5400
G1 X180.146 Y138.054 E294.5015 F2400
G0 X179.580 Y138.054 F5400
G1 X176.739 Y135.213 E294.6686 F2400
G0 X176.173 Y135.213 F5400
G1 X179.014 Y138.054 E294.8356 F2400
G0 X178.449 Y138.054 F5400
G1 X175.607 Y135.213 E295.0027 F2400
G0 X175.042 Y135.213 F5400
G1 X177.883 Y138.054 E295.1698 F2400
G0 X177.317 Y138.054 F5400
G1 X174.476 Y135.213 E295.3368 F2400
G0 X173.910 Y135.213 F5400
G1 X176.752 Y138.054 E295.5039 F2400
G0 X176.186 Y138.054 F5400
G1 X173.347 Y135.215 E295.6708 F2400
G0 X173.347 Y135.781 F5400
G1 X175.620 Y138.054 E295.8045 F2400
G0 X175.055 Y138.054 F5400
G1 X173.347 Y136.347 E295.9049 F2400
G0 X173.347 Y136.912 F5400
G1 X174.489 Y138.054 E295.9721 F2400
G0 X173.923 Y138.054 F5400
G1 X173.347 Y137.478 E296.0060 F2400
G0 F3000 E295.0060
G0 X172.987 Y136.979 F5400
G0 X174.023 Y138.415
G0 X174.023 Y138.415
G0 X191.692 Y138.415
G0 X191.692 Y162.891
G0 X191.692 Y162.891
G0 X195.253 Y167.825
G0 X195.253 Y167.825
G0 X195.253 Y172.694
G0 X195.282 Y173.062
G0 X195.374 Y173.445
G0 X195.525 Y173.809
G0 X195.730 Y174.144
G0 X195.986 Y174.443
G0 X196.285 Y174.699
G0 X196.620 Y174.904
G0 X196.984 Y175.055
G0 X197.367 Y175.147
G0 X197.735 Y175.176
G0 X200.560 Y175.176
G0 X200.560 Y175.176
G0 X201.603 Y176.621
G0 X201.243 Y176.122
G0 F3000 E296.0060
G1 X200.656 Y175.536 E296.0404 F2400
G0 X200.091 Y175.536 F5400
G1 X201.243 Y176.688 E296.1082 F2400
G0 X201.243 Y177.254 F5400
G1 X199.525 Y175.536 E296.2092 F2400
G0 X198.959 Y175.536 F5400
G1 X201.243 Y177.819 E296.3435 F2400
G0 X201.243 Y178.385 F5400
G1 X198.394 Y175.536 E296.5110 F2400
G0 X197.828 Y175.536 F5400
G1 X201.243 Y178.951 E296.7118 F2400
G0 X201.243 Y179.516 F5400
G1 X197.205 Y175.478 E296.9493 F2400
G0 X196.277 Y175.116 F5400
G1 X201.243 Y180.082 E297.2413 F2400
G0 X201.243 Y180.648 F5400
G1 X192.052 Y171.456 E297.7817 F2400
G0 X192.052 Y172.022 F5400
G1 X201.243 Y181.214 E298.3222 F2400
G0 X201.243 Y181.779 F5400
G1 X192.052 Y172.588 E298.8626 F2400
G0 X192.052 Y173.153 F5400
G1 X201.243 Y182.345 E299.4030 F2400
G0 X201.218 Y182.886 F5400
G1 X192.052 Y173.719 E299.9420 F2400
G0 X192.052 Y174.285 F5400
G1 X200.878 Y183.111 E300.4610 F2400
G0 X200.315 Y183.114 F5400
G1 X192.052 Y174.850 E300.9468 F2400
G0 X192.052 Y175.416 F5400
G1 X199.750 Y183.114 E301.3994 F2400
G0 X199.184 Y183.114 F5400
G1 X192.052 Y175.982 E301.8188 F2400
G0 X192.052 Y176.548 F5400
G1 X198.618 Y183.114 E302.2049 F2400
G0 X198.053 Y183.114 F5400
G1 X192.052 Y177.113 E302.5578 F2400
G0 X192.052 Y177.679 F5400
G1 X197.487 Y183.114 E302.8773 F2400
G0 X196.921 Y183.114 F5400
G1 X192.052 Y178.245 E303.1636 F2400
G0 X192.052 Y178.810 F5400
G1 X196.356 Y183.114 E303.4167 F2400
G0 X195.790 Y183.114 F5400
G1 X192.052 Y179.376 E303.6365 F2400
G0 X192.052 Y179.942 F5400
G1 X195.224 Y183.114 E303.8230 F2400
G0 X194.658 Y183.114 F5400
G1 X192.052 Y180.507 E303.9763 F2400
G0 X192.052 Y181.073 F5400
G1 X194.093 Y183.114 E304.0963 F2400
G0 X193.527 Y183.114 F5400
G1 X192.052 Y181.639 E304.1830 F2400
G0 X192.052 Y182.204 F5400
G1 X192.961 Y183.114 E304.2365 F2400
G0 X192.388 Y183.106 F5400
G1 X192.059 Y182.778 E304.2558 F2400
G0 X192.052 Y170.891 F5400
G1 X195.313 Y174.152 E304.4476 F2400
G0 X194.951 Y173.224 F5400
G1 X192.052 Y170.325 E304.6181 F2400
G0 X192.052 Y169.759 F5400
G1 X194.893 Y172.601 E304.7851 F2400
G0 X194.893 Y172.035 F5400
G1 X192.052 Y169.194 E304.9522 F2400
G0 X192.052 Y168.628 F5400
G1 X194.893 Y171.470 E305.1193 F2400
G0 X194.893 Y170.904 F5400
G1 X192.052 Y168.062 E305.2864 F2400
G0 X192.052 Y167.497 F5400
G1 X194.893 Y170.338 E305.4535 F2400
G0 X194.893 Y169.772 F5400
G1 X192.052 Y166.931 E305.6206 F2400
G0 X192.052 Y166.365 F5400
G1 X194.893 Y169.207 E305.7876 F2400
G0 X194.893 Y168.641 F5400
G1 X192.052 Y165.799 E305.9547 F2400
G0 X192.052 Y165.234 F5400
G1 X194.893 Y168.075 E306.1218 F2400
G0 X194.893 Y167.510 F5400
G1 X192.052 Y164.668 E306.2889 F2400
G0 X192.052 Y164.102 F5400
G1 X194.893 Y166.944 E306.4560 F2400
G0 X194.893 Y166.378 F5400
G1 X192.052 Y163.537 E306.6231 F2400
G0 X192.052 Y162.971 F5400
G1 X194.893 Y165.813 E306.7901 F2400
G0 X194.893 Y165.247 F5400
G1 X192.052 Y162.405 E306.9572 F2400
G0 X192.052 Y161.840 F5400
G1 X194.893 Y164.681 E307.1243 F2400
G0 X194.893 Y164.116 F5400
G1 X192.052 Y161.274 E307.2914 F2400
G0 X192.052 Y160.708 F5400
G1 X194.893 Y163.550 E307.4585 F2400
G0 X194.893 Y162.984 F5400
G1 X192.052 Y160.143 E307.6256 F2400
G0 X192.052 Y159.577 F5400
G1 X194.893 Y162.419 E307.7926 F2400
G0 X194.893 Y161.853 F5400
G1 X192.052 Y159.011 E307.9597 F2400
G0 X192.052 Y158.446 F5400
G1 X194.893 Y161.287 E308.1268 F2400
G0 X194.893 Y160.721 F5400
G1 X192.052 Y157.880 E308.2939 F2400
G0 X192.052 Y157.314 F5400
G1 X194.893 Y160.156 E308.4610 F2400
G0 X194.893 Y159.590 F5400
G1 X192.052 Y156.749 E308.6281 F2400
G0 X192.052 Y156.183 F5400
G1 X194.893 Y159.024 E308.7951 F2400
G0 X194.893 Y158.459 F5400
G1 X192.052 Y155.617 E308.9622 F2400
G0 X192.052 Y155.051 F5400
G1 X194.893 Y157.893 E309.1293 F2400
G0 X194.893 Y157.327 F5400
G1 X192.052 Y154.486 E309.2964 F2400
G0 X192.052 Y153.920 F5400
G1 X194.893 Y156.762 E309.4635 F2400
G0 X194.893 Y156.196 F5400
G1 X192.052 Y153.354 E309.6306 F2400
G0 X192.052 Y152.789 F5400
G1 X194.893 Y155.630 E309.7977 F2400
G0 X194.893 Y155.065 F5400
G1 X192.052 Y152.223 E309.9647 F2400
G0 X192.052 Y151.657 F5400
G1 X194.893 Y154.499 E310.1318 F2400
G0 X194.893 Y153.933 F5400
G1 X192.052 Y151.092 E310.2989 F2400
G0 X192.052 Y150.526 F5400
G1 X194.893 Y153.368 E310.4660 F2400
G0 X194.893 Y152.802 F5400
G1 X192.052 Y149.960 E310.6331 F2400
G0 X192.052 Y149.395 F5400
G1 X194.893 Y152.236 E310.8002 F2400
G0 X194.893 Y151.671 F5400
G1 X192.052 Y148.829 E310.9672 F2400
G0 X192.052 Y148.263 F5400
G1 X194.893 Y151.105 E311.1343 F2400
G0 X194.893 Y150.539 F5400
G1 X192.052 Y147.698 E311.3014 F2400
G0 X192.052 Y147.132 F5400
G1 X194.893 Y149.973 E311.4685 F2400
G0 X194.893 Y149.408 F5400
G1 X192.052 Y146.566 E311.6356 F2400
G0 X192.052 Y146.000 F5400
G1 X194.893 Y148.842 E311.8027 F2400
G0 X194.893 Y148.276 F5400
G1 X192.052 Y145.435 E311.9697 F2400
G0 X192.052 Y144.869 F5400
G1 X194.893 Y147.711 E312.1368 F2400
G0 X194.893 Y147.145 F5400
G1 X192.052 Y144.303 E312.3039 F2400
G0 X192.052 Y143.738 F5400
G1 X194.893 Y146.579 E312.4710 F2400
G0 X194.893 Y146.014 F5400
G1 X192.052 Y143.172 E312.6381 F2400
G0 X192.052 Y142.606 F5400
G1 X194.893 Y145.448 E312.8052 F2400
G0 X194.893 Y144.882 F5400
G1 X192.052 Y142.041 E312.9722 F2400
G0 X192.052 Y141.475 F5400
G1 X194.893 Y144.317 E313.1393 F2400
G0 X194.893 Y143.751 F5400
G1 X192.052 Y140.909 E313.3064 F2400
G0 X192.052 Y140.344 F5400
G1 X194.893 Y143.185 E313.4735 F2400
G0 X194.893 Y142.620 F5400
G1 X192.052 Y139.778 E313.6406 F2400
G0 F3000 E312.6406
G0 X191.692 Y139.403 F5400
G0 X195.253 Y143.114
G0 X195.253 Y143.114
G0 X195.253 Y140.896
G0 X195.282 Y140.528
G0 X195.374 Y140.145
G0 X195.525 Y139.782
G0 X195.731 Y139.446
G0 X195.986 Y139.147
G0 X196.281 Y138.895
G0 X196.620 Y138.686
G0 X196.984 Y138.535
G0 X197.366 Y138.444
G0 X197.735 Y138.415
G0 X229.533 Y138.415
G0 X229.901 Y138.444
G0 X230.283 Y138.535
G0 X230.647 Y138.686
G0 X230.983 Y138.892
G0 X231.282 Y139.147
G0 X231.537 Y139.446
G0 X231.743 Y139.782
G0 X231.893 Y140.146
G0 X231.985 Y140.528
G0 X232.014 Y140.897
G0 X232.014 Y181.422
G0 X232.374 Y181.798
G0 F3000 E313.6406
G1 X233.056 Y182.479 E313.6806 F2400
G0 X233.622 Y182.479 F5400
G1 X232.374 Y181.232 E313.7540 F2400
G0 X232.374 Y180.666 F5400
G1 X234.187 Y182.479 E313.8606 F2400
G0 X234.753 Y182.479 F5400
G1 X232.374 Y180.101 E314.0004 F2400
G0 X232.374 Y179.535 F5400
G1 X235.155 Y182.316 E314.1639 F2400
G0 X235.216 Y181.811 F5400
G1 X232.374 Y178.969 E314.3310 F2400
G0 X232.374 Y178.404 F5400
G1 X235.216 Y181.245 E314.4980 F2400
G0 X235.216 Y180.679 F5400
G1 X232.374 Y177.838 E314.6651 F2400
G0 X232.374 Y177.272 F5400
G1 X235.216 Y180.114 E314.8321 F2400
G0 X235.216 Y179.548 F5400
G1 X232.374 Y176.707 E314.9992 F2400
G0 X232.374 Y176.141 F5400
G1 X235.216 Y178.982 E315.1662 F2400
G0 X235.216 Y178.416 F5400
G1 X232.374 Y175.575 E315.3333 F2400
G0 X232.374 Y175.010 F5400
G1 X235.216 Y177.851 E315.5003 F2400
G0 X235.216 Y177.285 F5400
G1 X232.374 Y174.444 E315.6674 F2400
G0 X232.374 Y173.878 F5400
G1 X235.216 Y176.719 E315.8345 F2400
G0 X235.216 Y176.154 F5400
G1 X232.374 Y173.313 E316.0015 F2400
G0 X232.374 Y172.747 F5400
G1 X235.216 Y175.588 E316.1686 F2400
G0 X235.216 Y175.022 F5400
G1 X232.374 Y172.181 E316.3356 F2400
G0 X232.374 Y171.615 F5400
G1 X235.216 Y174.457 E316.5027 F2400
G0 X235.216 Y173.891 F5400
G1 X232.374 Y171.050 E316.6697 F2400
G0 X232.374 Y170.484 F5400
G1 X235.216 Y173.325 E316.8368 F2400
G0 X235.216 Y172.760 F5400
G1 X232.374 Y169.918 E317.0038 F2400
G0 X232.374 Y169.353 F5400
G1 X235.216 Y172.194 E317.1709 F2400
G0 X235.216 Y171.628 F5400
G1 X232.374 Y168.787 E317.3379 F2400
G0 X232.374 Y168.221 F5400
G1 X235.216 Y171.063 E317.5050 F2400
G0 X235.216 Y170.497 F5400
G1 X232.374 Y167.656 E317.6720 F2400
G0 X232.374 Y167.090 F5400
G1 X235.216 Y169.931 E317.8391 F2400
G0 X235.216 Y169.366 F5400
G1 X232.374 Y166.524 E318.0061 F2400
G0 X232.374 Y165.959 F5400
G1 X235.216 Y168.800 E318.1732 F2400
G0 X235.216 Y168.234 F5400
G1 X232.374 Y165.393 E318.3403 F2400
G0 X232.374 Y164.827 F5400
G1 X235.216 Y167.668 E318.5073 F2400
G0 X235.216 Y167.103 F5400
G1 X232.374 Y164.262 E318.6744 F2400
G0 X232.374 Y163.696 F5400
G1 X235.216 Y166.537 E318.8414 F2400
G0 X235.216 Y165.971 F5400
G1 X232.374 Y163.130 E319.0085 F2400
G0 X232.374 Y162.564 F5400
G1 X235.216 Y165.406 E319.1755 F2400
G0 X235.216 Y164.840 F5400
G1 X232.374 Y161.999 E319.3426 F2400
G0 X232.374 Y161.433 F5400
G1 X235.216 Y164.274 E319.5096 F2400
G0 X235.216 Y163.709 F5400
G1 X232.374 Y160.867 E319.6767 F2400
G0 X232.374 Y160.302 F5400
G1 X235.216 Y163.143 E319.8437 F2400
G0 X235.216 Y162.577 F5400
G1 X232.374 Y159.736 E320.0108 F2400
G0 X232.374 Y159.170 F5400
G1 X235.216 Y162.012 E320.1778 F2400
G0 X235.216 Y161.446 F5400
G1 X232.374 Y158.605 E320.3449 F2400
G0 X232.374 Y158.039 F5400
G1 X235.216 Y160.880 E320.5119 F2400
G0 X235.216 Y160.315 F5400
G1 X232.374 Y157.473 E320.6790 F2400
G0 X232.374 Y156.908 F5400
G1 X235.216 Y159.749 E320.8461 F2400
G0 X235.216 Y159.183 F5400
G1 X232.374 Y156.342 E321.0131 F2400
G0 X232.374 Y155.776 F5400
G1 X235.216 Y158.618 E321.1802 F2400
G0 X235.216 Y158.052 F5400
G1 X232.374 Y155.211 E321.3472 F2400
G0 X232.374 Y154.645 F5400
G1 X235.216 Y157.486 E321.5143 F2400
G0 X235.216 Y156.920 F5400
G1 X232.374 Y154.079 E321.6813 F2400
G0 X232.374 Y153.514 F5400
G1 X235.216 Y156.355 E321.8484 F2400
G0 X235.216 Y155.789 F5400
G1 X232.374 Y152.948 E322.0154 F2400
G0 X232.374 Y152.382 F5400
G1 X235.216 Y155.223 E322.1825 F2400
G0 X235.216 Y154.658 F5400
G1 X232.374 Y151.816 E322.3495 F2400
G0 X232.374 Y151.251 F5400
G1 X235.216 Y154.092 E322.5166 F2400
G0 X235.216 Y153.526 F5400
G1 X232.374 Y150.685 E322.6836 F2400
G0 X232.374 Y150.119 F5400
G1 X235.216 Y152.961 E322.8507 F2400
G0 X235.216 Y152.395 F5400
G1 X232.374 Y149.554 E323.0177 F2400
G0 X232.374 Y148.988 F5400
G1 X235.216 Y151.829 E323.1848 F2400
G0 X235.216 Y151.264 F5400
G1 X232.374 Y148.422 E323.3518 F2400
G0 X232.374 Y147.857 F5400
G1 X235.216 Y150.698 E323.5189 F2400
G0 X235.216 Y150.132 F5400
G1 X232.374 Y147.291 E323.6860 F2400
G0 X232.374 Y146.725 F5400
G1 X235.216 Y149.567 E323.8530 F2400
G0 X235.216 Y149.001 F5400
G1 X232.374 Y146.160 E324.0201 F2400
G0 X232.374 Y145.594 F5400
G1 X235.216 Y148.435 E324.1871 F2400
G0 X235.216 Y147.869 F5400
G1 X232.374 Y145.028 E324.3542 F2400
G0 X232.374 Y144.463 F5400
G1 X235.216 Y147.304 E324.5212 F2400
G0 X235.216 Y146.738 F5400
G1 X232.374 Y143.897 E324.6883 F2400
G0 X232.374 Y143.331 F5400
G1 X235.216 Y146.172 E324.8553 F2400
G0 X235.216 Y145.607 F5400
G1 X232.374 Y142.765 E325.0224 F2400
G0 X232.374 Y142.200 F5400
G1 X235.216 Y145.041 E325.1894 F2400
G0 X235.216 Y144.475 F5400
G1 X232.374 Y141.634 E325.3565 F2400
G0 X232.374 Y141.068 F5400
G1 X235.216 Y143.910 E325.5235 F2400
G0 X235.216 Y143.344 F5400
G1 X232.341 Y140.470 E325.6925 F2400
G0 X232.071 Y139.634 F5400
G1 X235.216 Y142.778 E325.8774 F2400
G0 X235.216 Y142.213 F5400
G1 X228.216 Y135.213 E326.2890 F2400
G0 X228.782 Y135.213 F5400
G1 X235.216 Y141.647 E326.6672 F2400
G0 X235.216 Y141.081 F5400
G1 X229.348 Y135.213 E327.0123 F2400
G0 X229.924 Y135.224 F5400
G1 X235.205 Y140.505 E327.3228 F2400
G0 X235.157 Y139.891 F5400
G1 X230.538 Y135.272 E327.5943 F2400
G0 X231.254 Y135.423 F5400
G1 X235.006 Y139.174 E327.8149 F2400
G0 X234.676 Y138.279 F5400
G1 X232.150 Y135.753 E327.9635 F2400
G0 F3000 E326.9635
G0 X232.317 Y135.432 F5400
G0 X230.628 Y138.678
G0 X230.795 Y138.357
G0 F3000 E327.9635
G1 X227.651 Y135.213 E328.1483 F2400
G0 X227.085 Y135.213 F5400
G1 X229.959 Y138.088 E328.3173 F2400
G0 X229.360 Y138.054 F5400
G1 X226.519 Y135.213 E328.4844 F2400
G0 X225.953 Y135.213 F5400
G1 X228.795 Y138.054 E328.6514 F2400
G0 X228.229 Y138.054 F5400
G1 X225.388 Y135.213 E328.8185 F2400
G0 X224.822 Y135.213 F5400
