; GCode generated by CraftWare

G28 X0 Y0
G28 Z0


M104 S215 ;set head temp (no wait)
M190 S60 ;set bed temp (wait)
M109 S215 ;set head temp (wait)
; ------------------------------------
; Layer #0
; ------------------------------------
M106 S0 ;turn off fan
G21 ; mm
G90 ; abs
G92 E0 ;reset extr
G0 F1200 Z0.250
;segType:Skirt
G0 F3000 E-1.0000
G0 X91.564 Y155.917 F5400
G0 F3000 E0.0000
G1 X87.571 Y151.924 E0.2348 F2400
G1 X87.372 Y151.591 E0.2509
G1 X87.238 Y151.192 E0.2684
G1 X87.039 Y150.859 E0.2845
G1 X86.972 Y150.393 E0.3041
G1 X86.972 Y128.299 E1.2227
G1 X87.105 Y128.166 E1.2305
G1 X87.105 Y127.899 E1.2416
G1 X87.505 Y127.234 E1.2739
G1 X91.764 Y122.975 E1.5243
G1 X92.230 Y122.642 E1.5481
G1 X92.496 Y122.642 E1.5592
G1 X92.829 Y122.442 E1.5753
G1 X94.226 Y122.242 E1.6340
G1 X106.471 Y122.242 E2.1431
G1 X106.671 Y122.176 E2.1518
G1 X106.671 Y117.385 E2.3510
G1 X106.338 Y117.185 E2.3671
G1 X105.872 Y117.118 E2.3867
G1 X105.540 Y116.919 E2.4028
G1 X105.140 Y116.786 E2.4203
G1 X100.615 Y112.260 E2.6864
G1 X100.415 Y111.927 E2.7026
G1 X100.282 Y111.528 E2.7200
G1 X100.149 Y111.395 E2.7279
G1 X100.149 Y110.863 E2.7500
G1 X100.016 Y110.730 E2.7578
G1 X100.016 Y89.434 E3.6432
G1 X100.149 Y89.301 E3.6510
G1 X100.149 Y88.768 E3.6732
G1 X100.282 Y88.635 E3.6810
G1 X100.282 Y88.369 E3.6921
G1 X100.681 Y87.703 E3.7243
G1 X104.674 Y83.711 E3.9591
G1 X105.007 Y83.511 E3.9753
G1 X105.274 Y83.244 E3.9909
G1 X105.673 Y83.111 E4.0084
G1 X105.806 Y82.978 E4.0162
G1 X106.272 Y82.912 E4.0358
G1 X106.405 Y82.779 E4.0436
G1 X106.405 Y79.318 E4.1875
G1 X105.939 Y79.252 E4.2070
G1 X92.629 Y79.252 E4.7604
G1 X92.496 Y79.119 E4.7682
G1 X92.230 Y79.119 E4.7793
G1 X91.564 Y78.720 E4.8116
G1 X91.298 Y78.453 E4.8272
G1 X90.965 Y78.253 E4.8434
G1 X87.505 Y74.793 E5.0468
G1 X87.305 Y74.460 E5.0629
G1 X87.039 Y74.194 E5.0786
G1 X86.839 Y73.861 E5.0947
G1 X86.573 Y73.063 E5.1297
G1 X86.573 Y50.968 E6.0483
G1 X86.706 Y50.835 E6.0561
G1 X86.706 Y50.569 E6.0672
G1 X86.839 Y50.436 E6.0750
G1 X86.839 Y50.170 E6.0861
G1 X87.105 Y49.903 E6.1018
G1 X87.305 Y49.570 E6.1179
G1 X91.298 Y45.577 E6.3527
G1 X91.964 Y45.178 E6.3849
G1 X92.363 Y45.045 E6.4024
G1 X92.496 Y44.912 E6.4103
G1 X93.295 Y44.912 E6.4435
G1 X93.428 Y44.779 E6.4513
G1 X106.205 Y44.779 E6.9825
G1 X106.405 Y44.713 E6.9913
G1 X106.405 Y38.856 E7.2347
G1 X106.538 Y38.723 E7.2426
G1 X106.538 Y38.457 E7.2536
G1 X106.937 Y37.791 E7.2859
G1 X111.196 Y33.532 E7.5363
G1 X112.195 Y32.933 E7.5847
G1 X113.126 Y32.800 E7.6239
G1 X120.048 Y32.800 E7.9116
G1 X120.181 Y32.933 E7.9194
G1 X120.713 Y32.933 E7.9416
G1 X121.379 Y33.332 E7.9738
G1 X121.645 Y33.599 E7.9895
G1 X121.978 Y33.798 E8.0056
G1 X125.705 Y37.525 E8.2247
G1 X126.303 Y38.523 E8.2731
G1 X126.370 Y38.989 E8.2927
G1 X126.503 Y39.122 E8.3005
G1 X126.503 Y44.713 E8.5329
G1 X126.969 Y44.779 E8.5525
G1 X139.480 Y44.779 E9.0727
G1 X139.613 Y44.912 E9.0805
G1 X140.412 Y44.912 E9.1137
G1 X141.410 Y45.511 E9.1621
G1 X145.669 Y49.770 E9.4125
G1 X146.069 Y50.436 E9.4448
G1 X146.202 Y50.835 E9.4623
G1 X146.202 Y51.367 E9.4844
G1 X146.335 Y51.501 E9.4922
G1 X146.335 Y72.264 E10.3555
G1 X146.202 Y73.196 E10.3946
G1 X146.202 Y73.456 E10.4055
G0 F3000 E9.4055
G0 X109.226 Y72.120 F5400
G0 F3000 E10.4055
;segType:HShell
G1 X115.290 Y78.185 E10.7620 F2400
G0 X114.903 Y78.363 F5400
G1 X112.096 Y75.556 E10.9270 F2400
G0 X112.362 Y76.388 F5400
G1 X114.565 Y78.591 E11.0566 F2400
G0 X114.262 Y78.854 F5400
G1 X112.437 Y77.029 E11.1639 F2400
G0 X111.831 Y77.158 F5400
;segType:Perimeter
G1 X111.630 Y76.593 E11.1888 F1439
G1 X111.526 Y76.163 E11.2072
G1 X111.333 Y75.700 E11.2281
G1 X111.073 Y75.278 E11.2487
G1 X110.747 Y74.896 E11.2695
G1 X110.365 Y74.570 E11.2904
G1 X109.937 Y74.308 E11.3113
G1 X109.473 Y74.115 E11.3322
G1 X108.985 Y73.998 E11.3531
G1 X108.492 Y73.959 E11.3736
G1 X94.692 Y73.959 E11.9474
G1 X94.246 Y73.924 E11.9660
G1 X93.819 Y73.822 E11.9842
G1 X93.413 Y73.653 E12.0025
G1 X93.039 Y73.424 E12.0207
G1 X92.705 Y73.139 E12.0390
G1 X92.420 Y72.805 E12.0572
G1 X92.190 Y72.430 E12.0755
G1 X92.022 Y72.025 E12.0938
G1 X91.919 Y71.597 E12.1120
G1 X91.884 Y71.152 E12.1306
G1 X91.884 Y52.868 E12.8908
G1 X91.919 Y52.422 E12.9094
G1 X92.022 Y51.995 E12.9276
G1 X92.190 Y51.589 E12.9459
G1 X92.419 Y51.215 E12.9642
G1 X92.705 Y50.881 E12.9824
G1 X93.039 Y50.595 E13.0007
G1 X93.413 Y50.366 E13.0189
G1 X93.819 Y50.198 E13.0372
G1 X94.246 Y50.095 E13.0555
G1 X94.692 Y50.060 E13.0741
G1 X108.492 Y50.060 E13.6478
G1 X108.985 Y50.021 E13.6683
G1 X109.473 Y49.904 E13.6892
G1 X109.937 Y49.712 E13.7101
G1 X110.365 Y49.449 E13.7310
G1 X110.747 Y49.123 E13.7519
G1 X111.073 Y48.741 E13.7727
G1 X111.336 Y48.313 E13.7936
G1 X111.528 Y47.849 E13.8145
G1 X111.645 Y47.360 E13.8354
G1 X111.684 Y46.868 E13.8560
G1 X111.684 Y40.868 E14.1054
G1 X111.719 Y40.422 E14.1240
G1 X111.822 Y39.995 E14.1423
G1 X111.990 Y39.589 E14.1605
G1 X112.219 Y39.215 E14.1788
G1 X112.504 Y38.881 E14.1970
G1 X112.838 Y38.595 E14.2153
G1 X113.213 Y38.366 E14.2336
G1 X113.619 Y38.198 E14.2518
G1 X114.046 Y38.095 E14.2701
G1 X114.492 Y38.060 E14.2887
G1 X118.476 Y38.060 E14.4543
G1 X118.922 Y38.095 E14.4729
G1 X119.349 Y38.198 E14.4912
G1 X119.755 Y38.366 E14.5094
G1 X120.129 Y38.595 E14.5277
G1 X120.463 Y38.881 E14.5459
G1 X120.748 Y39.214 E14.5642
G1 X120.978 Y39.589 E14.5825
G1 X121.146 Y39.995 E14.6007
G1 X121.248 Y40.422 E14.6190
G1 X121.283 Y40.868 E14.6376
G1 X121.283 Y46.868 E14.8870
G1 X121.324 Y47.368 E14.9079
G1 X121.442 Y47.856 E14.9288
G1 X121.635 Y48.319 E14.9496
G1 X121.894 Y48.741 E14.9702
G1 X122.220 Y49.123 E14.9911
G1 X122.602 Y49.449 E15.0120
G1 X123.031 Y49.712 E15.0329
G1 X123.495 Y49.904 E15.0537
G1 X123.983 Y50.021 E15.0746
G1 X124.476 Y50.060 E15.0952
G1 X138.276 Y50.060 E15.6689
G1 X138.722 Y50.095 E15.6875
G1 X139.149 Y50.198 E15.7058
G1 X139.555 Y50.366 E15.7240
G1 X139.929 Y50.595 E15.7423
G1 X140.263 Y50.881 E15.7606
G1 X140.548 Y51.215 E15.7788
G1 X140.778 Y51.589 E15.7971
G1 X140.946 Y51.995 E15.8153
G1 X141.048 Y52.422 E15.8336
G1 X141.083 Y52.868 E15.8522
G1 X141.083 Y71.152 E16.6124
G1 X141.048 Y71.597 E16.6309
G1 X140.946 Y72.025 E16.6492
G1 X140.778 Y72.430 E16.6675
G1 X140.548 Y72.805 E16.6857
G1 X140.263 Y73.139 E16.7040
G1 X139.929 Y73.424 E16.7222
G1 X139.555 Y73.653 E16.7405
G1 X139.149 Y73.822 E16.7588
G1 X138.722 Y73.924 E16.7770
G1 X138.276 Y73.959 E16.7956
G1 X124.476 Y73.959 E17.3694
G1 X123.983 Y73.998 E17.3899
G1 X123.495 Y74.115 E17.4108
G1 X123.031 Y74.308 E17.4317
G1 X122.602 Y74.570 E17.4526
G1 X122.220 Y74.896 E17.4734
G1 X121.894 Y75.278 E17.4943
G1 X121.632 Y75.706 E17.5152
G1 X121.440 Y76.170 E17.5361
G1 X121.322 Y76.659 E17.5570
G1 X121.283 Y77.152 E17.5775
G1 X121.283 Y83.152 E17.8270
G1 X121.248 Y83.597 E17.8456
G1 X121.146 Y84.025 E17.8638
G1 X120.978 Y84.430 E17.8821
G1 X120.748 Y84.805 E17.9003
G1 X120.463 Y85.139 E17.9186
G1 X120.129 Y85.424 E17.9369
G1 X119.755 Y85.654 E17.9551
G1 X119.349 Y85.822 E17.9734
G1 X118.922 Y85.924 E17.9916
G1 X118.476 Y85.959 E18.0102
G1 X114.492 Y85.959 E18.1759
G1 X114.046 Y85.924 E18.1945
G1 X113.619 Y85.822 E18.2127
G1 X113.213 Y85.654 E18.2310
G1 X112.839 Y85.424 E18.2493
G1 X112.504 Y85.139 E18.2675
G1 X112.219 Y84.805 E18.2858
G1 X111.990 Y84.430 E18.3040
G1 X111.822 Y84.025 E18.3223
G1 X111.719 Y83.597 E18.3406
G1 X111.684 Y83.152 E18.3591
G1 X111.684 Y77.152 E18.6086
G1 X111.649 Y76.711 E18.6270
G0 X111.668 Y75.911 F5400
G0 X111.637 Y75.433
;segType:Loop
G1 X111.398 Y75.042 E18.6460 F2400
G1 X111.031 Y74.612 E18.6695
G1 X110.601 Y74.245 E18.6930
G1 X110.119 Y73.950 E18.7165
G1 X109.597 Y73.734 E18.7400
G1 X109.047 Y73.602 E18.7635
G1 X108.507 Y73.559 E18.7860
G1 X94.707 Y73.559 E19.3598
G1 X94.309 Y73.528 E19.3764
G1 X93.943 Y73.440 E19.3920
G1 X93.595 Y73.296 E19.4077
G1 X93.275 Y73.099 E19.4233
G1 X92.988 Y72.855 E19.4390
G1 X92.744 Y72.569 E19.4546
G1 X92.547 Y72.248 E19.4703
G1 X92.403 Y71.901 E19.4859
G1 X92.316 Y71.535 E19.5015
G1 X92.284 Y71.136 E19.5182
G1 X92.284 Y52.883 E20.2770
G1 X92.316 Y52.485 E20.2936
G1 X92.403 Y52.119 E20.3093
G1 X92.547 Y51.771 E20.3249
G1 X92.744 Y51.450 E20.3406
G1 X92.988 Y51.164 E20.3562
G1 X93.275 Y50.920 E20.3719
G1 X93.595 Y50.723 E20.3875
G1 X93.943 Y50.579 E20.4031
G1 X94.309 Y50.491 E20.4188
G1 X94.707 Y50.460 E20.4354
G1 X108.507 Y50.460 E21.0091
G1 X109.047 Y50.418 E21.0317
G1 X109.597 Y50.286 E21.0552
G1 X110.119 Y50.069 E21.0787
G1 X110.601 Y49.774 E21.1022
G1 X111.031 Y49.407 E21.1257
G1 X111.398 Y48.977 E21.1492
G1 X111.694 Y48.495 E21.1727
G1 X111.910 Y47.973 E21.1962
G1 X112.042 Y47.423 E21.2197
G1 X112.084 Y46.883 E21.2422
G1 X112.084 Y40.883 E21.4916
G1 X112.115 Y40.485 E21.5083
G1 X112.203 Y40.119 E21.5239
G1 X112.347 Y39.771 E21.5396
G1 X112.544 Y39.450 E21.5552
G1 X112.788 Y39.164 E21.5708
G1 X113.074 Y38.920 E21.5865
G1 X113.395 Y38.723 E21.6021
G1 X113.743 Y38.579 E21.6178
G1 X114.109 Y38.492 E21.6334
G1 X114.508 Y38.460 E21.6500
G1 X118.460 Y38.460 E21.8144
G1 X118.859 Y38.492 E21.8310
G1 X119.225 Y38.579 E21.8466
G1 X119.572 Y38.723 E21.8623
G1 X119.893 Y38.920 E21.8779
G1 X120.179 Y39.164 E21.8936
G1 X120.424 Y39.450 E21.9092
G1 X120.620 Y39.771 E21.9248
G1 X120.764 Y40.119 E21.9405
G1 X120.852 Y40.485 E21.9561
G1 X120.883 Y40.883 E21.9728
G1 X120.883 Y46.884 E22.2222
G1 X120.928 Y47.431 E22.2451
G1 X121.061 Y47.981 E22.2686
G1 X121.278 Y48.502 E22.2920
G1 X121.570 Y48.977 E22.3152
G1 X121.937 Y49.407 E22.3387
G1 X122.367 Y49.774 E22.3622
G1 X122.848 Y50.069 E22.3857
G1 X123.371 Y50.286 E22.4092
G1 X123.920 Y50.418 E22.4327
G1 X124.460 Y50.460 E22.4552
G1 X138.260 Y50.460 E23.0290
G1 X138.659 Y50.491 E23.0456
G1 X139.025 Y50.579 E23.0612
G1 X139.372 Y50.723 E23.0769
G1 X139.693 Y50.920 E23.0925
G1 X139.979 Y51.164 E23.1082
G1 X140.224 Y51.450 E23.1238
G1 X140.420 Y51.771 E23.1395
G1 X140.564 Y52.119 E23.1551
G1 X140.652 Y52.485 E23.1707
G1 X140.683 Y52.883 E23.1874
G1 X140.683 Y71.136 E23.9462
G1 X140.652 Y71.535 E23.9629
G1 X140.564 Y71.901 E23.9785
G1 X140.420 Y72.248 E23.9941
G1 X140.224 Y72.569 E24.0098
G1 X139.979 Y72.855 E24.0254
G1 X139.693 Y73.099 E24.0411
G1 X139.372 Y73.296 E24.0567
G1 X139.025 Y73.440 E24.0724
G1 X138.659 Y73.528 E24.0880
G1 X138.260 Y73.559 E24.1046
G1 X124.460 Y73.559 E24.6784
G1 X123.920 Y73.602 E24.7009
G1 X123.371 Y73.734 E24.7244
G1 X122.848 Y73.950 E24.7479
G1 X122.366 Y74.245 E24.7714
G1 X121.937 Y74.612 E24.7949
G1 X121.570 Y75.042 E24.8184
G1 X121.274 Y75.524 E24.8419
G1 X121.058 Y76.046 E24.8654
G1 X120.926 Y76.596 E24.8889
G1 X120.883 Y77.136 E24.9114
G1 X120.883 Y83.136 E25.1609
G1 X120.852 Y83.535 E25.1775
G1 X120.764 Y83.901 E25.1931
G1 X120.620 Y84.248 E25.2088
G1 X120.424 Y84.569 E25.2244
G1 X120.179 Y84.855 E25.2401
G1 X119.893 Y85.099 E25.2557
G1 X119.572 Y85.296 E25.2713
G1 X119.225 Y85.440 E25.2870
G1 X118.859 Y85.528 E25.3026
G1 X118.460 Y85.559 E25.3193
G1 X114.508 Y85.559 E25.4836
G1 X114.108 Y85.528 E25.5002
G1 X113.743 Y85.440 E25.5159
G1 X113.395 Y85.296 E25.5315
G1 X113.074 Y85.099 E25.5471
G1 X112.788 Y84.855 E25.5628
G1 X112.544 Y84.569 E25.5784
G1 X112.347 Y84.248 E25.5941
G1 X112.203 Y83.901 E25.6097
G1 X112.115 Y83.535 E25.6254
G1 X112.084 Y83.136 E25.6420
G1 X112.084 Y77.136 E25.8915
G1 X112.040 Y76.588 E25.9143
G1 X111.907 Y76.039 E25.9378
G1 X111.728 Y75.610 E25.9571
G0 F3000 E24.9571
G0 X112.444 Y80.996 F5400
G0 F3000 E25.9571
;segType:HShell
G1 X113.373 Y81.924 E26.0117 F2400
G0 X113.283 Y81.269 F5400
G1 X112.444 Y80.430 E26.0610 F2400
G0 X112.444 Y79.864 F5400
G1 X113.310 Y80.730 E26.1119 F2400
G0 X113.409 Y80.263 F5400
G1 X112.444 Y79.299 E26.1686 F2400
G0 X112.444 Y78.733 F5400
G1 X113.559 Y79.848 E26.2342 F2400
G0 X113.749 Y79.472 F5400
G1 X112.444 Y78.167 E26.3109 F2400
G0 X112.444 Y77.602 F5400
G1 X113.989 Y79.147 E26.4017 F2400
G0 X114.587 Y79.257 F5400
;segType:Perimeter
G1 X115.343 Y78.995 E26.4350 F1439
G1 X115.667 Y78.849 E26.4498
G1 X116.069 Y78.744 E26.4671
G1 X116.484 Y78.708 E26.4844
G1 X116.898 Y78.744 E26.5016
G1 X117.300 Y78.849 E26.5189
G1 X117.679 Y79.020 E26.5362
G1 X118.024 Y79.253 E26.5535
G1 X118.324 Y79.540 E26.5708
G1 X118.571 Y79.875 E26.5881
G1 X118.758 Y80.246 E26.6053
G1 X118.880 Y80.643 E26.6226
G1 X118.933 Y81.056 E26.6399
G1 X118.915 Y81.471 E26.6572
G1 X118.827 Y81.877 E26.6745
G1 X118.673 Y82.263 E26.6918
G1 X118.455 Y82.617 E26.7091
G1 X118.180 Y82.929 E26.7263
G1 X117.856 Y83.191 E26.7436
G1 X117.493 Y83.393 E26.7609
G1 X117.101 Y83.532 E26.7782
G1 X116.692 Y83.602 E26.7955
G1 X116.276 Y83.602 E26.8128
G1 X115.866 Y83.532 E26.8301
G1 X115.474 Y83.393 E26.8473
G1 X115.111 Y83.191 E26.8646
G1 X114.788 Y82.929 E26.8819
G1 X114.513 Y82.617 E26.8992
G1 X114.295 Y82.263 E26.9165
G1 X114.140 Y81.877 E26.9338
G1 X114.053 Y81.471 E26.9510
G1 X114.035 Y81.056 E26.9683
G1 X114.088 Y80.643 E26.9856
G1 X114.209 Y80.246 E27.0029
G1 X114.397 Y79.875 E27.0202
G1 X114.644 Y79.540 E27.0375
G1 X114.944 Y79.253 E27.0547
G1 X115.239 Y79.053 E27.0695
G0 X115.703 Y78.673 F5400
G0 X116.303 Y78.322
;segType:Loop
G1 X116.484 Y78.307 E27.0771 F2400
G1 X116.966 Y78.348 E27.0972
G1 X117.434 Y78.470 E27.1173
G1 X117.875 Y78.669 E27.1374
G1 X118.276 Y78.941 E27.1576
G1 X118.625 Y79.275 E27.1777
G1 X118.913 Y79.664 E27.1978
G1 X119.131 Y80.096 E27.2179
G1 X119.272 Y80.559 E27.2380
G1 X119.334 Y81.039 E27.2581
G1 X119.313 Y81.522 E27.2782
G1 X119.211 Y81.995 E27.2983
G1 X119.031 Y82.444 E27.3185
G1 X118.777 Y82.856 E27.3386
G1 X118.458 Y83.219 E27.3587
G1 X118.081 Y83.523 E27.3788
G1 X117.659 Y83.759 E27.3989
G1 X117.203 Y83.920 E27.4190
G1 X116.726 Y84.002 E27.4392
G1 X116.242 Y84.002 E27.4593
G1 X115.765 Y83.920 E27.4794
G1 X115.309 Y83.759 E27.4995
G1 X114.887 Y83.523 E27.5196
G1 X114.510 Y83.219 E27.5397
G1 X114.190 Y82.856 E27.5599
G1 X113.937 Y82.444 E27.5800
G1 X113.756 Y81.995 E27.6001
G1 X113.654 Y81.522 E27.6202
G1 X113.634 Y81.039 E27.6403
G1 X113.695 Y80.559 E27.6604
G1 X113.837 Y80.096 E27.6806
G1 X114.055 Y79.664 E27.7007
G1 X114.343 Y79.275 E27.7208
G1 X114.692 Y78.940 E27.7409
G1 X115.093 Y78.669 E27.7610
G1 X115.534 Y78.470 E27.7811
G1 X116.001 Y78.348 E27.8012
G1 X116.104 Y78.339 E27.8055
G0 F3000 E26.8055
G0 X115.466 Y78.501 F5400
G0 X116.104 Y78.339
G0 X116.104 Y78.339
G0 X120.884 Y77.131
G0 X120.884 Y77.131
G0 X120.926 Y76.596
G0 X121.058 Y76.046
G0 X121.274 Y75.524
G0 X121.570 Y75.042
G0 X121.937 Y74.612
G0 X122.366 Y74.245
G0 X122.848 Y73.950
G0 X123.371 Y73.734
G0 X123.920 Y73.602
G0 X124.460 Y73.559
G0 X135.013 Y73.559
G0 X135.013 Y73.559
G0 X140.446 Y72.186
G0 X139.961 Y72.309
G0 F3000 E27.8055
;segType:HShell
G1 X137.273 Y69.620 E27.9636 F2400
G0 X137.838 Y69.620 F5400
G1 X140.158 Y71.940 E28.1000 F2400
G0 X140.289 Y71.505 F5400
G1 X138.404 Y69.620 E28.2108 F2400
G0 X138.970 Y69.620 F5400
G1 X140.323 Y70.974 E28.2904 F2400
G0 X140.323 Y70.408 F5400
G1 X139.244 Y69.329 E28.3538 F2400
G0 X139.224 Y68.860 F5400
;segType:Perimeter
G1 X138.424 Y68.860 E28.3871 F1439
G1 X136.800 Y68.860 E28.4546
G1 X136.538 Y68.902 E28.4656
G1 X136.315 Y69.015 E28.4760
G1 X136.139 Y69.191 E28.4864
G1 X136.026 Y69.413 E28.4967
G1 X135.984 Y69.675 E28.5078
G1 X135.984 Y71.360 E28.5778
G1 X96.984 Y71.360 E30.1993
G1 X96.984 Y69.676 E30.2693
G1 X96.942 Y69.413 E30.2804
G1 X96.829 Y69.191 E30.2907
G1 X96.652 Y69.015 E30.3011
G1 X96.430 Y68.902 E30.3115
G1 X96.168 Y68.860 E30.3225
G1 X94.483 Y68.860 E30.3925
G1 X94.483 Y55.159 E30.9621
G1 X96.168 Y55.159 E31.0322
G1 X96.430 Y55.118 E31.0432
G1 X96.652 Y55.005 E31.0536
G1 X96.829 Y54.828 E31.0639
G1 X96.942 Y54.606 E31.0743
G1 X96.984 Y54.344 E31.0854
G1 X96.984 Y52.659 E31.1554
G1 X135.984 Y52.659 E32.7768
G1 X135.984 Y54.344 E32.8469
G1 X136.026 Y54.606 E32.8579
G1 X136.139 Y54.828 E32.8683
G1 X136.315 Y55.004 E32.8787
G1 X136.538 Y55.118 E32.8890
G1 X136.800 Y55.159 E32.9001
G1 X138.484 Y55.159 E32.9701
G1 X138.484 Y68.800 E33.5372
G0 X138.884 Y68.633 F5400
G0 X138.884 Y69.260
G0 X137.384 Y69.260
G0 X137.384 Y69.260
;segType:Loop
G1 X136.831 Y69.260 E33.5602 F2400
G1 X136.663 Y69.287 E33.5673
G1 X136.553 Y69.342 E33.5724
G1 X136.467 Y69.429 E33.5775
G1 X136.411 Y69.538 E33.5826
G1 X136.384 Y69.707 E33.5897
G1 X136.384 Y71.760 E33.6751
G1 X96.584 Y71.760 E35.3298
G1 X96.584 Y69.707 E35.4151
G1 X96.557 Y69.539 E35.4222
G1 X96.501 Y69.429 E35.4273
G1 X96.414 Y69.342 E35.4324
G1 X96.305 Y69.287 E35.4375
G1 X96.137 Y69.260 E35.4446
G1 X94.083 Y69.260 E35.5300
G1 X94.083 Y54.759 E36.1329
G1 X96.137 Y54.759 E36.2182
G1 X96.305 Y54.733 E36.2253
G1 X96.414 Y54.677 E36.2304
G1 X96.501 Y54.590 E36.2355
G1 X96.557 Y54.481 E36.2406
G1 X96.584 Y54.312 E36.2477
G1 X96.584 Y52.259 E36.3331
G1 X136.384 Y52.259 E37.9878
G1 X136.384 Y54.312 E38.0731
G1 X136.411 Y54.481 E38.0802
G1 X136.467 Y54.590 E38.0853
G1 X136.553 Y54.677 E38.0904
G1 X136.663 Y54.733 E38.0955
G1 X136.831 Y54.759 E38.1026
G1 X138.884 Y54.759 E38.1880
G1 X138.884 Y69.260 E38.7909
G1 X137.584 Y69.260 E38.8449
G0 F3000 E37.8449
G0 X137.584 Y69.260 F5400
G0 X138.884 Y69.260
G0 X138.884 Y54.759
G0 X136.831 Y54.759
G0 X136.663 Y54.733
G0 X136.553 Y54.677
G0 X136.467 Y54.590
G0 X136.411 Y54.481
G0 X136.384 Y54.312
G0 X136.384 Y52.259
G0 X122.574 Y52.259
G0 X122.574 Y52.259
G0 X116.777 Y45.693
G0 X117.057 Y46.010
G0 F3000 E38.8449
;segType:HShell
G1 X122.946 Y51.899 E39.1911 F2400
G0 X123.511 Y51.899 F5400
G1 X117.507 Y45.895 E39.5442 F2400
G0 X116.798 Y45.443 F5400
;segType:Perimeter
G1 X116.217 Y45.292 E39.5691 F1439
G1 X115.866 Y45.232 E39.5840
G1 X115.474 Y45.093 E39.6012
G1 X115.111 Y44.890 E39.6185
G1 X114.788 Y44.629 E39.6358
G1 X114.513 Y44.317 E39.6531
G1 X114.295 Y43.963 E39.6704
G1 X114.140 Y43.577 E39.6877
G1 X114.053 Y43.171 E39.7049
G1 X114.035 Y42.756 E39.7222
G1 X114.088 Y42.343 E39.7395
G1 X114.209 Y41.946 E39.7568
G1 X114.397 Y41.575 E39.7741
G1 X114.644 Y41.240 E39.7914
G1 X114.944 Y40.953 E39.8086
G1 X115.288 Y40.720 E39.8259
G1 X115.667 Y40.549 E39.8432
G1 X116.069 Y40.444 E39.8605
G1 X116.484 Y40.408 E39.8778
G1 X116.898 Y40.444 E39.8951
G1 X117.300 Y40.549 E39.9123
G1 X117.679 Y40.720 E39.9296
G1 X118.024 Y40.953 E39.9469
G1 X118.324 Y41.240 E39.9642
G1 X118.571 Y41.575 E39.9815
G1 X118.758 Y41.946 E39.9988
G1 X118.880 Y42.343 E40.0161
G1 X118.933 Y42.756 E40.0333
G1 X118.915 Y43.171 E40.0506
G1 X118.828 Y43.577 E40.0679
G1 X118.673 Y43.963 E40.0852
G1 X118.455 Y44.317 E40.1025
G1 X118.180 Y44.629 E40.1198
G1 X117.856 Y44.890 E40.1370
G1 X117.493 Y45.093 E40.1543
G1 X117.102 Y45.232 E40.1716
G1 X116.708 Y45.299 E40.1882
G1 X116.337 Y45.302 E40.2037
G0 X115.540 Y45.375 F5400
G0 X115.045 Y45.312
;segType:Loop
G1 X114.887 Y45.223 E40.2112 F2400
G1 X114.510 Y44.919 E40.2313
G1 X114.190 Y44.556 E40.2514
G1 X113.937 Y44.144 E40.2716
G1 X113.756 Y43.695 E40.2917
G1 X113.654 Y43.222 E40.3118
G1 X113.634 Y42.739 E40.3319
G1 X113.695 Y42.259 E40.3520
G1 X113.837 Y41.796 E40.3721
G1 X114.055 Y41.364 E40.3922
G1 X114.342 Y40.975 E40.4124
G1 X114.692 Y40.640 E40.4325
G1 X115.093 Y40.369 E40.4526
G1 X115.534 Y40.170 E40.4727
G1 X116.001 Y40.048 E40.4928
G1 X116.484 Y40.007 E40.5129
G1 X116.966 Y40.048 E40.5331
G1 X117.434 Y40.170 E40.5532
G1 X117.875 Y40.369 E40.5733
G1 X118.276 Y40.640 E40.5934
G1 X118.625 Y40.975 E40.6135
G1 X118.913 Y41.364 E40.6336
G1 X119.131 Y41.796 E40.6537
G1 X119.272 Y42.259 E40.6738
G1 X119.334 Y42.739 E40.6940
G1 X119.313 Y43.222 E40.7141
G1 X119.211 Y43.695 E40.7342
G1 X119.031 Y44.144 E40.7543
G1 X118.777 Y44.556 E40.7744
G1 X118.458 Y44.919 E40.7945
G1 X118.081 Y45.223 E40.8147
G1 X117.659 Y45.459 E40.8348
G1 X117.203 Y45.620 E40.8549
G1 X116.744 Y45.699 E40.8742
G1 X116.244 Y45.702 E40.8950
G1 X115.765 Y45.620 E40.9152
G1 X115.309 Y45.459 E40.9353
G1 X115.220 Y45.409 E40.9396
G0 X116.541 Y46.060 F5400
;segType:HShell
G1 X122.380 Y51.899 E41.2829 F2400
G0 X121.814 Y51.899 F5400
G1 X115.929 Y46.014 E41.6289 F2400
G0 X115.110 Y45.760 F5400
G1 X121.249 Y51.899 E41.9899 F2400
G0 X120.683 Y51.899 F5400
G1 X112.444 Y43.661 E42.4743 F2400
G0 X112.444 Y44.226 F5400
G1 X120.117 Y51.899 E42.9254 F2400
G0 X119.552 Y51.899 F5400
G1 X112.444 Y44.792 E43.3433 F2400
G0 X112.444 Y45.358 F5400
G1 X118.986 Y51.899 E43.7279 F2400
G0 X118.420 Y51.899 F5400
G1 X112.444 Y45.923 E44.0793 F2400
G0 X112.444 Y46.489 F5400
G1 X117.854 Y51.899 E44.3974 F2400
G0 X117.289 Y51.899 F5400
G1 X112.433 Y47.043 E44.6829 F2400
G0 X112.380 Y47.556 F5400
G1 X116.723 Y51.899 E44.9382 F2400
G0 X116.157 Y51.899 F5400
G1 X112.271 Y48.012 E45.1668 F2400
G0 X112.114 Y48.421 F5400
G1 X115.592 Y51.899 E45.3713 F2400
G0 X115.026 Y51.899 F5400
G1 X111.928 Y48.801 E45.5534 F2400
G0 X111.713 Y49.152 F5400
G1 X114.460 Y51.899 E45.7149 F2400
G0 X113.895 Y51.899 F5400
G1 X111.457 Y49.462 E45.8582 F2400
G0 X111.182 Y49.752 F5400
G1 X113.329 Y51.899 E45.9845 F2400
G0 X112.763 Y51.899 F5400
G1 X110.877 Y50.012 E46.0954 F2400
G0 X110.535 Y50.237 F5400
G1 X112.198 Y51.899 E46.1931 F2400
G0 X111.632 Y51.899 F5400
G1 X110.171 Y50.438 E46.2791 F2400
G0 X109.771 Y50.603 F5400
G1 X111.066 Y51.899 E46.3552 F2400
G0 X110.501 Y51.899 F5400
G1 X109.323 Y50.722 E46.4245 F2400
G0 X108.832 Y50.796 F5400
G1 X109.935 Y51.899 E46.4893 F2400
G0 X109.369 Y51.899 F5400
G1 X108.290 Y50.820 E46.5528 F2400
G0 X107.725 Y50.820 F5400
G1 X108.804 Y51.899 E46.6162 F2400
G0 X108.238 Y51.899 F5400
G1 X107.159 Y50.820 E46.6797 F2400
G0 X106.593 Y50.820 F5400
G1 X107.672 Y51.899 E46.7431 F2400
G0 X107.106 Y51.899 F5400
G1 X106.028 Y50.820 E46.8065 F2400
G0 X105.462 Y50.820 F5400
G1 X106.541 Y51.899 E46.8700 F2400
G0 X105.975 Y51.899 F5400
G1 X104.896 Y50.820 E46.9334 F2400
G0 X104.331 Y50.820 F5400
G1 X105.409 Y51.899 E46.9968 F2400
G0 X104.844 Y51.899 F5400
G1 X103.765 Y50.820 E47.0603 F2400
G0 X103.199 Y50.820 F5400
G1 X104.278 Y51.899 E47.1237 F2400
G0 X103.712 Y51.899 F5400
G1 X102.633 Y50.820 E47.1871 F2400
G0 X102.068 Y50.820 F5400
G1 X103.147 Y51.899 E47.2506 F2400
G0 X102.581 Y51.899 F5400
G1 X101.502 Y50.820 E47.3140 F2400
G0 X100.936 Y50.820 F5400
G1 X102.015 Y51.899 E47.3774 F2400
G0 X101.450 Y51.899 F5400
G1 X100.371 Y50.820 E47.4409 F2400
G0 X99.805 Y50.820 F5400
G1 X100.884 Y51.899 E47.5043 F2400
G0 X100.318 Y51.899 F5400
G1 X99.239 Y50.820 E47.5677 F2400
G0 X98.674 Y50.820 F5400
G1 X99.753 Y51.899 E47.6312 F2400
G0 X99.187 Y51.899 F5400
G1 X98.108 Y50.820 E47.6946 F2400
G0 X97.542 Y50.820 F5400
G1 X98.621 Y51.899 E47.7580 F2400
G0 X98.055 Y51.899 F5400
G1 X96.977 Y50.820 E47.8215 F2400
G0 X96.411 Y50.820 F5400
G1 X97.490 Y51.899 E47.8849 F2400
G0 X96.924 Y51.899 F5400
G1 X95.845 Y50.820 E47.9483 F2400
G0 X95.280 Y50.820 F5400
G1 X96.358 Y51.899 E48.0118 F2400
G0 X96.223 Y52.330 F5400
G1 X94.714 Y50.821 E48.1005 F2400
G0 X94.213 Y50.885 F5400
G1 X96.223 Y52.895 E48.2187 F2400
G0 X96.223 Y53.461 F5400
G1 X93.793 Y51.031 E48.3616 F2400
G0 X93.445 Y51.248 F5400
G1 X96.223 Y54.027 E48.5250 F2400
G0 X96.028 Y54.397 F5400
G1 X93.155 Y51.524 E48.6939 F2400
G0 X92.919 Y51.854 F5400
G1 X95.464 Y54.399 E48.8436 F2400
G0 X94.899 Y54.399 F5400
G1 X92.744 Y52.244 E48.9703 F2400
G0 X92.658 Y52.724 F5400
G1 X94.333 Y54.399 E49.0687 F2400
G0 X93.767 Y54.399 F5400
G1 X92.644 Y53.276 E49.1348 F2400
G0 X92.644 Y53.842 F5400
G1 X93.723 Y54.921 E49.1982 F2400
G0 X93.723 Y55.487 F5400
G1 X92.644 Y54.407 E49.2617 F2400
G0 X92.644 Y54.973 F5400
G1 X93.723 Y56.052 E49.3251 F2400
G0 X93.723 Y56.618 F5400
G1 X92.644 Y55.539 E49.3886 F2400
G0 X92.644 Y56.105 F5400
G1 X93.723 Y57.184 E49.4520 F2400
G0 X93.723 Y57.749 F5400
G1 X92.644 Y56.670 E49.5155 F2400
G0 X92.644 Y57.236 F5400
G1 X93.723 Y58.315 E49.5789 F2400
G0 X93.723 Y58.881 F5400
G1 X92.644 Y57.802 E49.6424 F2400
G0 X92.644 Y58.367 F5400
G1 X93.723 Y59.446 E49.7058 F2400
G0 X93.723 Y60.012 F5400
G1 X92.644 Y58.933 E49.7693 F2400
G0 X92.644 Y59.499 F5400
G1 X93.723 Y60.578 E49.8327 F2400
G0 X93.723 Y61.143 F5400
G1 X92.644 Y60.064 E49.8962 F2400
G0 X92.644 Y60.630 F5400
G1 X93.723 Y61.709 E49.9596 F2400
G0 X93.723 Y62.275 F5400
G1 X92.644 Y61.196 E50.0231 F2400
G0 X92.644 Y61.761 F5400
G1 X93.723 Y62.841 E50.0865 F2400
G0 X93.723 Y63.406 F5400
G1 X92.644 Y62.327 E50.1500 F2400
G0 X92.644 Y62.893 F5400
G1 X93.723 Y63.972 E50.2134 F2400
G0 X93.723 Y64.538 F5400
G1 X92.644 Y63.458 E50.2769 F2400
G0 X92.644 Y64.024 F5400
G1 X93.723 Y65.103 E50.3403 F2400
G0 X93.723 Y65.669 F5400
G1 X92.644 Y64.590 E50.4038 F2400
G0 X92.644 Y65.156 F5400
G1 X93.723 Y66.235 E50.4672 F2400
G0 X93.723 Y66.800 F5400
G1 X92.644 Y65.721 E50.5307 F2400
G0 X92.644 Y66.287 F5400
G1 X93.723 Y67.366 E50.5941 F2400
G0 X93.723 Y67.932 F5400
G1 X92.644 Y66.853 E50.6576 F2400
G0 X92.644 Y67.418 F5400
G1 X93.723 Y68.497 E50.7210 F2400
G0 X93.723 Y69.063 F5400
G1 X92.644 Y67.984 E50.7845 F2400
G0 X94.280 Y69.620 F5400
G1 X96.223 Y71.563 E50.8987 F2400
G0 X96.223 Y70.997 F5400
G1 X94.846 Y69.620 E50.9797 F2400
G0 X95.412 Y69.620 F5400
G1 X96.223 Y70.432 E51.0274 F2400
G0 F3000 E50.0274
G0 X96.584 Y70.693 F5400
G0 X96.584 Y71.760
G0 X98.056 Y71.760
G0 X98.056 Y71.760
G0 X100.538 Y73.559
G0 X100.538 Y73.559
G0 X108.507 Y73.559
G0 X109.047 Y73.602
G0 X109.597 Y73.734
G0 X110.119 Y73.950
G0 X110.601 Y74.245
G0 X111.031 Y74.612
G0 X111.398 Y75.042
G0 X111.690 Y75.518
G0 X111.907 Y76.039
G0 X112.040 Y76.588
G0 X112.084 Y77.136
G0 X112.084 Y81.930
G0 X114.733 Y83.850
G0 F3000 E51.0274
G1 X116.082 Y85.199 E51.1067 F2400
G0 X116.648 Y85.199 F5400
G1 X115.728 Y84.279 E51.1608 F2400
G0 X116.376 Y84.362 F5400
G1 X117.213 Y85.199 E51.2100 F2400
G0 X117.779 Y85.199 F5400
G1 X116.915 Y84.335 E51.2608 F2400
G0 X117.384 Y84.238 F5400
G1 X118.345 Y85.199 E51.3173 F2400
G0 X118.867 Y85.156 F5400
G1 X117.802 Y84.090 E51.3799 F2400
G0 X118.166 Y83.889 F5400
G1 X119.297 Y85.020 E51.4465 F2400
G0 X119.662 Y84.819 F5400
G1 X118.495 Y83.652 E51.5151 F2400
G0 X118.792 Y83.384 F5400
G1 X119.963 Y84.554 E51.5839 F2400
G0 X120.207 Y84.233 F5400
G1 X119.057 Y83.083 E51.6515 F2400
G0 X119.275 Y82.735 F5400
G1 X120.394 Y83.854 E51.7173 F2400
G0 X120.502 Y83.396 F5400
G1 X119.456 Y82.351 E51.7788 F2400
G0 X119.595 Y81.924 F5400
G1 X120.523 Y82.852 E51.8333 F2400
G0 X120.523 Y82.287 F5400
G1 X119.677 Y81.440 E51.8831 F2400
G0 X119.676 Y80.873 F5400
G1 X120.523 Y81.721 E51.9329 F2400
G0 X120.523 Y81.155 F5400
G1 X119.526 Y80.158 E51.9915 F2400
G0 F3000 E50.9915
G0 X119.198 Y80.317 F5400
G0 X119.272 Y80.559
G0 X119.334 Y81.039
G0 X119.313 Y81.522
G0 X119.211 Y81.995
G0 X119.031 Y82.444
G0 X118.777 Y82.856
G0 X118.458 Y83.219
G0 X118.081 Y83.523
G0 X117.659 Y83.759
G0 X117.203 Y83.920
G0 X116.726 Y84.002
G0 X116.242 Y84.002
G0 X115.765 Y83.920
G0 X115.309 Y83.759
G0 X114.887 Y83.523
G0 X114.510 Y83.219
G0 X114.190 Y82.856
G0 X114.139 Y82.773
G0 X113.813 Y82.931
G0 F3000 E51.9915
G1 X112.444 Y81.561 E52.0720 F2400
G0 X112.444 Y82.127 F5400
G1 X115.516 Y85.199 E52.2526 F2400
G0 X114.951 Y85.199 F5400
G1 X112.444 Y82.693 E52.4000 F2400
G0 X112.456 Y83.270 F5400
G1 X114.373 Y85.187 E52.5127 F2400
G0 X113.619 Y84.999 F5400
G1 X112.644 Y84.024 E52.5700 F2400
G0 F3000 E51.5700
G0 X112.164 Y83.738 F5400
G0 X112.115 Y83.535
G0 X112.084 Y83.136
G0 X112.084 Y77.136
G0 X112.040 Y76.588
G0 X111.907 Y76.039
G0 X111.690 Y75.518
G0 X111.398 Y75.042
G0 X111.031 Y74.612
G0 X110.601 Y74.245
G0 X110.119 Y73.950
G0 X109.597 Y73.734
G0 X109.047 Y73.602
G0 X108.507 Y73.559
G0 X95.109 Y73.559
G0 X95.109 Y73.559
G0 X92.428 Y71.959
G0 X93.003 Y72.303
G0 F3000 E52.5700
G1 X93.540 Y72.840 E52.6016 F2400
G0 X94.443 Y73.177 F5400
G1 X92.666 Y71.400 E52.7061 F2400
G0 X92.644 Y70.812 F5400
G1 X95.031 Y73.199 E52.8464 F2400
G0 X95.597 Y73.199 F5400
G1 X92.644 Y70.247 E53.0200 F2400
G0 X92.644 Y69.681 F5400
G1 X96.162 Y73.199 E53.2269 F2400
G0 X96.728 Y73.199 F5400
G1 X92.644 Y69.115 E53.4670 F2400
G0 X92.644 Y68.550 F5400
G1 X97.294 Y73.199 E53.7404 F2400
G0 X97.859 Y73.199 F5400
G1 X96.780 Y72.120 E53.8038 F2400
G0 X97.346 Y72.120 F5400
G1 X98.425 Y73.199 E53.8672 F2400
G0 X98.991 Y73.199 F5400
G1 X97.912 Y72.120 E53.9307 F2400
G0 X98.478 Y72.120 F5400
G1 X99.556 Y73.199 E53.9941 F2400
G0 X100.122 Y73.199 F5400
G1 X99.043 Y72.120 E54.0575 F2400
G0 X99.609 Y72.120 F5400
G1 X100.688 Y73.199 E54.1210 F2400
G0 X101.253 Y73.199 F5400
G1 X100.175 Y72.120 E54.1844 F2400
G0 X100.740 Y72.120 F5400
G1 X101.819 Y73.199 E54.2478 F2400
G0 X102.385 Y73.199 F5400
G1 X101.306 Y72.120 E54.3113 F2400
G0 X101.872 Y72.120 F5400
G1 X102.951 Y73.199 E54.3747 F2400
G0 X103.516 Y73.199 F5400
G1 X102.437 Y72.120 E54.4381 F2400
G0 X103.003 Y72.120 F5400
G1 X104.082 Y73.199 E54.5016 F2400
G0 X104.648 Y73.199 F5400
G1 X103.569 Y72.120 E54.5650 F2400
G0 X104.134 Y72.120 F5400
G1 X105.213 Y73.199 E54.6284 F2400
G0 X105.779 Y73.199 F5400
G1 X104.700 Y72.120 E54.6919 F2400
G0 X105.266 Y72.120 F5400
G1 X106.345 Y73.199 E54.7553 F2400
G0 X106.910 Y73.199 F5400
G1 X105.831 Y72.120 E54.8187 F2400
G0 X106.397 Y72.120 F5400
G1 X107.476 Y73.199 E54.8822 F2400
G0 X108.042 Y73.199 F5400
G1 X106.963 Y72.120 E54.9456 F2400
G0 X107.529 Y72.120 F5400
G1 X108.615 Y73.206 E55.0095 F2400
G0 X109.255 Y73.281 F5400
G1 X108.094 Y72.120 E55.0777 F2400
G0 X108.660 Y72.120 F5400
G1 X110.086 Y73.547 E55.1616 F2400
G0 X109.791 Y72.120 F5400
G1 X115.720 Y78.049 E55.5102 F2400
G0 X116.206 Y77.969 F5400
G1 X110.357 Y72.120 E55.8541 F2400
G0 X110.923 Y72.120 F5400
G1 X116.773 Y77.970 E56.1981 F2400
G0 X117.477 Y78.109 F5400
G1 X111.488 Y72.120 E56.5502 F2400
G0 X112.054 Y72.120 F5400
G1 X120.523 Y80.590 E57.0482 F2400
G0 X120.523 Y80.024 F5400
G1 X112.620 Y72.120 E57.5129 F2400
G0 X113.185 Y72.120 F5400
G1 X120.523 Y79.458 E57.9443 F2400
G0 X120.523 Y78.892 F5400
G1 X113.751 Y72.120 E58.3425 F2400
G0 X114.317 Y72.120 F5400
G1 X120.523 Y78.327 E58.7074 F2400
G0 X120.523 Y77.761 F5400
G1 X114.882 Y72.120 E59.0391 F2400
G0 X115.448 Y72.120 F5400
G1 X120.523 Y77.195 E59.3375 F2400
G0 X120.559 Y76.666 F5400
G1 X116.014 Y72.120 E59.6047 F2400
G0 X116.579 Y72.120 F5400
G1 X120.652 Y76.193 E59.8442 F2400
G0 X120.786 Y75.761 F5400
G1 X117.145 Y72.120 E60.0583 F2400
G0 X117.711 Y72.120 F5400
G1 X120.952 Y75.361 E60.2489 F2400
G0 X121.167 Y75.010 F5400
G1 X118.277 Y72.120 E60.4188 F2400
G0 X118.842 Y72.120 F5400
G1 X121.404 Y74.682 E60.5694 F2400
G0 X121.664 Y74.377 F5400
G1 X119.408 Y72.120 E60.7021 F2400
G0 X119.974 Y72.120 F5400
G1 X121.967 Y74.113 E60.8193 F2400
G0 X122.289 Y73.870 F5400
G1 X120.539 Y72.120 E60.9221 F2400
G0 X121.105 Y72.120 F5400
G1 X122.640 Y73.655 E61.0124 F2400
G0 X123.034 Y73.483 F5400
G1 X121.671 Y72.120 E61.0926 F2400
G0 X122.236 Y72.120 F5400
G1 X123.458 Y73.342 E61.1644 F2400
G0 X123.922 Y73.240 F5400
G1 X122.802 Y72.120 E61.2303 F2400
G0 X123.368 Y72.120 F5400
G1 X124.447 Y73.199 E61.2937 F2400
G0 X125.012 Y73.199 F5400
G1 X123.933 Y72.120 E61.3571 F2400
G0 X124.499 Y72.120 F5400
G1 X125.578 Y73.199 E61.4206 F2400
G0 X126.144 Y73.199 F5400
G1 X125.065 Y72.120 E61.4840 F2400
G0 X125.630 Y72.120 F5400
G1 X126.709 Y73.199 E61.5474 F2400
G0 X127.275 Y73.199 F5400
G1 X126.196 Y72.120 E61.6109 F2400
G0 X126.762 Y72.120 F5400
G1 X127.841 Y73.199 E61.6743 F2400
G0 X128.406 Y73.199 F5400
G1 X127.327 Y72.120 E61.7378 F2400
G0 X127.893 Y72.120 F5400
G1 X128.972 Y73.199 E61.8012 F2400
G0 X129.538 Y73.199 F5400
G1 X128.459 Y72.120 E61.8646 F2400
G0 X129.025 Y72.120 F5400
G1 X130.103 Y73.199 E61.9281 F2400
G0 X130.669 Y73.199 F5400
G1 X129.590 Y72.120 E61.9915 F2400
G0 X130.156 Y72.120 F5400
G1 X131.235 Y73.199 E62.0549 F2400
G0 X131.801 Y73.199 F5400
G1 X130.722 Y72.120 E62.1184 F2400
G0 X131.287 Y72.120 F5400
G1 X132.366 Y73.199 E62.1818 F2400
G0 X132.932 Y73.199 F5400
G1 X131.853 Y72.120 E62.2452 F2400
G0 X132.419 Y72.120 F5400
G1 X133.498 Y73.199 E62.3087 F2400
G0 X134.063 Y73.199 F5400
G1 X132.984 Y72.120 E62.3721 F2400
G0 X133.550 Y72.120 F5400
G1 X134.629 Y73.199 E62.4355 F2400
G0 X135.195 Y73.199 F5400
G1 X134.116 Y72.120 E62.4990 F2400
G0 X134.681 Y72.120 F5400
G1 X135.760 Y73.199 E62.5624 F2400
G0 X136.326 Y73.199 F5400
G1 X135.247 Y72.120 E62.6258 F2400
G0 X135.813 Y72.120 F5400
G1 X136.892 Y73.199 E62.6893 F2400
G0 X137.457 Y73.199 F5400
G1 X136.378 Y72.120 E62.7527 F2400
G0 X136.744 Y71.920 F5400
G1 X138.023 Y73.199 E62.8279 F2400
G0 X138.564 Y73.174 F5400
G1 X136.744 Y71.355 E62.9349 F2400
G0 X136.744 Y70.789 F5400
G1 X139.011 Y73.056 E63.0681 F2400
G0 X139.386 Y72.865 F5400
G1 X136.744 Y70.223 E63.2235 F2400
G0 X136.801 Y69.714 F5400
G1 X139.704 Y72.617 E63.3941 F2400
G0 X139.244 Y68.764 F5400
G1 X140.323 Y69.843 E63.4576 F2400
G0 X140.323 Y69.277 F5400
G1 X139.244 Y68.198 E63.5210 F2400
G0 X139.244 Y67.632 F5400
G1 X140.323 Y68.711 E63.5844 F2400
G0 X140.323 Y68.145 F5400
G1 X139.244 Y67.067 E63.6479 F2400
G0 X139.244 Y66.501 F5400
G1 X140.323 Y67.580 E63.7113 F2400
G0 X140.323 Y67.014 F5400
G1 X139.244 Y65.935 E63.7747 F2400
G0 X139.244 Y65.370 F5400
G1 X140.323 Y66.448 E63.8382 F2400
G0 X140.323 Y65.883 F5400
G1 X139.244 Y64.804 E63.9016 F2400
G0 X139.244 Y64.238 F5400
G1 X140.323 Y65.317 E63.9650 F2400
G0 X140.323 Y64.751 F5400
G1 X139.244 Y63.672 E64.0284 F2400
G0 X139.244 Y63.107 F5400
G1 X140.323 Y64.186 E64.0919 F2400
G0 X140.323 Y63.620 F5400
G1 X139.244 Y62.541 E64.1553 F2400
G0 X139.244 Y61.975 F5400
G1 X140.323 Y63.054 E64.2187 F2400
G0 X140.323 Y62.489 F5400
G1 X139.244 Y61.410 E64.2822 F2400
G0 X139.244 Y60.844 F5400
G1 X140.323 Y61.923 E64.3456 F2400
G0 X140.323 Y61.357 F5400
G1 X139.244 Y60.278 E64.4090 F2400
G0 X139.244 Y59.713 F5400
G1 X140.323 Y60.792 E64.4725 F2400
G0 X140.323 Y60.226 F5400
G1 X139.244 Y59.147 E64.5359 F2400
G0 X139.244 Y58.581 F5400
G1 X140.323 Y59.660 E64.5993 F2400
G0 X140.323 Y59.094 F5400
G1 X139.244 Y58.016 E64.6628 F2400
G0 X139.244 Y57.450 F5400
G1 X140.323 Y58.529 E64.7262 F2400
G0 X140.323 Y57.963 F5400
G1 X139.244 Y56.884 E64.7896 F2400
G0 X139.244 Y56.319 F5400
G1 X140.323 Y57.397 E64.8530 F2400
G0 X140.323 Y56.832 F5400
G1 X139.244 Y55.753 E64.9165 F2400
G0 X139.244 Y55.187 F5400
G1 X140.323 Y56.266 E64.9799 F2400
G0 X140.323 Y55.700 F5400
G1 X139.244 Y54.622 E65.0433 F2400
G0 X138.959 Y50.942 F5400
G1 X140.202 Y52.185 E65.1164 F2400
G0 X140.321 Y52.870 F5400
G1 X138.274 Y50.822 E65.2368 F2400
G0 X137.706 Y50.820 F5400
G1 X140.323 Y53.438 E65.3907 F2400
G0 X140.323 Y54.003 F5400
G1 X137.140 Y50.820 E65.5778 F2400
G0 X136.575 Y50.820 F5400
G1 X140.323 Y54.569 E65.7982 F2400
G0 X140.323 Y55.135 F5400
G1 X136.009 Y50.820 E66.0519 F2400
G0 X136.744 Y53.819 F5400
G1 X137.325 Y54.399 E66.0860 F2400
G0 X137.891 Y54.399 F5400
G1 X136.744 Y53.253 E66.1534 F2400
G0 X136.744 Y52.687 F5400
G1 X138.456 Y54.399 E66.2541 F2400
G0 X139.022 Y54.399 F5400
G1 X136.744 Y52.122 E66.3880 F2400
G0 X136.522 Y51.899 F5400
G1 X135.443 Y50.820 E66.4515 F2400
G0 X134.877 Y50.820 F5400
G1 X135.956 Y51.899 E66.5149 F2400
G0 X135.391 Y51.899 F5400
G1 X134.312 Y50.820 E66.5783 F2400
G0 X133.746 Y50.820 F5400
G1 X134.825 Y51.899 E66.6418 F2400
G0 X134.259 Y51.899 F5400
G1 X133.180 Y50.820 E66.7052 F2400
G0 X132.615 Y50.820 F5400
G1 X133.694 Y51.899 E66.7686 F2400
G0 X133.128 Y51.899 F5400
G1 X132.049 Y50.820 E66.8321 F2400
G0 X131.483 Y50.820 F5400
G1 X132.562 Y51.899 E66.8955 F2400
G0 X131.997 Y51.899 F5400
G1 X130.918 Y50.820 E66.9590 F2400
G0 X130.352 Y50.820 F5400
G1 X131.431 Y51.899 E67.0224 F2400
G0 X130.865 Y51.899 F5400
G1 X129.786 Y50.820 E67.0858 F2400
G0 X129.221 Y50.820 F5400
G1 X130.300 Y51.899 E67.1493 F2400
G0 X129.734 Y51.899 F5400
G1 X128.655 Y50.820 E67.2127 F2400
G0 X128.089 Y50.820 F5400
G1 X129.168 Y51.899 E67.2762 F2400
G0 X128.602 Y51.899 F5400
G1 X127.524 Y50.820 E67.3396 F2400
G0 X126.958 Y50.820 F5400
G1 X128.037 Y51.899 E67.4030 F2400
G0 X127.471 Y51.899 F5400
G1 X126.392 Y50.820 E67.4665 F2400
G0 X125.827 Y50.820 F5400
G1 X126.905 Y51.899 E67.5299 F2400
G0 X126.340 Y51.899 F5400
G1 X125.261 Y50.820 E67.5933 F2400
G0 X124.695 Y50.820 F5400
G1 X125.774 Y51.899 E67.6568 F2400
G0 X125.208 Y51.899 F5400
G1 X124.102 Y50.793 E67.7218 F2400
G0 X123.409 Y50.665 F5400
G1 X124.643 Y51.899 E67.7944 F2400
G0 X124.077 Y51.899 F5400
G1 X122.387 Y50.209 E67.8938 F2400
G0 X117.909 Y45.731 F5400
G1 X121.134 Y48.957 E68.0834 F2400
G0 X120.679 Y47.936 F5400
G1 X118.272 Y45.529 E68.2249 F2400
G0 X118.587 Y45.278 F5400
G1 X120.551 Y47.242 E68.3404 F2400
G0 X120.523 Y46.648 F5400
G1 X118.870 Y44.995 E68.4376 F2400
G0 X119.123 Y44.682 F5400
G1 X120.523 Y46.083 E68.5199 F2400
G0 X120.523 Y45.517 F5400
G1 X119.338 Y44.332 E68.5896 F2400
G0 X119.504 Y43.932 F5400
G1 X120.523 Y44.951 E68.6495 F2400
G0 X120.523 Y44.386 F5400
G1 X119.625 Y43.487 E68.7024 F2400
G0 X119.684 Y42.981 F5400
G1 X120.523 Y43.820 E68.7517 F2400
G0 X120.523 Y43.254 F5400
G1 X119.651 Y42.382 E68.8030 F2400
G0 X119.436 Y41.601 F5400
G1 X120.523 Y42.689 E68.8669 F2400
G0 X120.523 Y42.123 F5400
G1 X117.221 Y38.820 E69.0611 F2400
G0 X117.786 Y38.820 F5400
G1 X120.523 Y41.557 E69.2220 F2400
G0 X120.523 Y40.992 F5400
G1 X118.352 Y38.820 E69.3497 F2400
G0 X118.991 Y38.894 F5400
G1 X120.450 Y40.352 E69.4355 F2400
G0 X116.655 Y38.820 F5400
G1 X117.754 Y39.920 E69.5001 F2400
G0 X116.955 Y39.686 F5400
G1 X116.089 Y38.820 E69.5510 F2400
G0 X115.524 Y38.820 F5400
G1 X116.360 Y39.656 E69.6002 F2400
G0 X115.853 Y39.715 F5400
G1 X114.958 Y38.820 E69.6528 F2400
G0 X114.402 Y38.830 F5400
G1 X115.405 Y39.833 E69.7117 F2400
G0 X115.015 Y40.009 F5400
G1 X113.915 Y38.909 E69.7765 F2400
G0 X113.514 Y39.073 F5400
G1 X114.665 Y40.224 E69.8441 F2400
G0 X114.347 Y40.472 F5400
G1 X113.179 Y39.304 E69.9128 F2400
G0 X112.899 Y39.589 F5400
G1 X114.060 Y40.751 E69.9811 F2400
G0 X113.820 Y41.076 F5400
G1 X112.673 Y39.929 E70.0485 F2400
G0 X112.520 Y40.342 F5400
G1 X113.615 Y41.437 E70.1129 F2400
G0 X113.448 Y41.836 F5400
G1 X112.449 Y40.837 E70.1716 F2400
G0 X112.444 Y41.398 F5400
G1 X113.329 Y42.283 E70.2236 F2400
G0 X113.276 Y42.795 F5400
G1 X112.444 Y41.963 E70.2725 F2400
G0 X112.444 Y42.529 F5400
G1 X113.327 Y43.412 E70.3244 F2400
G0 X113.586 Y44.236 F5400
G1 X112.444 Y43.095 E70.3915 F2400
G0 F3000 E69.3915
G0 X116.753 Y52.259 F5400
G0 X96.584 Y52.259
G0 X96.584 Y54.312
G0 X96.557 Y54.481
G0 X96.501 Y54.590
G0 X96.414 Y54.677
G0 X96.305 Y54.733
G0 X96.137 Y54.759
G0 X94.083 Y54.759
G0 X94.083 Y69.260
G0 X96.137 Y69.260
G0 X96.305 Y69.287
G0 X96.414 Y69.342
G0 X96.501 Y69.429
G0 X96.557 Y69.539
G0 X96.584 Y69.707
G0 X96.584 Y71.760
G0 X125.922 Y71.760
G0 X125.922 Y71.760
G0 X126.768 Y73.559
G0 X128.128 Y76.450
G0 X128.952 Y78.204
G0 X128.952 Y78.204
G0 X129.050 Y78.160
G0 X129.518 Y78.039
G0 X130.000 Y77.997
G0 X130.482 Y78.039
G0 X130.950 Y78.160
G0 X131.391 Y78.360
G0 X131.792 Y78.631
G0 X132.141 Y78.965
G0 X132.429 Y79.354
G0 X132.647 Y79.786
G0 X132.789 Y80.249
G0 X132.850 Y80.729
G0 X132.830 Y81.212
G0 X132.728 Y81.685
G0 X132.547 Y82.134
G0 X132.294 Y82.546
G0 X131.974 Y82.910
G0 X131.597 Y83.213
G0 X131.368 Y83.341
G0 X131.522 Y83.668
G0 F3000 E70.3915
G1 X134.446 Y86.592 E70.5634 F2400
G0 X134.147 Y85.728 F5400
G1 X131.873 Y83.454 E70.6972 F2400
G0 X132.186 Y83.201 F5400
G1 X134.054 Y85.069 E70.8070 F2400
G0 X134.653 Y84.851 F5400
;segType:Perimeter
G1 X134.854 Y85.417 E70.8320 F1439
G1 X134.958 Y85.846 E70.8504
G1 X135.151 Y86.309 E70.8712
G1 X135.410 Y86.732 E70.8918
G1 X135.737 Y87.114 E70.9127
G1 X136.119 Y87.440 E70.9336
G1 X136.547 Y87.702 E70.9545
G1 X137.011 Y87.894 E70.9754
G1 X137.499 Y88.012 E70.9962
G1 X137.992 Y88.050 E71.0168
G1 X151.792 Y88.050 E71.5905
G1 X152.238 Y88.086 E71.6091
G1 X152.665 Y88.188 E71.6274
G1 X153.071 Y88.356 E71.6456
G1 X153.445 Y88.586 E71.6639
G1 X153.779 Y88.871 E71.6822
G1 X154.065 Y89.205 E71.7005
G1 X154.294 Y89.579 E71.7187
G1 X154.462 Y89.985 E71.7370
G1 X154.564 Y90.412 E71.7552
G1 X154.600 Y90.858 E71.7738
G1 X154.600 Y109.142 E72.5340
G1 X154.564 Y109.588 E72.5526
G1 X154.462 Y110.015 E72.5708
G1 X154.294 Y110.421 E72.5891
G1 X154.065 Y110.795 E72.6073
G1 X153.779 Y111.129 E72.6256
G1 X153.445 Y111.414 E72.6439
G1 X153.071 Y111.644 E72.6621
G1 X152.665 Y111.812 E72.6804
G1 X152.238 Y111.915 E72.6986
G1 X151.792 Y111.950 E72.7172
G1 X137.992 Y111.950 E73.2910
G1 X137.499 Y111.988 E73.3115
G1 X137.011 Y112.106 E73.3324
G1 X136.547 Y112.298 E73.3533
G1 X136.119 Y112.560 E73.3742
G1 X135.737 Y112.887 E73.3951
G1 X135.410 Y113.268 E73.4159
G1 X135.148 Y113.697 E73.4368
G1 X134.956 Y114.161 E73.4577
G1 X134.838 Y114.649 E73.4786
G1 X134.800 Y115.142 E73.4991
G1 X134.800 Y121.142 E73.7486
G1 X134.765 Y121.588 E73.7672
G1 X134.662 Y122.015 E73.7854
G1 X134.494 Y122.421 E73.8037
G1 X134.265 Y122.795 E73.8220
G1 X133.979 Y123.129 E73.8402
G1 X133.645 Y123.414 E73.8585
G1 X133.271 Y123.644 E73.8768
G1 X132.865 Y123.812 E73.8950
G1 X132.438 Y123.915 E73.9133
G1 X131.992 Y123.950 E73.9319
G1 X128.008 Y123.950 E74.0975
G1 X127.562 Y123.915 E74.1161
G1 X127.135 Y123.812 E74.1344
G1 X126.729 Y123.644 E74.1526
G1 X126.355 Y123.414 E74.1709
G1 X126.021 Y123.129 E74.1891
G1 X125.736 Y122.795 E74.2074
G1 X125.506 Y122.421 E74.2256
G1 X125.338 Y122.015 E74.2439
G1 X125.235 Y121.588 E74.2622
G1 X125.200 Y121.142 E74.2808
G1 X125.200 Y115.142 E74.5302
G1 X125.160 Y114.642 E74.5511
G1 X125.042 Y114.154 E74.5719
G1 X124.849 Y113.691 E74.5928
G1 X124.590 Y113.268 E74.6134
G1 X124.263 Y112.887 E74.6343
G1 X123.882 Y112.560 E74.6552
G1 X123.453 Y112.298 E74.6761
G1 X122.989 Y112.106 E74.6969
G1 X122.501 Y111.988 E74.7178
G1 X122.008 Y111.950 E74.7384
G1 X108.208 Y111.950 E75.3121
G1 X107.762 Y111.915 E75.3307
G1 X107.335 Y111.812 E75.3490
G1 X106.929 Y111.644 E75.3672
G1 X106.555 Y111.414 E75.3855
G1 X106.221 Y111.129 E75.4038
G1 X105.936 Y110.795 E75.4220
G1 X105.706 Y110.421 E75.4403
G1 X105.538 Y110.015 E75.4585
G1 X105.435 Y109.588 E75.4768
G1 X105.400 Y109.142 E75.4954
G1 X105.400 Y90.858 E76.2555
G1 X105.435 Y90.412 E76.2741
G1 X105.538 Y89.985 E76.2924
G1 X105.706 Y89.579 E76.3107
G1 X105.936 Y89.205 E76.3289
G1 X106.221 Y88.871 E76.3472
G1 X106.555 Y88.586 E76.3654
G1 X106.929 Y88.356 E76.3837
G1 X107.335 Y88.188 E76.4020
G1 X107.762 Y88.086 E76.4202
G1 X108.208 Y88.050 E76.4388
G1 X122.008 Y88.050 E77.0125
G1 X122.501 Y88.012 E77.0331
G1 X122.989 Y87.894 E77.0540
G1 X123.453 Y87.702 E77.0749
G1 X123.882 Y87.440 E77.0958
G1 X124.264 Y87.114 E77.1166
G1 X124.590 Y86.732 E77.1375
G1 X124.852 Y86.303 E77.1584
G1 X125.044 Y85.839 E77.1793
G1 X125.162 Y85.351 E77.2002
G1 X125.200 Y84.858 E77.2207
G1 X125.200 Y78.858 E77.4702
G1 X125.235 Y78.412 E77.4888
G1 X125.338 Y77.985 E77.5070
G1 X125.506 Y77.579 E77.5253
G1 X125.736 Y77.205 E77.5435
G1 X126.021 Y76.871 E77.5618
G1 X126.355 Y76.585 E77.5801
G1 X126.729 Y76.356 E77.5983
G1 X127.135 Y76.188 E77.6166
G1 X127.562 Y76.086 E77.6348
G1 X128.008 Y76.050 E77.6534
G1 X131.992 Y76.050 E77.8191
G1 X132.438 Y76.086 E77.8377
G1 X132.865 Y76.188 E77.8559
G1 X133.271 Y76.356 E77.8742
G1 X133.645 Y76.585 E77.8924
G1 X133.979 Y76.871 E77.9107
G1 X134.265 Y77.205 E77.9290
G1 X134.494 Y77.579 E77.9472
G1 X134.662 Y77.985 E77.9655
G1 X134.765 Y78.412 E77.9837
G1 X134.800 Y78.858 E78.0023
G1 X134.800 Y84.858 E78.2518
G1 X134.835 Y85.298 E78.2702
G0 X134.816 Y86.098 F5400
G0 X134.846 Y86.577
;segType:Loop
G1 X135.086 Y86.968 E78.2892 F2400
G1 X135.453 Y87.397 E78.3127
G1 X135.883 Y87.764 E78.3362
G1 X136.365 Y88.060 E78.3597
G1 X136.887 Y88.276 E78.3832
G1 X137.437 Y88.408 E78.4067
G1 X137.976 Y88.450 E78.4292
G1 X151.776 Y88.450 E79.0030
G1 X152.175 Y88.482 E79.0196
G1 X152.541 Y88.570 E79.0352
G1 X152.888 Y88.714 E79.0509
G1 X153.209 Y88.910 E79.0665
G1 X153.495 Y89.155 E79.0822
G1 X153.740 Y89.441 E79.0978
G1 X153.937 Y89.762 E79.1135
G1 X154.080 Y90.109 E79.1291
G1 X154.168 Y90.475 E79.1447
G1 X154.200 Y90.874 E79.1614
G1 X154.200 Y109.126 E79.9202
G1 X154.168 Y109.525 E79.9368
G1 X154.080 Y109.891 E79.9525
G1 X153.937 Y110.239 E79.9681
G1 X153.740 Y110.559 E79.9838
G1 X153.495 Y110.845 E79.9994
G1 X153.209 Y111.090 E80.0151
G1 X152.888 Y111.286 E80.0307
G1 X152.541 Y111.430 E80.0464
G1 X152.175 Y111.518 E80.0620
G1 X151.776 Y111.550 E80.0786
G1 X137.977 Y111.550 E80.6524
G1 X137.437 Y111.592 E80.6749
G1 X136.887 Y111.724 E80.6984
G1 X136.365 Y111.940 E80.7219
G1 X135.883 Y112.236 E80.7454
G1 X135.453 Y112.603 E80.7689
G1 X135.086 Y113.033 E80.7924
G1 X134.790 Y113.514 E80.8159
G1 X134.574 Y114.037 E80.8394
G1 X134.442 Y114.587 E80.8629
G1 X134.400 Y115.126 E80.8854
G1 X134.400 Y121.127 E81.1349
G1 X134.368 Y121.525 E81.1515
G1 X134.280 Y121.891 E81.1671
G1 X134.136 Y122.239 E81.1828
G1 X133.940 Y122.559 E81.1984
G1 X133.696 Y122.845 E81.2140
G1 X133.410 Y123.090 E81.2297
G1 X133.089 Y123.286 E81.2453
G1 X132.741 Y123.430 E81.2610
G1 X132.375 Y123.518 E81.2766
G1 X131.976 Y123.550 E81.2932
G1 X128.023 Y123.550 E81.4576
G1 X127.625 Y123.518 E81.4742
G1 X127.259 Y123.430 E81.4898
G1 X126.911 Y123.286 E81.5055
G1 X126.591 Y123.090 E81.5211
G1 X126.305 Y122.845 E81.5368
G1 X126.060 Y122.559 E81.5524
G1 X125.864 Y122.239 E81.5680
G1 X125.720 Y121.891 E81.5837
G1 X125.632 Y121.525 E81.5993
G1 X125.600 Y121.127 E81.6160
G1 X125.600 Y115.126 E81.8654
G1 X125.556 Y114.578 E81.8883
G1 X125.423 Y114.029 E81.9118
G1 X125.206 Y113.508 E81.9352
G1 X124.914 Y113.033 E81.9584
G1 X124.547 Y112.603 E81.9819
G1 X124.117 Y112.236 E82.0054
G1 X123.635 Y111.940 E82.0289
G1 X123.113 Y111.724 E82.0524
G1 X122.564 Y111.592 E82.0759
G1 X122.024 Y111.550 E82.0985
G1 X108.223 Y111.550 E82.6722
G1 X107.825 Y111.518 E82.6888
G1 X107.459 Y111.430 E82.7045
G1 X107.111 Y111.286 E82.7201
G1 X106.791 Y111.090 E82.7357
G1 X106.505 Y110.845 E82.7514
G1 X106.260 Y110.559 E82.7670
G1 X106.065 Y110.241 E82.7825
G1 X105.920 Y109.892 E82.7983
G1 X105.832 Y109.525 E82.8140
G1 X105.800 Y109.126 E82.8306
G1 X105.800 Y90.874 E83.5894
G1 X105.832 Y90.475 E83.6061
G1 X105.920 Y90.109 E83.6217
G1 X106.064 Y89.762 E83.6374
G1 X106.260 Y89.441 E83.6530
G1 X106.505 Y89.155 E83.6686
G1 X106.791 Y88.910 E83.6843
G1 X107.112 Y88.713 E83.6999
G1 X107.459 Y88.570 E83.7156
G1 X107.825 Y88.482 E83.7312
G1 X108.223 Y88.450 E83.7478
G1 X122.024 Y88.450 E84.3216
G1 X122.564 Y88.408 E84.3441
G1 X123.113 Y88.276 E84.3676
G1 X123.635 Y88.060 E84.3911
G1 X124.117 Y87.764 E84.4146
G1 X124.547 Y87.397 E84.4381
G1 X124.914 Y86.967 E84.4616
G1 X125.210 Y86.485 E84.4851
G1 X125.426 Y85.963 E84.5086
G1 X125.558 Y85.414 E84.5321
G1 X125.600 Y84.873 E84.5546
G1 X125.600 Y78.874 E84.8041
G1 X125.632 Y78.475 E84.8207
G1 X125.720 Y78.109 E84.8363
G1 X125.864 Y77.762 E84.8520
G1 X126.060 Y77.441 E84.8676
G1 X126.305 Y77.155 E84.8833
G1 X126.591 Y76.910 E84.8989
G1 X126.911 Y76.714 E84.9146
G1 X127.259 Y76.570 E84.9302
G1 X127.625 Y76.482 E84.9458
G1 X128.024 Y76.450 E84.9625
G1 X131.976 Y76.450 E85.1268
G1 X132.375 Y76.482 E85.1434
G1 X132.741 Y76.570 E85.1591
G1 X133.089 Y76.714 E85.1747
G1 X133.409 Y76.910 E85.1904
G1 X133.696 Y77.155 E85.2060
G1 X133.940 Y77.441 E85.2216
G1 X134.136 Y77.762 E85.2373
G1 X134.280 Y78.109 E85.2529
G1 X134.368 Y78.475 E85.2686
G1 X134.400 Y78.874 E85.2852
G1 X134.400 Y84.874 E85.5347
G1 X134.444 Y85.422 E85.5575
G1 X134.577 Y85.971 E85.5810
G1 X134.756 Y86.400 E85.6003
G0 F3000 E84.6003
G0 X130.701 Y83.979 F5400
G0 F3000 E85.6003
;segType:HShell
G1 X136.611 Y89.889 E85.9478 F2400
G0 X136.046 Y89.889 F5400
G1 X130.206 Y84.050 E86.2912 F2400
G0 X130.516 Y83.484 F5400
;segType:Perimeter
G1 X129.742 Y83.283 E86.3245 F1439
G1 X129.383 Y83.222 E86.3396
G1 X128.990 Y83.083 E86.3569
G1 X128.627 Y82.881 E86.3742
G1 X128.304 Y82.620 E86.3915
G1 X128.029 Y82.308 E86.4088
G1 X127.811 Y81.954 E86.4260
G1 X127.656 Y81.568 E86.4433
G1 X127.569 Y81.161 E86.4606
G1 X127.551 Y80.746 E86.4779
G1 X127.604 Y80.334 E86.4952
G1 X127.726 Y79.936 E86.5125
G1 X127.913 Y79.565 E86.5297
G1 X128.160 Y79.231 E86.5470
G1 X128.460 Y78.943 E86.5643
G1 X128.805 Y78.710 E86.5816
G1 X129.183 Y78.539 E86.5989
G1 X129.586 Y78.434 E86.6162
G1 X130.000 Y78.399 E86.6334
G1 X130.414 Y78.434 E86.6507
G1 X130.816 Y78.539 E86.6680
G1 X131.195 Y78.710 E86.6853
G1 X131.540 Y78.943 E86.7026
G1 X131.840 Y79.231 E86.7199
G1 X132.087 Y79.565 E86.7371
G1 X132.274 Y79.936 E86.7544
G1 X132.396 Y80.334 E86.7717
G1 X132.449 Y80.746 E86.7890
G1 X132.431 Y81.161 E86.8063
G1 X132.344 Y81.568 E86.8236
G1 X132.189 Y81.953 E86.8409
G1 X131.971 Y82.307 E86.8581
G1 X131.696 Y82.620 E86.8754
G1 X131.372 Y82.881 E86.8927
G1 X131.010 Y83.083 E86.9100
G1 X130.618 Y83.222 E86.9273
G1 X130.224 Y83.289 E86.9439
G1 X129.861 Y83.292 E86.9590
G0 X129.065 Y83.368 F5400
G0 X128.569 Y83.306
;segType:Loop
G1 X128.403 Y83.213 E86.9669 F2400
G1 X128.026 Y82.910 E86.9870
G1 X127.707 Y82.546 E87.0071
G1 X127.453 Y82.134 E87.0272
G1 X127.272 Y81.685 E87.0473
G1 X127.171 Y81.212 E87.0674
G1 X127.150 Y80.729 E87.0876
G1 X127.212 Y80.249 E87.1077
G1 X127.353 Y79.786 E87.1278
G1 X127.571 Y79.354 E87.1479
G1 X127.859 Y78.965 E87.1680
G1 X128.208 Y78.631 E87.1881
G1 X128.609 Y78.360 E87.2083
G1 X129.050 Y78.160 E87.2284
G1 X129.518 Y78.039 E87.2485
G1 X130.000 Y77.997 E87.2686
G1 X130.482 Y78.039 E87.2887
G1 X130.950 Y78.160 E87.3088
G1 X131.391 Y78.360 E87.3290
G1 X131.792 Y78.631 E87.3491
G1 X132.141 Y78.965 E87.3692
G1 X132.429 Y79.354 E87.3893
G1 X132.647 Y79.786 E87.4094
G1 X132.789 Y80.249 E87.4295
G1 X132.850 Y80.729 E87.4496
G1 X132.830 Y81.212 E87.4698
G1 X132.728 Y81.685 E87.4899
G1 X132.547 Y82.134 E87.5100
G1 X132.294 Y82.546 E87.5301
G1 X131.974 Y82.910 E87.5502
G1 X131.597 Y83.213 E87.5703
G1 X131.175 Y83.449 E87.5904
G1 X130.719 Y83.610 E87.6106
G1 X130.260 Y83.689 E87.6299
G1 X129.769 Y83.693 E87.6503
G1 X129.282 Y83.611 E87.6709
G1 X128.825 Y83.449 E87.6910
G1 X128.743 Y83.404 E87.6949
G0 F3000 E86.6949
G0 X128.743 Y83.404 F5400
G0 X135.075 Y90.250
G0 X135.075 Y90.250
G0 X149.900 Y90.250
G0 X149.900 Y92.303
G0 X149.927 Y92.471
G0 X149.983 Y92.581
G0 X150.070 Y92.667
G0 X150.179 Y92.723
G0 X150.347 Y92.750
G0 X152.400 Y92.750
G0 X152.400 Y107.250
G0 X150.800 Y107.250
G0 X150.800 Y107.250
G0 X153.788 Y110.481
G0 X153.534 Y110.206
G0 F3000 E87.6949
;segType:HShell
G1 X150.938 Y107.611 E87.8475 F2400
G0 X151.504 Y107.611 F5400
G1 X153.718 Y109.825 E87.9777 F2400
G0 X153.820 Y109.361 F5400
G1 X152.070 Y107.611 E88.0806 F2400
G0 X152.636 Y107.611 F5400
G1 X153.840 Y108.815 E88.1514 F2400
G0 X153.840 Y108.249 F5400
G1 X152.761 Y107.170 E88.2148 F2400
G0 X152.740 Y106.850 F5400
;segType:Perimeter
G1 X151.940 Y106.850 E88.2481 F1439
G1 X150.316 Y106.850 E88.3156
G1 X150.054 Y106.892 E88.3267
G1 X149.831 Y107.005 E88.3370
G1 X149.655 Y107.181 E88.3474
G1 X149.542 Y107.404 E88.3578
G1 X149.500 Y107.666 E88.3688
G1 X149.500 Y109.350 E88.4388
G1 X110.500 Y109.350 E90.0603
G1 X110.500 Y107.666 E90.1304
G1 X110.458 Y107.404 E90.1414
G1 X110.345 Y107.181 E90.1518
G1 X110.169 Y107.005 E90.1621
G1 X109.946 Y106.892 E90.1725
G1 X109.684 Y106.850 E90.1835
G1 X108.000 Y106.850 E90.2536
G1 X108.000 Y93.150 E90.8232
G1 X109.684 Y93.150 E90.8932
G1 X109.946 Y93.108 E90.9042
G1 X110.169 Y92.995 E90.9146
G1 X110.345 Y92.819 E90.9250
G1 X110.458 Y92.596 E90.9354
G1 X110.500 Y92.334 E90.9464
G1 X110.500 Y90.650 E91.0164
G1 X149.500 Y90.650 E92.6379
G1 X149.500 Y92.334 E92.7079
G1 X149.542 Y92.596 E92.7190
G1 X149.655 Y92.819 E92.7293
G1 X149.832 Y92.995 E92.7397
G1 X150.054 Y93.108 E92.7501
G1 X150.316 Y93.150 E92.7611
G1 X152.000 Y93.150 E92.8311
G1 X152.000 Y106.790 E93.3983
G0 X152.400 Y106.623 F5400
G0 X152.400 Y107.250
G0 X150.900 Y107.250
G0 X150.900 Y107.250
;segType:Loop
G1 X150.347 Y107.250 E93.4213 F2400
G1 X150.179 Y107.277 E93.4284
G1 X150.069 Y107.333 E93.4335
G1 X149.961 Y107.441 E93.4398
G1 X149.900 Y107.698 E93.4508
G1 X149.900 Y109.750 E93.5361
G1 X110.100 Y109.750 E95.1909
G1 X110.100 Y107.697 E95.2762
G1 X110.018 Y107.420 E95.2882
G1 X109.937 Y107.339 E95.2930
G1 X109.653 Y107.250 E95.3054
G1 X107.600 Y107.250 E95.3907
G1 X107.600 Y92.750 E95.9936
G1 X109.653 Y92.750 E96.0790
G1 X109.821 Y92.723 E96.0861
G1 X109.931 Y92.667 E96.0912
G1 X110.033 Y92.565 E96.0972
G1 X110.100 Y92.303 E96.1084
G1 X110.100 Y90.250 E96.1938
G1 X149.900 Y90.250 E97.8485
G1 X149.900 Y92.303 E97.9339
G1 X149.927 Y92.471 E97.9410
G1 X149.983 Y92.581 E97.9461
G1 X150.070 Y92.667 E97.9512
G1 X150.179 Y92.723 E97.9563
G1 X150.347 Y92.750 E97.9633
G1 X152.400 Y92.750 E98.0487
G1 X152.400 Y107.250 E98.6516
G1 X151.100 Y107.250 E98.7056
G0 F3000 E97.7056
G0 X151.100 Y107.250 F5400
G0 X149.915 Y107.637
G0 X149.915 Y107.637
G0 X149.900 Y107.698
G0 X149.900 Y109.750
G0 X143.428 Y109.750
G0 X143.428 Y109.750
G0 X137.885 Y111.557
G0 X137.885 Y111.557
G0 X135.975 Y112.179
G0 X135.975 Y112.179
G0 X125.600 Y115.560
G0 X125.961 Y115.442
G0 F3000 E98.7056
;segType:HShell
G1 X127.569 Y117.051 E98.8002 F2400
G0 X127.329 Y117.376 F5400
G1 X125.961 Y116.008 E98.8807 F2400
G0 X125.961 Y116.574 F5400
G1 X127.125 Y117.739 E98.9491 F2400
G0 X126.960 Y118.139 F5400
G1 X125.961 Y117.139 E99.0079 F2400
G0 X125.961 Y117.705 F5400
G1 X126.843 Y118.588 E99.0598 F2400
G0 X126.793 Y119.103 F5400
G1 X125.961 Y118.271 E99.1088 F2400
G0 X125.961 Y118.837 F5400
G1 X126.848 Y119.724 E99.1609 F2400
G0 X127.428 Y119.572 F5400
;segType:Perimeter
G1 X127.559 Y118.986 E99.1859 F1439
G1 X127.604 Y118.634 E99.2007
G1 X127.726 Y118.236 E99.2179
G1 X127.913 Y117.865 E99.2352
G1 X128.160 Y117.531 E99.2525
G1 X128.460 Y117.243 E99.2698
G1 X128.805 Y117.010 E99.2871
G1 X129.183 Y116.839 E99.3044
G1 X129.586 Y116.734 E99.3217
G1 X130.000 Y116.699 E99.3389
G1 X130.414 Y116.734 E99.3562
G1 X130.816 Y116.839 E99.3735
G1 X131.195 Y117.010 E99.3908
G1 X131.540 Y117.243 E99.4081
G1 X131.840 Y117.531 E99.4254
G1 X132.087 Y117.865 E99.4426
G1 X132.274 Y118.236 E99.4599
G1 X132.396 Y118.634 E99.4772
G1 X132.449 Y119.046 E99.4945
G1 X132.431 Y119.461 E99.5118
G1 X132.344 Y119.868 E99.5291
G1 X132.189 Y120.254 E99.5464
G1 X131.971 Y120.607 E99.5636
G1 X131.696 Y120.920 E99.5809
G1 X131.372 Y121.181 E99.5982
G1 X131.010 Y121.383 E99.6155
G1 X130.618 Y121.522 E99.6328
G1 X130.208 Y121.592 E99.6501
G1 X129.792 Y121.592 E99.6673
G1 X129.382 Y121.522 E99.6846
G1 X128.991 Y121.384 E99.7019
G1 X128.627 Y121.181 E99.7192
G1 X128.304 Y120.920 E99.7365
G1 X128.029 Y120.608 E99.7538
G1 X127.811 Y120.254 E99.7711
G1 X127.656 Y119.868 E99.7883
G1 X127.569 Y119.461 E99.8056
G1 X127.554 Y119.106 E99.8204
G0 X127.473 Y118.511 F5400
G0 X127.489 Y117.816
;segType:Loop
G1 X127.571 Y117.654 E99.8280 F2400
G1 X127.859 Y117.265 E99.8481
G1 X128.208 Y116.931 E99.8682
G1 X128.609 Y116.660 E99.8883
G1 X129.050 Y116.460 E99.9084
G1 X129.518 Y116.339 E99.9285
G1 X130.000 Y116.297 E99.9486
G1 X130.482 Y116.339 E99.9688
G1 X130.950 Y116.460 E99.9889
G1 X131.391 Y116.660 E100.0090
G1 X131.792 Y116.931 E100.0291
G1 X132.141 Y117.265 E100.0492
G1 X132.429 Y117.654 E100.0693
G1 X132.647 Y118.086 E100.0895
G1 X132.789 Y118.549 E100.1096
G1 X132.850 Y119.029 E100.1297
G1 X132.830 Y119.512 E100.1498
G1 X132.728 Y119.986 E100.1699
G1 X132.547 Y120.434 E100.1900
G1 X132.294 Y120.846 E100.2101
G1 X131.974 Y121.210 E100.2303
G1 X131.597 Y121.513 E100.2504
G1 X131.175 Y121.749 E100.2705
G1 X130.719 Y121.910 E100.2906
G1 X130.242 Y121.992 E100.3107
G1 X129.758 Y121.992 E100.3308
G1 X129.281 Y121.910 E100.3509
G1 X128.825 Y121.749 E100.3711
G1 X128.403 Y121.513 E100.3912
G1 X128.026 Y121.209 E100.4113
G1 X127.707 Y120.846 E100.4314
G1 X127.453 Y120.434 E100.4515
G1 X127.272 Y119.985 E100.4716
G1 X127.171 Y119.513 E100.4917
G1 X127.150 Y119.029 E100.5119
G1 X127.212 Y118.549 E100.5320
G1 X127.353 Y118.086 E100.5521
G1 X127.399 Y117.995 E100.5564
G0 F3000 E99.5564
G0 X125.940 Y114.856 F5400
G0 F3000 E100.5564
;segType:HShell
G1 X127.854 Y116.771 E100.6689 F2400
G0 X128.171 Y116.521 F5400
G1 X125.831 Y114.181 E100.8065 F2400
G0 X125.478 Y113.263 F5400
G1 X128.520 Y116.305 E100.9854 F2400
G0 X128.910 Y116.129 F5400
G1 X122.891 Y110.111 E101.3392 F2400
G0 X123.457 Y110.111 F5400
G1 X129.355 Y116.009 E101.6860 F2400
G0 X129.860 Y115.948 F5400
G1 X124.023 Y110.111 E102.0292 F2400
G0 X124.589 Y110.111 F5400
G1 X130.453 Y115.975 E102.3740 F2400
G0 X131.240 Y116.196 F5400
G1 X125.154 Y110.111 E102.7318 F2400
G0 X125.720 Y110.111 F5400
G1 X134.040 Y118.430 E103.2209 F2400
G0 X134.040 Y117.865 F5400
G1 X126.286 Y110.111 E103.6768 F2400
G0 X126.851 Y110.111 F5400
G1 X134.040 Y117.299 E104.0995 F2400
G0 X134.040 Y116.733 F5400
G1 X127.417 Y110.111 E104.4889 F2400
G0 X127.983 Y110.111 F5400
G1 X134.040 Y116.168 E104.8450 F2400
G0 X134.040 Y115.602 F5400
G1 X128.548 Y110.111 E105.1679 F2400
G0 X129.114 Y110.111 F5400
G1 X134.045 Y115.042 E105.4578 F2400
G0 X134.088 Y114.519 F5400
G1 X129.680 Y110.111 E105.7170 F2400
G0 X130.245 Y110.111 F5400
G1 X134.197 Y114.063 E105.9493 F2400
G0 X134.346 Y113.646 F5400
G1 X130.811 Y110.111 E106.1572 F2400
G0 X131.377 Y110.111 F5400
G1 X134.525 Y113.259 E106.3423 F2400
G0 X134.740 Y112.908 F5400
G1 X131.942 Y110.111 E106.5068 F2400
G0 X132.508 Y110.111 F5400
G1 X134.989 Y112.591 E106.6526 F2400
G0 X135.258 Y112.295 F5400
G1 X133.074 Y110.111 E106.7811 F2400
G0 X133.640 Y110.111 F5400
G1 X135.564 Y112.035 E106.8942 F2400
G0 X135.898 Y111.804 F5400
G1 X134.205 Y110.111 E106.9938 F2400
G0 X134.771 Y110.111 F5400
G1 X136.256 Y111.596 E107.0811 F2400
G0 X136.656 Y111.430 F5400
G1 X135.337 Y110.111 E107.1587 F2400
G0 X135.902 Y110.111 F5400
G1 X137.095 Y111.304 E107.2288 F2400
G0 X137.577 Y111.220 F5400
G1 X136.468 Y110.111 E107.2940 F2400
G0 X137.034 Y110.111 F5400
G1 X138.112 Y111.189 E107.3574 F2400
G0 X138.678 Y111.189 F5400
G1 X137.599 Y110.111 E107.4209 F2400
G0 X138.165 Y110.111 F5400
G1 X139.244 Y111.189 E107.4843 F2400
G0 X139.810 Y111.189 F5400
G1 X138.731 Y110.111 E107.5477 F2400
G0 X139.296 Y110.111 F5400
G1 X140.375 Y111.189 E107.6112 F2400
G0 X140.941 Y111.189 F5400
G1 X139.862 Y110.111 E107.6746 F2400
G0 X140.428 Y110.111 F5400
G1 X141.507 Y111.189 E107.7380 F2400
G0 X142.072 Y111.189 F5400
G1 X140.993 Y110.111 E107.8015 F2400
G0 X141.559 Y110.111 F5400
G1 X142.638 Y111.189 E107.8649 F2400
G0 X143.204 Y111.189 F5400
G1 X142.125 Y110.111 E107.9283 F2400
G0 X142.690 Y110.111 F5400
G1 X143.769 Y111.189 E107.9918 F2400
G0 X144.335 Y111.189 F5400
G1 X143.256 Y110.111 E108.0552 F2400
G0 X143.822 Y110.111 F5400
G1 X144.901 Y111.189 E108.1186 F2400
G0 X145.466 Y111.189 F5400
G1 X144.388 Y110.111 E108.1820 F2400
G0 X144.953 Y110.111 F5400
G1 X146.032 Y111.189 E108.2455 F2400
G0 X146.598 Y111.189 F5400
G1 X145.519 Y110.111 E108.3089 F2400
G0 X146.085 Y110.111 F5400
G1 X147.163 Y111.189 E108.3723 F2400
G0 X147.729 Y111.189 F5400
G1 X146.650 Y110.111 E108.4358 F2400
G0 X147.216 Y110.111 F5400
G1 X148.295 Y111.189 E108.4992 F2400
G0 X148.861 Y111.189 F5400
G1 X147.782 Y110.111 E108.5626 F2400
G0 X148.347 Y110.111 F5400
G1 X149.426 Y111.189 E108.6261 F2400
G0 X149.992 Y111.189 F5400
G1 X148.913 Y110.111 E108.6895 F2400
G0 X149.479 Y110.111 F5400
G1 X150.558 Y111.189 E108.7529 F2400
G0 X151.123 Y111.189 F5400
G1 X150.044 Y110.111 E108.8164 F2400
G0 X150.260 Y109.761 F5400
G1 X151.689 Y111.189 E108.9003 F2400
G0 X152.206 Y111.141 F5400
G1 X150.260 Y109.195 E109.0147 F2400
G0 X150.260 Y108.630 F5400
G1 X152.633 Y111.002 E109.1542 F2400
G0 X152.995 Y110.799 F5400
G1 X150.260 Y108.064 E109.3150 F2400
G0 X150.374 Y107.612 F5400
G1 X153.292 Y110.529 E109.4865 F2400
G0 X152.761 Y106.604 F5400
G1 X153.840 Y107.683 E109.5500 F2400
G0 X153.840 Y107.118 F5400
G1 X152.761 Y106.038 E109.6134 F2400
G0 X152.761 Y105.473 F5400
G1 X153.840 Y106.552 E109.6769 F2400
G0 X153.840 Y105.986 F5400
G1 X152.761 Y104.907 E109.7403 F2400
G0 X152.761 Y104.341 F5400
G1 X153.840 Y105.421 E109.8038 F2400
G0 X153.840 Y104.855 F5400
G1 X152.760 Y103.776 E109.8672 F2400
G0 X152.761 Y103.210 F5400
G1 X153.840 Y104.289 E109.9307 F2400
G0 X153.840 Y103.723 F5400
G1 X152.760 Y102.644 E109.9941 F2400
G0 X152.760 Y102.079 F5400
G1 X153.840 Y103.158 E110.0576 F2400
G0 X153.840 Y102.592 F5400
G1 X152.761 Y101.513 E110.1210 F2400
G0 X152.760 Y100.947 F5400
G1 X153.840 Y102.026 E110.1845 F2400
G0 X153.840 Y101.461 F5400
G1 X152.760 Y100.382 E110.2479 F2400
G0 X152.760 Y99.816 F5400
G1 X153.840 Y100.895 E110.3113 F2400
G0 X153.840 Y100.329 F5400
G1 X152.761 Y99.250 E110.3748 F2400
G0 X152.760 Y98.685 F5400
G1 X153.840 Y99.764 E110.4382 F2400
G0 X153.840 Y99.198 F5400
G1 X152.760 Y98.119 E110.5017 F2400
G0 X152.761 Y97.553 F5400
G1 X153.840 Y98.632 E110.5651 F2400
G0 X153.840 Y98.067 F5400
G1 X152.760 Y96.988 E110.6286 F2400
G0 X152.760 Y96.422 F5400
G1 X153.840 Y97.501 E110.6920 F2400
G0 X153.840 Y96.935 F5400
G1 X152.760 Y95.856 E110.7555 F2400
G0 X152.760 Y95.290 F5400
G1 X153.840 Y96.370 E110.8189 F2400
G0 X153.840 Y95.804 F5400
G1 X152.760 Y94.725 E110.8824 F2400
G0 X152.760 Y94.159 F5400
G1 X153.840 Y95.238 E110.9458 F2400
G0 X153.840 Y94.673 F5400
G1 X152.760 Y93.593 E111.0093 F2400
G0 X152.760 Y93.028 F5400
G1 X153.840 Y94.107 E111.0727 F2400
G0 X153.840 Y93.541 F5400
G1 X152.760 Y92.462 E111.1361 F2400
G0 X152.734 Y89.041 F5400
G1 X153.609 Y89.917 E111.1876 F2400
G0 X153.825 Y90.698 F5400
G1 X151.952 Y88.826 E111.2977 F2400
G0 X151.372 Y88.811 F5400
G1 X153.840 Y91.278 E111.4428 F2400
G0 X153.840 Y91.844 F5400
G1 X150.806 Y88.811 E111.6212 F2400
G0 X150.240 Y88.811 F5400
G1 X153.840 Y92.410 E111.8328 F2400
G0 X153.840 Y92.975 F5400
G1 X149.675 Y88.811 E112.0777 F2400
G0 X149.109 Y88.811 F5400
G1 X150.188 Y89.889 E112.1411 F2400
G0 X149.622 Y89.889 F5400
G1 X148.543 Y88.811 E112.2045 F2400
G0 X147.978 Y88.811 F5400
G1 X149.057 Y89.889 E112.2679 F2400
G0 X148.491 Y89.889 F5400
G1 X147.412 Y88.811 E112.3314 F2400
G0 X146.846 Y88.811 F5400
G1 X147.925 Y89.889 E112.3948 F2400
G0 X147.360 Y89.889 F5400
G1 X146.281 Y88.811 E112.4582 F2400
G0 X145.715 Y88.811 F5400
G1 X146.794 Y89.889 E112.5217 F2400
G0 X146.228 Y89.889 F5400
G1 X145.149 Y88.811 E112.5851 F2400
G0 X144.584 Y88.811 F5400
G1 X145.662 Y89.889 E112.6485 F2400
G0 X145.097 Y89.889 F5400
G1 X144.018 Y88.811 E112.7120 F2400
G0 X143.452 Y88.811 F5400
G1 X144.531 Y89.889 E112.7754 F2400
G0 X143.965 Y89.889 F5400
G1 X142.887 Y88.811 E112.8388 F2400
G0 X142.321 Y88.811 F5400
G1 X143.400 Y89.889 E112.9023 F2400
G0 X142.834 Y89.889 F5400
G1 X141.755 Y88.811 E112.9657 F2400
G0 X141.189 Y88.811 F5400
G1 X142.268 Y89.889 E113.0291 F2400
G0 X141.703 Y89.889 F5400
G1 X140.624 Y88.811 E113.0925 F2400
G0 X140.058 Y88.811 F5400
G1 X141.137 Y89.889 E113.1560 F2400
G0 X140.571 Y89.889 F5400
G1 X139.492 Y88.811 E113.2194 F2400
G0 X138.927 Y88.811 F5400
G1 X140.006 Y89.889 E113.2828 F2400
G0 X139.440 Y89.889 F5400
G1 X138.361 Y88.811 E113.3463 F2400
G0 X137.781 Y88.796 F5400
G1 X138.874 Y89.889 E113.4105 F2400
G0 X138.309 Y89.889 F5400
G1 X137.122 Y88.703 E113.4803 F2400
G0 X136.259 Y88.406 F5400
G1 X137.743 Y89.889 E113.5675 F2400
G0 X137.177 Y89.889 F5400
G1 X131.134 Y83.846 E113.9229 F2400
G0 X128.873 Y83.848 F5400
G1 X134.914 Y89.889 E114.2781 F2400
G0 X135.480 Y89.889 F5400
G1 X129.625 Y84.034 E114.6224 F2400
G0 F3000 E113.6224
G0 X134.548 Y85.853 F5400
G0 X134.577 Y85.971
G0 X134.794 Y86.492
G0 X135.086 Y86.968
G0 X135.453 Y87.397
G0 X135.883 Y87.764
G0 X136.365 Y88.060
G0 X136.887 Y88.276
G0 X137.437 Y88.408
G0 X137.976 Y88.450
G0 X141.577 Y88.450
G0 X141.577 Y88.450
G0 X146.446 Y90.250
G0 X146.446 Y90.250
G0 X149.900 Y90.250
G0 X149.900 Y91.526
G0 X150.260 Y91.659
G0 F3000 E114.6224
G1 X150.991 Y92.390 E114.6653 F2400
G0 X151.557 Y92.390 F5400
G1 X150.260 Y91.093 E114.7415 F2400
G0 X150.260 Y90.528 F5400
G1 X152.122 Y92.390 E114.8510 F2400
G0 X152.688 Y92.390 F5400
G1 X150.260 Y89.962 E114.9937 F2400
G0 F3000 E113.9937
G0 X145.781 Y88.450 F5400
G0 X137.976 Y88.450
G0 X137.437 Y88.408
G0 X136.887 Y88.276
G0 X136.365 Y88.060
G0 X135.883 Y87.764
G0 X135.453 Y87.397
G0 X135.086 Y86.968
G0 X134.794 Y86.492
G0 X134.577 Y85.971
G0 X134.444 Y85.422
G0 X134.400 Y84.874
G0 X134.400 Y84.611
G0 X134.040 Y84.489
G0 F3000 E114.9937
G1 X132.457 Y82.906 E115.0868 F2400
G0 X132.696 Y82.580 F5400
G1 X134.040 Y83.923 E115.1658 F2400
G0 X134.040 Y83.358 F5400
G1 X132.901 Y82.219 E115.2327 F2400
G0 X133.063 Y81.816 F5400
G1 X134.040 Y82.792 E115.2901 F2400
G0 X134.040 Y82.226 F5400
G1 X133.167 Y81.354 E115.3414 F2400
G0 X133.206 Y80.827 F5400
G1 X134.040 Y81.661 E115.3904 F2400
G0 X134.040 Y81.095 F5400
G1 X133.146 Y80.201 E115.4430 F2400
G0 X132.800 Y79.289 F5400
G1 X134.040 Y80.529 E115.5159 F2400
G0 X132.726 Y76.953 F5400
G1 X133.897 Y78.124 E115.5847 F2400
G0 X134.035 Y78.828 F5400
G1 X132.022 Y76.815 E115.7030 F2400
G0 X131.452 Y76.810 F5400
G1 X134.040 Y79.398 E115.8551 F2400
G0 X134.040 Y79.964 F5400
G1 X130.886 Y76.810 E116.0405 F2400
G0 X130.321 Y76.810 F5400
G1 X131.544 Y78.033 E116.1124 F2400
G0 X130.656 Y77.712 F5400
G1 X129.755 Y76.810 E116.1654 F2400
G0 X129.189 Y76.810 F5400
G1 X130.016 Y77.637 E116.2141 F2400
G0 X129.492 Y77.679 F5400
G1 X128.624 Y76.810 E116.2652 F2400
G0 X128.058 Y76.810 F5400
G1 X129.039 Y77.791 E116.3228 F2400
G0 X128.635 Y77.953 F5400
G1 X127.552 Y76.870 E116.3865 F2400
G0 X127.129 Y77.013 F5400
G1 X128.270 Y78.154 E116.4536 F2400
G0 X127.939 Y78.389 F5400
G1 X126.776 Y77.225 E116.5220 F2400
G0 X126.484 Y77.499 F5400
G1 X127.651 Y78.666 E116.5906 F2400
G0 X127.400 Y78.981 F5400
G1 X126.246 Y77.827 E116.6584 F2400
G0 X126.066 Y78.213 F5400
G1 X127.181 Y79.328 E116.7239 F2400
G0 X126.999 Y79.712 F5400
G1 X125.976 Y78.689 E116.7841 F2400
G0 X125.961 Y79.239 F5400
G1 X126.867 Y80.145 E116.8374 F2400
G0 X126.798 Y80.642 F5400
G1 X125.961 Y79.804 E116.8866 F2400
G0 X125.961 Y80.370 F5400
G1 X126.811 Y81.220 E116.9366 F2400
G0 X127.001 Y81.976 F5400
G1 X125.961 Y80.936 E116.9978 F2400
G0 X125.961 Y81.501 F5400
G1 X134.349 Y89.889 E117.4910 F2400
G0 X133.783 Y89.889 F5400
G1 X125.961 Y82.067 E117.9509 F2400
G0 X125.961 Y82.633 F5400
G1 X133.217 Y89.889 E118.3776 F2400
G0 X132.652 Y89.889 F5400
G1 X125.961 Y83.198 E118.7710 F2400
G0 X125.961 Y83.764 F5400
G1 X132.086 Y89.889 E119.1312 F2400
G0 X131.520 Y89.889 F5400
G1 X125.961 Y84.330 E119.4581 F2400
G0 X125.960 Y84.895 F5400
G1 X130.955 Y89.889 E119.7517 F2400
G0 X130.389 Y89.889 F5400
G1 X125.919 Y85.419 E120.0145 F2400
G0 X125.816 Y85.882 F5400
G1 X129.823 Y89.889 E120.2502 F2400
G0 X129.258 Y89.889 F5400
G1 X125.674 Y86.306 E120.4609 F2400
G0 X125.501 Y86.699 F5400
G1 X128.692 Y89.889 E120.6485 F2400
G0 X128.126 Y89.889 F5400
G1 X125.286 Y87.050 E120.8155 F2400
G0 X125.043 Y87.372 F5400
G1 X127.561 Y89.889 E120.9635 F2400
G0 X126.995 Y89.889 F5400
G1 X124.779 Y87.673 E121.0938 F2400
G0 X124.473 Y87.934 F5400
G1 X126.429 Y89.889 E121.2088 F2400
G0 X125.863 Y89.889 F5400
G1 X124.144 Y88.170 E121.3099 F2400
G0 X123.793 Y88.384 F5400
G1 X125.298 Y89.889 E121.3984 F2400
G0 X124.732 Y89.889 F5400
G1 X123.393 Y88.550 E121.4771 F2400
G0 X122.960 Y88.683 F5400
G1 X124.166 Y89.889 E121.5481 F2400
G0 X123.601 Y89.889 F5400
G1 X122.487 Y88.775 E121.6136 F2400
G0 X121.956 Y88.811 F5400
G1 X123.035 Y89.889 E121.6770 F2400
G0 X122.469 Y89.889 F5400
G1 X121.390 Y88.811 E121.7404 F2400
G0 X120.825 Y88.811 F5400
G1 X121.904 Y89.889 E121.8039 F2400
G0 X121.338 Y89.889 F5400
G1 X120.259 Y88.811 E121.8673 F2400
G0 X119.693 Y88.811 F5400
G1 X120.772 Y89.889 E121.9308 F2400
G0 X120.207 Y89.889 F5400
G1 X119.128 Y88.811 E121.9942 F2400
G0 X118.562 Y88.811 F5400
G1 X119.641 Y89.889 E122.0576 F2400
G0 X119.075 Y89.889 F5400
G1 X117.996 Y88.811 E122.1211 F2400
G0 X117.431 Y88.811 F5400
G1 X118.510 Y89.889 E122.1845 F2400
G0 X117.944 Y89.889 F5400
G1 X116.865 Y88.811 E122.2480 F2400
G0 X116.299 Y88.811 F5400
G1 X117.378 Y89.889 E122.3114 F2400
G0 X116.813 Y89.889 F5400
G1 X115.734 Y88.811 E122.3748 F2400
G0 X115.168 Y88.811 F5400
G1 X116.247 Y89.890 E122.4383 F2400
G0 X115.681 Y89.889 F5400
G1 X114.602 Y88.811 E122.5017 F2400
G0 X114.037 Y88.811 F5400
G1 X115.115 Y89.890 E122.5651 F2400
G0 X114.550 Y89.889 F5400
G1 X113.471 Y88.811 E122.6286 F2400
G0 X112.905 Y88.811 F5400
G1 X113.984 Y89.890 E122.6920 F2400
G0 X113.418 Y89.890 F5400
G1 X112.340 Y88.811 E122.7555 F2400
G0 X111.774 Y88.811 F5400
G1 X112.853 Y89.890 E122.8189 F2400
G0 X112.287 Y89.890 F5400
G1 X111.208 Y88.811 E122.8823 F2400
G0 X110.642 Y88.811 F5400
G1 X111.721 Y89.890 E122.9458 F2400
G0 X111.156 Y89.890 F5400
G1 X110.077 Y88.811 E123.0092 F2400
G0 X109.511 Y88.811 F5400
G1 X110.590 Y89.890 E123.0727 F2400
G0 X110.024 Y89.890 F5400
G1 X108.945 Y88.811 E123.1361 F2400
G0 X108.380 Y88.811 F5400
G1 X109.739 Y90.170 E123.2160 F2400
G0 X109.739 Y90.736 F5400
G1 X107.850 Y88.846 E123.3271 F2400
G0 X107.415 Y88.977 F5400
G1 X109.739 Y91.302 E123.4638 F2400
G0 X109.739 Y91.867 F5400
G1 X107.047 Y89.175 E123.6221 F2400
G0 X106.740 Y89.434 F5400
G1 X109.658 Y92.352 E123.7937 F2400
G0 X109.130 Y92.390 F5400
G1 X106.492 Y89.751 E123.9488 F2400
G0 X106.302 Y90.127 F5400
G1 X108.565 Y92.390 E124.0818 F2400
G0 X107.999 Y92.390 F5400
G1 X106.185 Y90.576 E124.1885 F2400
G0 X106.161 Y91.117 F5400
G1 X107.433 Y92.390 E124.2633 F2400
G0 X107.239 Y92.761 F5400
G1 X106.161 Y91.683 E124.3267 F2400
G0 X106.161 Y92.248 F5400
G1 X107.239 Y93.327 E124.3901 F2400
G0 X107.239 Y93.893 F5400
G1 X106.161 Y92.814 E124.4536 F2400
G0 X106.161 Y93.380 F5400
G1 X107.239 Y94.459 E124.5170 F2400
G0 X107.239 Y95.024 F5400
G1 X106.161 Y93.945 E124.5804 F2400
G0 X106.161 Y94.511 F5400
G1 X107.239 Y95.590 E124.6439 F2400
G0 X107.239 Y96.156 F5400
G1 X106.161 Y95.077 E124.7073 F2400
G0 X106.161 Y95.642 F5400
G1 X107.239 Y96.721 E124.7707 F2400
G0 X107.239 Y97.287 F5400
G1 X106.161 Y96.208 E124.8342 F2400
G0 X106.161 Y96.774 F5400
G1 X107.239 Y97.853 E124.8976 F2400
G0 X107.239 Y98.418 F5400
G1 X106.161 Y97.339 E124.9610 F2400
G0 X106.161 Y97.905 F5400
G1 X107.239 Y98.984 E125.0244 F2400
G0 X107.239 Y99.550 F5400
G1 X106.161 Y98.471 E125.0879 F2400
G0 X106.161 Y99.037 F5400
G1 X107.239 Y100.115 E125.1513 F2400
G0 X107.239 Y100.681 F5400
G1 X106.161 Y99.602 E125.2147 F2400
G0 X106.161 Y100.168 F5400
G1 X107.239 Y101.247 E125.2782 F2400
G0 X107.239 Y101.812 F5400
G1 X106.161 Y100.734 E125.3416 F2400
G0 X106.161 Y101.299 F5400
G1 X107.239 Y102.378 E125.4050 F2400
G0 X107.239 Y102.944 F5400
G1 X106.161 Y101.865 E125.4685 F2400
G0 X106.161 Y102.431 F5400
G1 X107.239 Y103.509 E125.5319 F2400
G0 X107.239 Y104.075 F5400
G1 X106.161 Y102.996 E125.5953 F2400
G0 X106.161 Y103.562 F5400
G1 X107.239 Y104.641 E125.6588 F2400
G0 X107.239 Y105.207 F5400
G1 X106.161 Y104.128 E125.7222 F2400
G0 X106.161 Y104.693 F5400
G1 X107.239 Y105.772 E125.7856 F2400
G0 X107.239 Y106.338 F5400
G1 X106.161 Y105.259 E125.8490 F2400
G0 X106.161 Y105.825 F5400
G1 X107.239 Y106.904 E125.9125 F2400
G0 X107.239 Y107.469 F5400
G1 X106.161 Y106.390 E125.9759 F2400
G0 X106.161 Y106.956 F5400
G1 X110.394 Y111.189 E126.2248 F2400
G0 X109.828 Y111.189 F5400
G1 X106.161 Y107.522 E126.4405 F2400
G0 X106.161 Y108.087 F5400
G1 X109.263 Y111.189 E126.6228 F2400
G0 X108.697 Y111.189 F5400
G1 X106.161 Y108.653 E126.7720 F2400
G0 X106.170 Y109.228 F5400
G1 X108.122 Y111.180 E126.8868 F2400
G0 X107.387 Y111.011 F5400
G1 X106.340 Y109.964 E126.9483 F2400
G0 X107.381 Y107.611 F5400
G1 X109.739 Y109.969 E127.0870 F2400
G0 X109.739 Y109.404 F5400
G1 X107.946 Y107.611 E127.1924 F2400
G0 X108.512 Y107.611 F5400
G1 X109.739 Y108.838 E127.2646 F2400
G0 X109.739 Y108.272 F5400
G1 X109.078 Y107.611 E127.3035 F2400
G0 X109.881 Y110.111 F5400
G1 X110.960 Y111.189 E127.3669 F2400
G0 X111.525 Y111.189 F5400
G1 X110.446 Y110.111 E127.4303 F2400
G0 X111.012 Y110.111 F5400
G1 X112.091 Y111.189 E127.4938 F2400
G0 X112.657 Y111.189 F5400
G1 X111.578 Y110.111 E127.5572 F2400
G0 X112.143 Y110.111 F5400
G1 X113.222 Y111.189 E127.6206 F2400
G0 X113.788 Y111.189 F5400
G1 X112.709 Y110.111 E127.6841 F2400
G0 X113.275 Y110.111 F5400
G1 X114.354 Y111.189 E127.7475 F2400
G0 X114.919 Y111.189 F5400
G1 X113.841 Y110.111 E127.8109 F2400
G0 X114.406 Y110.111 F5400
G1 X115.485 Y111.189 E127.8744 F2400
G0 X116.051 Y111.189 F5400
G1 X114.972 Y110.111 E127.9378 F2400
G0 X115.538 Y110.111 F5400
G1 X116.616 Y111.189 E128.0012 F2400
G0 X117.182 Y111.189 F5400
G1 X116.103 Y110.111 E128.0646 F2400
G0 X116.669 Y110.111 F5400
G1 X117.748 Y111.189 E128.1281 F2400
G0 X118.313 Y111.189 F5400
G1 X117.235 Y110.111 E128.1915 F2400
G0 X117.800 Y110.111 F5400
G1 X118.879 Y111.189 E128.2549 F2400
G0 X119.445 Y111.189 F5400
G1 X118.366 Y110.111 E128.3184 F2400
G0 X118.932 Y110.111 F5400
G1 X120.011 Y111.189 E128.3818 F2400
G0 X120.576 Y111.189 F5400
G1 X119.497 Y110.111 E128.4452 F2400
G0 X120.063 Y110.111 F5400
G1 X121.142 Y111.189 E128.5087 F2400
G0 X121.708 Y111.189 F5400
G1 X120.629 Y110.111 E128.5721 F2400
G0 X121.194 Y110.111 F5400
G1 X122.293 Y111.210 E128.6367 F2400
G0 X122.968 Y111.319 F5400
G1 X121.760 Y110.111 E128.7078 F2400
G0 X122.326 Y110.111 F5400
G1 X123.888 Y111.673 E128.7996 F2400
G0 X132.969 Y117.926 F5400
G1 X134.040 Y118.996 E128.8626 F2400
G0 X134.040 Y119.562 F5400
G1 X133.170 Y118.692 E128.9137 F2400
G0 X133.199 Y119.287 F5400
G1 X134.040 Y120.127 E128.9631 F2400
G0 X134.040 Y120.693 F5400
G1 X133.138 Y119.791 E129.0161 F2400
G0 X133.016 Y120.235 F5400
G1 X134.029 Y121.248 E129.0757 F2400
G0 X133.948 Y121.733 F5400
G1 X132.848 Y120.633 E129.1404 F2400
G0 X132.632 Y120.983 F5400
G1 X133.780 Y122.131 E129.2079 F2400
G0 X133.548 Y122.464 F5400
G1 X132.379 Y121.295 E129.2766 F2400
G0 X132.094 Y121.576 F5400
G1 X133.261 Y122.743 E129.3452 F2400
G0 X132.919 Y122.967 F5400
G1 X131.778 Y121.825 E129.4124 F2400
G0 X131.415 Y122.028 F5400
G1 X132.504 Y123.117 E129.4764 F2400
G0 X132.007 Y123.186 F5400
G1 X131.010 Y122.189 E129.5350 F2400
G0 X130.559 Y122.303 F5400
G1 X131.445 Y123.189 E129.5871 F2400
G0 X130.879 Y123.189 F5400
G1 X130.042 Y122.352 E129.6363 F2400
G0 X129.424 Y122.300 F5400
G1 X130.313 Y123.189 E129.6886 F2400
G0 X129.748 Y123.189 F5400
G1 X128.587 Y122.029 E129.7568 F2400
G0 X127.113 Y120.555 F5400
G1 X125.961 Y119.402 E129.8246 F2400
G0 X125.961 Y119.968 F5400
G1 X129.182 Y123.189 E130.0140 F2400
G0 X128.616 Y123.189 F5400
G1 X125.961 Y120.534 E130.1701 F2400
G0 X125.961 Y121.099 F5400
G1 X128.051 Y123.189 E130.2930 F2400
G0 X127.386 Y123.090 F5400
G1 X126.060 Y121.764 E130.3710 F2400
G0 F3000 E129.3710
G0 X120.007 Y119.671 F5400
G0 F3000 E130.3710
G1 X120.903 Y120.567 E130.4237 F2400
G0 X120.903 Y121.133 F5400
G1 X120.070 Y120.300 E130.4726 F2400
G0 X120.033 Y120.829 F5400
G1 X120.903 Y121.699 E130.5238 F2400
G0 X120.903 Y122.264 F5400
G1 X119.930 Y121.292 E130.5810 F2400
G0 X119.768 Y121.695 F5400
G1 X120.903 Y122.830 E130.6477 F2400
G0 X120.903 Y123.396 F5400
G1 X119.564 Y122.057 E130.7264 F2400
G0 X119.326 Y122.384 F5400
G1 X120.903 Y123.961 E130.8191 F2400
G0 X121.449 Y124.147 F5400
;segType:Perimeter
G1 X121.717 Y124.901 E130.8524 F1439
G1 X121.822 Y125.331 E130.8708
G1 X122.015 Y125.794 E130.8917
G1 X122.274 Y126.216 E130.9123
G1 X122.600 Y126.598 E130.9331
G1 X122.982 Y126.924 E130.9540
G1 X123.410 Y127.187 E130.9749
G1 X123.874 Y127.379 E130.9958
G1 X124.363 Y127.496 E131.0167
G1 X124.856 Y127.535 E131.0372
G1 X138.656 Y127.535 E131.6110
G1 X139.102 Y127.570 E131.6296
G1 X139.529 Y127.673 E131.6478
G1 X139.934 Y127.841 E131.6661
G1 X140.309 Y128.070 E131.6843
G1 X140.643 Y128.356 E131.7026
G1 X140.928 Y128.689 E131.7209
G1 X141.158 Y129.064 E131.7391
G1 X141.326 Y129.470 E131.7574
G1 X141.428 Y129.897 E131.7757
G1 X141.463 Y130.343 E131.7942
G1 X141.463 Y148.627 E132.5544
G1 X141.428 Y149.072 E132.5730
G1 X141.326 Y149.500 E132.5913
G1 X141.158 Y149.905 E132.6095
G1 X140.928 Y150.280 E132.6278
G1 X140.643 Y150.614 E132.6461
G1 X140.309 Y150.899 E132.6643
G1 X139.934 Y151.129 E132.6826
G1 X139.529 Y151.297 E132.7009
G1 X139.101 Y151.399 E132.7191
G1 X138.656 Y151.434 E132.7377
G1 X124.856 Y151.434 E133.3115
G1 X124.363 Y151.473 E133.3320
G1 X123.874 Y151.590 E133.3529
G1 X123.410 Y151.783 E133.3738
G1 X122.982 Y152.045 E133.3947
G1 X122.600 Y152.371 E133.4156
G1 X122.274 Y152.753 E133.4365
G1 X122.012 Y153.181 E133.4573
G1 X121.819 Y153.645 E133.4782
G1 X121.702 Y154.134 E133.4991
G1 X121.663 Y154.627 E133.5196
G1 X121.663 Y160.627 E133.7691
G1 X121.628 Y161.072 E133.7877
G1 X121.526 Y161.500 E133.8059
G1 X121.357 Y161.905 E133.8242
G1 X121.128 Y162.280 E133.8425
G1 X120.843 Y162.614 E133.8607
G1 X120.509 Y162.899 E133.8790
G1 X120.134 Y163.128 E133.8973
G1 X119.729 Y163.297 E133.9155
G1 X119.301 Y163.399 E133.9338
G1 X118.856 Y163.434 E133.9524
G1 X114.872 Y163.434 E134.1180
G1 X114.426 Y163.399 E134.1366
G1 X113.999 Y163.297 E134.1549
G1 X113.593 Y163.128 E134.1732
G1 X113.218 Y162.899 E134.1914
G1 X112.884 Y162.614 E134.2097
G1 X112.599 Y162.280 E134.2280
G1 X112.370 Y161.905 E134.2462
G1 X112.202 Y161.500 E134.2645
G1 X112.099 Y161.072 E134.2828
G1 X112.064 Y160.627 E134.3013
G1 X112.064 Y154.627 E134.5508
G1 X112.024 Y154.126 E134.5717
G1 X111.905 Y153.638 E134.5925
G1 X111.712 Y153.175 E134.6134
G1 X111.453 Y152.753 E134.6340
G1 X111.127 Y152.371 E134.6549
G1 X110.745 Y152.045 E134.6758
G1 X110.317 Y151.783 E134.6966
G1 X109.853 Y151.590 E134.7175
G1 X109.364 Y151.473 E134.7384
G1 X108.871 Y151.434 E134.7590
G1 X95.072 Y151.434 E135.3327
G1 X94.626 Y151.399 E135.3513
G1 X94.199 Y151.297 E135.3696
G1 X93.793 Y151.128 E135.3878
G1 X93.418 Y150.899 E135.4061
G1 X93.084 Y150.614 E135.4244
G1 X92.799 Y150.280 E135.4426
G1 X92.570 Y149.905 E135.4609
G1 X92.402 Y149.500 E135.4792
G1 X92.299 Y149.072 E135.4974
G1 X92.264 Y148.627 E135.5160
G1 X92.264 Y130.343 E136.2762
G1 X92.299 Y129.897 E136.2948
G1 X92.402 Y129.470 E136.3130
G1 X92.570 Y129.064 E136.3313
G1 X92.799 Y128.689 E136.3496
G1 X93.084 Y128.356 E136.3678
G1 X93.418 Y128.070 E136.3861
G1 X93.793 Y127.841 E136.4044
G1 X94.198 Y127.673 E136.4226
G1 X94.626 Y127.570 E136.4409
G1 X95.072 Y127.535 E136.4595
G1 X108.871 Y127.535 E137.0332
G1 X109.364 Y127.496 E137.0538
G1 X109.853 Y127.379 E137.0747
G1 X110.317 Y127.187 E137.0955
G1 X110.745 Y126.924 E137.1164
G1 X111.127 Y126.598 E137.1373
G1 X111.453 Y126.216 E137.1582
G1 X111.716 Y125.788 E137.1791
G1 X111.908 Y125.324 E137.1999
G1 X112.025 Y124.835 E137.2208
G1 X112.064 Y124.342 E137.2414
G1 X112.064 Y118.343 E137.4909
G1 X112.099 Y117.897 E137.5094
G1 X112.202 Y117.470 E137.5277
G1 X112.370 Y117.064 E137.5460
G1 X112.599 Y116.690 E137.5642
G1 X112.884 Y116.356 E137.5825
G1 X113.218 Y116.070 E137.6008
G1 X113.593 Y115.841 E137.6190
G1 X113.999 Y115.673 E137.6373
G1 X114.426 Y115.570 E137.6555
G1 X114.872 Y115.535 E137.6741
G1 X118.856 Y115.535 E137.8398
G1 X119.302 Y115.570 E137.8584
G1 X119.729 Y115.673 E137.8766
G1 X120.134 Y115.841 E137.8949
G1 X120.509 Y116.070 E137.9132
G1 X120.843 Y116.356 E137.9314
G1 X121.128 Y116.690 E137.9497
G1 X121.357 Y117.064 E137.9679
G1 X121.526 Y117.470 E137.9862
G1 X121.628 Y117.897 E138.0045
G1 X121.663 Y118.343 E138.0231
G1 X121.663 Y124.343 E138.2725
G1 X121.699 Y124.783 E138.2909
G0 X121.680 Y125.583 F5400
G0 X121.710 Y126.062
;segType:Loop
G1 X121.949 Y126.452 E138.3099 F2400
G1 X122.316 Y126.882 E138.3334
G1 X122.746 Y127.249 E138.3569
G1 X123.228 Y127.544 E138.3804
G1 X123.750 Y127.761 E138.4039
G1 X124.300 Y127.893 E138.4274
G1 X124.840 Y127.935 E138.4500
G1 X138.640 Y127.935 E139.0237
G1 X139.039 Y127.966 E139.0403
G1 X139.405 Y128.054 E139.0560
G1 X139.752 Y128.198 E139.0716
G1 X140.073 Y128.395 E139.0873
G1 X140.359 Y128.639 E139.1029
G1 X140.603 Y128.925 E139.1185
G1 X140.800 Y129.246 E139.1342
G1 X140.944 Y129.594 E139.1498
G1 X141.032 Y129.960 E139.1655
G1 X141.063 Y130.358 E139.1821
G1 X141.063 Y148.611 E139.9409
G1 X141.032 Y149.010 E139.9576
G1 X140.944 Y149.376 E139.9732
G1 X140.800 Y149.723 E139.9888
G1 X140.603 Y150.044 E140.0045
G1 X140.359 Y150.330 E140.0201
G1 X140.073 Y150.574 E140.0358
G1 X139.752 Y150.771 E140.0514
G1 X139.405 Y150.915 E140.0670
G1 X139.039 Y151.003 E140.0827
G1 X138.640 Y151.034 E140.0993
G1 X124.840 Y151.034 E140.6730
G1 X124.300 Y151.077 E140.6956
G1 X123.750 Y151.209 E140.7191
G1 X123.228 Y151.425 E140.7426
G1 X122.746 Y151.720 E140.7661
G1 X122.316 Y152.087 E140.7896
G1 X121.949 Y152.517 E140.8131
G1 X121.654 Y152.999 E140.8366
G1 X121.438 Y153.521 E140.8601
G1 X121.306 Y154.071 E140.8836
G1 X121.263 Y154.611 E140.9061
G1 X121.263 Y160.611 E141.1555
G1 X121.232 Y161.010 E141.1721
G1 X121.144 Y161.376 E141.1878
G1 X121.000 Y161.723 E141.2034
G1 X120.803 Y162.044 E141.2191
G1 X120.559 Y162.330 E141.2347
G1 X120.273 Y162.574 E141.2503
G1 X119.952 Y162.771 E141.2660
G1 X119.605 Y162.915 E141.2816
G1 X119.239 Y163.003 E141.2973
G1 X118.840 Y163.034 E141.3139
G1 X114.887 Y163.034 E141.4782
G1 X114.488 Y163.003 E141.4948
G1 X114.123 Y162.915 E141.5105
G1 X113.775 Y162.771 E141.5261
G1 X113.454 Y162.574 E141.5418
G1 X113.168 Y162.330 E141.5574
G1 X112.924 Y162.044 E141.5731
G1 X112.727 Y161.723 E141.5887
G1 X112.583 Y161.376 E141.6043
G1 X112.495 Y161.010 E141.6200
G1 X112.464 Y160.611 E141.6366
G1 X112.464 Y154.610 E141.8861
G1 X112.420 Y154.063 E141.9089
G1 X112.287 Y153.514 E141.9324
G1 X112.070 Y152.993 E141.9559
G1 X111.778 Y152.517 E141.9791
G1 X111.411 Y152.087 E142.0026
G1 X110.981 Y151.720 E142.0261
G1 X110.499 Y151.425 E142.0496
G1 X109.977 Y151.209 E142.0731
G1 X109.427 Y151.077 E142.0965
G1 X108.887 Y151.034 E142.1191
G1 X95.087 Y151.034 E142.6928
G1 X94.688 Y151.003 E142.7094
G1 X94.323 Y150.915 E142.7251
G1 X93.975 Y150.771 E142.7407
G1 X93.654 Y150.574 E142.7563
G1 X93.368 Y150.330 E142.7720
G1 X93.124 Y150.044 E142.7876
G1 X92.927 Y149.723 E142.8033
G1 X92.783 Y149.376 E142.8189
G1 X92.695 Y149.010 E142.8345
G1 X92.664 Y148.611 E142.8512
G1 X92.664 Y130.358 E143.6100
G1 X92.695 Y129.960 E143.6266
G1 X92.783 Y129.594 E143.6423
G1 X92.927 Y129.246 E143.6579
G1 X93.124 Y128.925 E143.6736
G1 X93.368 Y128.639 E143.6892
G1 X93.654 Y128.395 E143.7048
G1 X93.975 Y128.198 E143.7205
G1 X94.322 Y128.054 E143.7361
G1 X94.688 Y127.966 E143.7518
G1 X95.087 Y127.935 E143.7684
G1 X108.887 Y127.935 E144.3421
G1 X109.427 Y127.893 E144.3646
G1 X109.977 Y127.761 E144.3882
G1 X110.499 Y127.544 E144.4117
G1 X110.981 Y127.249 E144.4352
G1 X111.411 Y126.882 E144.4587
G1 X111.778 Y126.452 E144.4822
G1 X112.073 Y125.970 E144.5057
G1 X112.289 Y125.448 E144.5292
G1 X112.421 Y124.898 E144.5526
G1 X112.464 Y124.358 E144.5752
G1 X112.464 Y118.358 E144.8246
G1 X112.495 Y117.960 E144.8412
G1 X112.583 Y117.594 E144.8569
G1 X112.727 Y117.246 E144.8725
G1 X112.924 Y116.925 E144.8882
G1 X113.168 Y116.639 E144.9038
G1 X113.454 Y116.395 E144.9194
G1 X113.775 Y116.198 E144.9351
G1 X114.122 Y116.054 E144.9507
G1 X114.488 Y115.967 E144.9664
G1 X114.887 Y115.935 E144.9830
G1 X118.840 Y115.935 E145.1473
G1 X119.239 Y115.967 E145.1640
G1 X119.605 Y116.054 E145.1796
G1 X119.952 Y116.198 E145.1952
G1 X120.273 Y116.395 E145.2109
G1 X120.559 Y116.639 E145.2265
G1 X120.803 Y116.925 E145.2422
G1 X121.000 Y117.246 E145.2578
G1 X121.144 Y117.594 E145.2735
G1 X121.232 Y117.960 E145.2891
G1 X121.263 Y118.358 E145.3057
G1 X121.263 Y124.359 E145.5552
G1 X121.307 Y124.906 E145.5780
G1 X121.441 Y125.456 E145.6015
G1 X121.619 Y125.884 E145.6208
G0 F3000 E144.6208
G0 X117.575 Y123.462 F5400
G0 F3000 E145.6208
;segType:HShell
G1 X123.487 Y129.374 E145.9685 F2400
G0 X122.922 Y129.374 F5400
G1 X117.082 Y123.534 E146.3118 F2400
G0 X117.371 Y122.969 F5400
;segType:Perimeter
G1 X116.597 Y122.767 E146.3451 F1439
G1 X116.246 Y122.707 E146.3599
G1 X115.854 Y122.568 E146.3772
G1 X115.491 Y122.365 E146.3945
G1 X115.167 Y122.104 E146.4118
G1 X114.893 Y121.792 E146.4291
G1 X114.675 Y121.438 E146.4463
G1 X114.520 Y121.052 E146.4636
G1 X114.432 Y120.646 E146.4809
G1 X114.415 Y120.231 E146.4982
G1 X114.467 Y119.818 E146.5155
G1 X114.589 Y119.421 E146.5328
G1 X114.776 Y119.049 E146.5501
G1 X115.024 Y118.715 E146.5673
G1 X115.324 Y118.428 E146.5846
G1 X115.668 Y118.195 E146.6019
G1 X116.047 Y118.024 E146.6192
G1 X116.449 Y117.919 E146.6365
G1 X116.864 Y117.883 E146.6538
G1 X117.278 Y117.919 E146.6711
G1 X117.680 Y118.024 E146.6883
G1 X118.059 Y118.195 E146.7056
G1 X118.403 Y118.427 E146.7229
G1 X118.703 Y118.715 E146.7402
G1 X118.951 Y119.049 E146.7575
G1 X119.138 Y119.421 E146.7748
G1 X119.260 Y119.818 E146.7921
G1 X119.313 Y120.231 E146.8093
G1 X119.295 Y120.646 E146.8266
G1 X119.207 Y121.052 E146.8439
G1 X119.052 Y121.438 E146.8612
G1 X118.834 Y121.792 E146.8785
G1 X118.560 Y122.104 E146.8958
G1 X118.236 Y122.365 E146.9131
G1 X117.873 Y122.568 E146.9304
G1 X117.481 Y122.707 E146.9476
G1 X117.088 Y122.774 E146.9642
G1 X116.716 Y122.777 E146.9797
G0 X116.119 Y122.832 F5400
G0 X115.425 Y122.787
;segType:Loop
G1 X115.266 Y122.698 E146.9872 F2400
G1 X114.890 Y122.394 E147.0074
G1 X114.570 Y122.031 E147.0275
G1 X114.317 Y121.619 E147.0476
G1 X114.136 Y121.170 E147.0677
G1 X114.034 Y120.697 E147.0878
G1 X114.014 Y120.214 E147.1079
G1 X114.075 Y119.734 E147.1281
G1 X114.217 Y119.271 E147.1482
G1 X114.435 Y118.839 E147.1683
G1 X114.722 Y118.450 E147.1884
G1 X115.072 Y118.115 E147.2085
G1 X115.473 Y117.844 E147.2287
G1 X115.914 Y117.645 E147.2488
G1 X116.381 Y117.523 E147.2689
G1 X116.864 Y117.482 E147.2890
G1 X117.346 Y117.523 E147.3091
G1 X117.814 Y117.645 E147.3292
G1 X118.255 Y117.844 E147.3493
G1 X118.655 Y118.115 E147.3694
G1 X119.005 Y118.450 E147.3895
G1 X119.292 Y118.839 E147.4097
G1 X119.510 Y119.271 E147.4298
G1 X119.652 Y119.734 E147.4499
G1 X119.714 Y120.214 E147.4700
G1 X119.693 Y120.697 E147.4901
G1 X119.591 Y121.170 E147.5103
G1 X119.411 Y121.619 E147.5304
G1 X119.157 Y122.031 E147.5505
G1 X118.837 Y122.394 E147.5706
G1 X118.461 Y122.698 E147.5907
G1 X118.038 Y122.934 E147.6108
G1 X117.582 Y123.095 E147.6310
G1 X117.123 Y123.174 E147.6503
G1 X116.624 Y123.177 E147.6711
G1 X116.145 Y123.095 E147.6913
G1 X115.689 Y122.934 E147.7114
G1 X115.600 Y122.884 E147.7157
G0 F3000 E146.7157
G0 X115.600 Y122.884 F5400
G0 X121.939 Y129.734
G0 X121.939 Y129.734
G0 X136.764 Y129.734
G0 X136.764 Y131.787
G0 X136.791 Y131.956
G0 X136.846 Y132.065
G0 X136.933 Y132.152
G0 X137.043 Y132.208
G0 X137.211 Y132.234
G0 X139.264 Y132.234
G0 X139.264 Y146.735
G0 X137.674 Y146.735
G0 X137.674 Y146.735
G0 X140.656 Y149.958
G0 X140.402 Y149.683
G0 F3000 E147.7157
;segType:HShell
G1 X137.814 Y147.095 E147.8678 F2400
G0 X138.380 Y147.095 F5400
G1 X140.585 Y149.300 E147.9975 F2400
G0 X140.684 Y148.834 F5400
G1 X138.946 Y147.095 E148.0997 F2400
G0 X139.511 Y147.095 F5400
G1 X140.703 Y148.287 E148.1698 F2400
G0 X140.703 Y147.721 F5400
G1 X139.624 Y146.642 E148.2332 F2400
G0 X139.604 Y146.335 F5400
;segType:Perimeter
G1 X138.804 Y146.335 E148.2665 F1439
G1 X137.179 Y146.335 E148.3340
G1 X136.917 Y146.377 E148.3451
G1 X136.695 Y146.490 E148.3554
G1 X136.519 Y146.666 E148.3658
G1 X136.406 Y146.888 E148.3762
G1 X136.364 Y147.150 E148.3872
G1 X136.364 Y148.835 E148.4572
G1 X97.363 Y148.835 E150.0787
G1 X97.363 Y147.151 E150.1487
G1 X97.322 Y146.888 E150.1598
G1 X97.208 Y146.666 E150.1701
G1 X97.032 Y146.490 E150.1805
G1 X96.810 Y146.377 E150.1909
G1 X96.548 Y146.335 E150.2019
G1 X94.863 Y146.335 E150.2719
G1 X94.863 Y132.634 E150.8415
G1 X96.548 Y132.634 E150.9116
G1 X96.810 Y132.593 E150.9226
G1 X97.032 Y132.480 E150.9330
G1 X97.208 Y132.303 E150.9434
G1 X97.322 Y132.081 E150.9537
G1 X97.363 Y131.819 E150.9647
G1 X97.363 Y130.134 E151.0348
G1 X136.364 Y130.134 E152.6562
G1 X136.364 Y131.819 E152.7263
G1 X136.406 Y132.081 E152.7373
G1 X136.519 Y132.303 E152.7477
G1 X136.695 Y132.479 E152.7580
G1 X136.917 Y132.593 E152.7684
G1 X137.179 Y132.634 E152.7794
G1 X138.864 Y132.634 E152.8495
G1 X138.864 Y146.275 E153.4166
G0 X139.264 Y146.108 F5400
G0 X139.264 Y146.735
G0 X137.764 Y146.735
G0 X137.764 Y146.735
;segType:Loop
G1 X137.211 Y146.735 E153.4396 F2400
G1 X136.952 Y146.798 E153.4507
G1 X136.846 Y146.904 E153.4569
G1 X136.791 Y147.013 E153.4620
G1 X136.764 Y147.182 E153.4691
G1 X136.764 Y149.235 E153.5545
G1 X96.963 Y149.235 E155.2092
G1 X96.963 Y147.182 E155.2945
G1 X96.937 Y147.014 E155.3016
G1 X96.881 Y146.904 E155.3068
G1 X96.799 Y146.822 E155.3116
G1 X96.516 Y146.735 E155.3239
G1 X94.463 Y146.735 E155.4092
G1 X94.463 Y132.234 E156.0121
G1 X96.516 Y132.234 E156.0974
G1 X96.781 Y132.165 E156.1088
G1 X96.881 Y132.065 E156.1147
G1 X96.937 Y131.956 E156.1198
G1 X96.963 Y131.787 E156.1269
G1 X96.963 Y129.734 E156.2122
G1 X136.764 Y129.734 E157.8669
G1 X136.764 Y131.787 E157.9523
G1 X136.791 Y131.956 E157.9594
G1 X136.846 Y132.065 E157.9645
G1 X136.933 Y132.152 E157.9696
G1 X137.043 Y132.208 E157.9747
G1 X137.211 Y132.234 E157.9818
G1 X139.264 Y132.234 E158.0672
G1 X139.264 Y146.735 E158.6700
G1 X137.964 Y146.735 E158.7241
G0 F3000 E157.7241
G0 X137.964 Y146.735 F5400
G0 X136.764 Y147.635
G0 X136.764 Y147.635
G0 X136.764 Y149.235
G0 X134.631 Y149.235
G0 X134.631 Y149.235
G0 X132.232 Y151.034
G0 X132.232 Y151.034
G0 X124.840 Y151.034
G0 X124.300 Y151.077
G0 X123.750 Y151.209
G0 X123.228 Y151.425
G0 X122.746 Y151.720
G0 X122.316 Y152.087
G0 X121.949 Y152.517
G0 X121.654 Y152.999
G0 X121.438 Y153.521
G0 X121.306 Y154.071
G0 X121.263 Y154.611
G0 X121.263 Y159.261
G0 X119.248 Y160.773
G0 F3000 E158.7241
;segType:HShell
G1 X120.417 Y161.942 E158.7928 F2400
G0 X120.648 Y161.608 F5400
G1 X119.501 Y160.460 E158.8603 F2400
G0 X119.716 Y160.110 F5400
G1 X120.814 Y161.208 E158.9249 F2400
G0 X120.893 Y160.721 F5400
G1 X119.883 Y159.711 E158.9843 F2400
G0 X120.004 Y159.266 F5400
G1 X120.903 Y160.165 E159.0372 F2400
G0 X120.903 Y159.600 F5400
G1 X120.064 Y158.760 E159.0865 F2400
G0 X120.032 Y158.163 F5400
G1 X120.903 Y159.034 E159.1377 F2400
G0 X120.903 Y158.468 F5400
G1 X119.820 Y157.385 E159.2014 F2400
G0 X119.417 Y157.798 F5400
;segType:Perimeter
G1 X119.310 Y158.591 E159.2347 F1439
G1 X119.295 Y158.946 E159.2495
G1 X119.207 Y159.352 E159.2668
G1 X119.052 Y159.738 E159.2841
G1 X118.834 Y160.092 E159.3014
G1 X118.560 Y160.404 E159.3186
G1 X118.236 Y160.665 E159.3359
G1 X117.873 Y160.868 E159.3532
G1 X117.481 Y161.007 E159.3705
G1 X117.071 Y161.077 E159.3878
G1 X116.656 Y161.077 E159.4051
G1 X116.246 Y161.007 E159.4224
G1 X115.854 Y160.868 E159.4397
G1 X115.491 Y160.665 E159.4569
G1 X115.168 Y160.404 E159.4742
G1 X114.893 Y160.092 E159.4915
G1 X114.675 Y159.738 E159.5088
G1 X114.520 Y159.352 E159.5261
G1 X114.432 Y158.946 E159.5434
G1 X114.415 Y158.531 E159.5607
G1 X114.467 Y158.118 E159.5779
G1 X114.589 Y157.721 E159.5952
G1 X114.776 Y157.349 E159.6125
G1 X115.024 Y157.015 E159.6298
G1 X115.324 Y156.728 E159.6471
G1 X115.668 Y156.495 E159.6644
G1 X116.047 Y156.324 E159.6817
G1 X116.449 Y156.219 E159.6990
G1 X116.864 Y156.183 E159.7162
G1 X117.278 Y156.219 E159.7335
G1 X117.680 Y156.324 E159.7508
G1 X118.059 Y156.495 E159.7681
G1 X118.403 Y156.728 E159.7854
G1 X118.704 Y157.015 E159.8027
G1 X118.951 Y157.349 E159.8200
G1 X119.138 Y157.721 E159.8372
G1 X119.260 Y158.118 E159.8545
G1 X119.305 Y158.471 E159.8693
G0 X119.479 Y159.252 F5400
G0 X119.478 Y159.751
;segType:Loop
G1 X119.411 Y159.919 E159.8769 F2400
G1 X119.157 Y160.331 E159.8970
G1 X118.837 Y160.694 E159.9171
G1 X118.461 Y160.998 E159.9372
G1 X118.038 Y161.234 E159.9573
G1 X117.582 Y161.395 E159.9774
G1 X117.105 Y161.477 E159.9975
G1 X116.622 Y161.477 E160.0176
G1 X116.145 Y161.395 E160.0378
G1 X115.689 Y161.234 E160.0579
G1 X115.266 Y160.998 E160.0780
G1 X114.890 Y160.694 E160.0981
G1 X114.570 Y160.331 E160.1182
G1 X114.317 Y159.919 E160.1383
G1 X114.136 Y159.470 E160.1584
G1 X114.034 Y158.997 E160.1786
G1 X114.014 Y158.514 E160.1987
G1 X114.075 Y158.034 E160.2188
G1 X114.217 Y157.571 E160.2389
G1 X114.435 Y157.139 E160.2590
G1 X114.722 Y156.750 E160.2791
G1 X115.072 Y156.415 E160.2992
G1 X115.473 Y156.144 E160.3194
G1 X115.913 Y155.945 E160.3395
G1 X116.381 Y155.823 E160.3596
G1 X116.864 Y155.782 E160.3797
G1 X117.346 Y155.823 E160.3998
G1 X117.814 Y155.945 E160.4199
G1 X118.255 Y156.144 E160.4400
G1 X118.656 Y156.415 E160.4602
G1 X119.005 Y156.750 E160.4803
G1 X119.293 Y157.139 E160.5004
G1 X119.510 Y157.571 E160.5205
G1 X119.652 Y158.034 E160.5406
G1 X119.714 Y158.514 E160.5607
G1 X119.693 Y158.997 E160.5809
G1 X119.591 Y159.470 E160.6010
G1 X119.553 Y159.565 E160.6052
G0 X118.964 Y161.055 F5400
;segType:HShell
G1 X120.131 Y162.222 E160.6739 F2400
G0 X119.791 Y162.447 F5400
G1 X118.649 Y161.305 E160.7410 F2400
G0 X118.286 Y161.508 F5400
G1 X119.377 Y162.599 E160.8052 F2400
G0 X118.882 Y162.670 F5400
G1 X117.883 Y161.671 E160.8639 F2400
G0 X117.433 Y161.786 F5400
G1 X118.321 Y162.674 E160.9161 F2400
G0 X117.755 Y162.674 F5400
G1 X116.918 Y161.837 E160.9653 F2400
G0 X116.303 Y161.788 F5400
G1 X117.189 Y162.674 E161.0174 F2400
G0 X116.624 Y162.674 F5400
G1 X115.479 Y161.529 E161.0847 F2400
G0 X112.919 Y161.232 F5400
G1 X114.266 Y162.579 E161.1639 F2400
G0 X114.927 Y162.674 F5400
G1 X112.824 Y160.572 E161.2875 F2400
G0 X112.824 Y160.006 F5400
G1 X115.492 Y162.674 E161.4444 F2400
G0 X116.058 Y162.674 F5400
G1 X112.824 Y159.440 E161.6346 F2400
G0 X112.824 Y158.874 F5400
G1 X113.969 Y160.019 E161.7019 F2400
G0 X113.708 Y159.193 F5400
G1 X112.824 Y158.309 E161.7538 F2400
G0 X112.824 Y157.743 F5400
G1 X113.656 Y158.575 E161.8027 F2400
G0 X113.708 Y158.062 F5400
G1 X112.824 Y157.177 E161.8547 F2400
G0 X112.824 Y156.612 F5400
G1 X113.827 Y157.614 E161.9137 F2400
G0 X113.993 Y157.215 F5400
G1 X112.824 Y156.046 E161.9824 F2400
G0 X112.824 Y155.480 F5400
G1 X114.198 Y156.854 E162.0632 F2400
G0 X114.438 Y156.529 F5400
G1 X112.824 Y154.915 E162.1581 F2400
G0 X112.803 Y154.327 F5400
G1 X114.724 Y156.249 E162.2710 F2400
G0 X115.042 Y156.001 F5400
G1 X112.690 Y153.649 E162.4093 F2400
G0 X112.322 Y152.716 F5400
G1 X115.392 Y155.785 E162.5898 F2400
G0 X115.782 Y155.610 F5400
G1 X109.767 Y149.595 E162.9434 F2400
G0 X110.333 Y149.595 F5400
G1 X116.229 Y155.491 E163.2900 F2400
G0 X116.735 Y155.432 F5400
G1 X110.899 Y149.595 E163.6332 F2400
G0 X111.464 Y149.595 F5400
G1 X117.330 Y155.460 E163.9780 F2400
G0 X118.126 Y155.691 F5400
G1 X112.030 Y149.595 E164.3364 F2400
G0 X112.596 Y149.595 F5400
G1 X120.903 Y157.903 E164.8249 F2400
G0 X120.903 Y157.337 F5400
G1 X113.161 Y149.595 E165.2801 F2400
G0 X113.727 Y149.595 F5400
G1 X120.903 Y156.771 E165.7020 F2400
G0 X120.903 Y156.205 F5400
G1 X114.293 Y149.595 E166.0906 F2400
G0 X114.859 Y149.595 F5400
G1 X120.903 Y155.640 E166.4460 F2400
G0 X120.903 Y155.074 F5400
G1 X115.424 Y149.595 E166.7682 F2400
G0 X115.990 Y149.595 F5400
G1 X120.910 Y154.515 E167.0574 F2400
G0 X120.954 Y153.994 F5400
G1 X116.556 Y149.595 E167.3160 F2400
G0 X117.121 Y149.595 F5400
G1 X121.063 Y153.537 E167.5478 F2400
G0 X121.213 Y153.122 F5400
G1 X117.687 Y149.595 E167.7552 F2400
G0 X118.253 Y149.595 F5400
G1 X121.393 Y152.736 E167.9398 F2400
G0 X121.608 Y152.385 F5400
G1 X118.818 Y149.595 E168.1038 F2400
G0 X119.384 Y149.595 F5400
G1 X121.858 Y152.069 E168.2493 F2400
G0 X122.129 Y151.774 F5400
G1 X119.950 Y149.595 E168.3774 F2400
G0 X120.515 Y149.595 F5400
G1 X122.434 Y151.514 E168.4902 F2400
G0 X122.770 Y151.284 F5400
G1 X121.081 Y149.595 E168.5895 F2400
G0 X121.647 Y149.595 F5400
G1 X123.128 Y151.077 E168.6766 F2400
G0 X123.528 Y150.911 F5400
G1 X122.212 Y149.595 E168.7539 F2400
G0 X122.778 Y149.595 F5400
G1 X123.969 Y150.786 E168.8240 F2400
G0 X124.452 Y150.703 F5400
G1 X123.344 Y149.595 E168.8891 F2400
G0 X123.910 Y149.595 F5400
G1 X124.988 Y150.674 E168.9525 F2400
G0 X125.554 Y150.674 F5400
G1 X124.475 Y149.595 E169.0160 F2400
G0 X125.041 Y149.595 F5400
G1 X126.120 Y150.674 E169.0794 F2400
G0 X126.685 Y150.674 F5400
G1 X125.607 Y149.595 E169.1428 F2400
G0 X126.172 Y149.595 F5400
G1 X127.251 Y150.674 E169.2063 F2400
G0 X127.817 Y150.674 F5400
G1 X126.738 Y149.595 E169.2697 F2400
G0 X127.304 Y149.595 F5400
G1 X128.382 Y150.674 E169.3331 F2400
G0 X128.948 Y150.674 F5400
G1 X127.869 Y149.595 E169.3966 F2400
G0 X128.435 Y149.595 F5400
G1 X129.514 Y150.674 E169.4600 F2400
G0 X130.080 Y150.674 F5400
G1 X129.001 Y149.595 E169.5234 F2400
G0 X129.566 Y149.595 F5400
G1 X130.645 Y150.674 E169.5868 F2400
G0 X131.211 Y150.674 F5400
G1 X130.132 Y149.595 E169.6503 F2400
G0 X130.698 Y149.595 F5400
G1 X131.777 Y150.674 E169.7137 F2400
G0 X132.342 Y150.674 F5400
G1 X131.263 Y149.595 E169.7771 F2400
G0 X131.829 Y149.595 F5400
G1 X132.908 Y150.674 E169.8406 F2400
G0 X133.474 Y150.674 F5400
G1 X132.395 Y149.595 E169.9040 F2400
G0 X132.960 Y149.595 F5400
G1 X134.039 Y150.674 E169.9674 F2400
G0 X134.605 Y150.674 F5400
G1 X133.526 Y149.595 E170.0309 F2400
G0 X134.092 Y149.595 F5400
G1 X135.171 Y150.674 E170.0943 F2400
G0 X135.736 Y150.674 F5400
G1 X134.658 Y149.595 E170.1577 F2400
G0 X135.223 Y149.595 F5400
G1 X136.302 Y150.674 E170.2212 F2400
G0 X136.868 Y150.674 F5400
G1 X135.789 Y149.595 E170.2846 F2400
G0 X136.355 Y149.595 F5400
G1 X137.433 Y150.674 E170.3480 F2400
G0 X137.999 Y150.674 F5400
G1 X136.920 Y149.595 E170.4114 F2400
G0 X137.124 Y149.234 F5400
G1 X138.565 Y150.674 E170.4961 F2400
G0 X139.079 Y150.623 F5400
G1 X137.124 Y148.668 E170.6111 F2400
G0 X137.124 Y148.102 F5400
G1 X139.505 Y150.483 E170.7511 F2400
G0 X139.866 Y150.278 F5400
G1 X137.124 Y147.536 E170.9123 F2400
G0 X137.250 Y147.096 F5400
G1 X140.161 Y150.008 E171.0835 F2400
G0 F3000 E170.0835
G0 X140.403 Y150.279 F5400
G0 X137.238 Y146.735
G0 X137.238 Y146.735
G0 X139.264 Y146.735
G0 X139.264 Y132.234
G0 X137.211 Y132.234
G0 X137.043 Y132.208
G0 X136.933 Y132.152
G0 X136.846 Y132.065
G0 X136.791 Y131.956
G0 X136.764 Y131.787
G0 X136.764 Y129.734
G0 X122.053 Y129.734
G0 X122.053 Y129.734
G0 X116.112 Y123.084
G0 X116.504 Y123.522
G0 F3000 E171.0835
G1 X122.356 Y129.374 E171.4276 F2400
G0 X121.790 Y129.374 F5400
G1 X115.756 Y123.340 E171.7824 F2400
G0 X118.006 Y123.327 F5400
G1 X124.053 Y129.374 E172.1379 F2400
G0 X124.619 Y129.374 F5400
G1 X123.144 Y127.899 E172.2246 F2400
G0 X124.002 Y128.191 F5400
G1 X125.184 Y129.374 E172.2941 F2400
G0 X125.750 Y129.374 F5400
G1 X124.658 Y128.282 E172.3584 F2400
G0 X125.237 Y128.295 F5400
G1 X126.316 Y129.374 E172.4218 F2400
G0 X126.881 Y129.374 F5400
G1 X125.803 Y128.295 E172.4852 F2400
G0 X126.368 Y128.295 F5400
G1 X127.447 Y129.374 E172.5487 F2400
G0 X128.013 Y129.374 F5400
G1 X126.934 Y128.295 E172.6121 F2400
G0 X127.500 Y128.295 F5400
G1 X128.579 Y129.374 E172.6755 F2400
G0 X129.144 Y129.374 F5400
G1 X128.065 Y128.295 E172.7389 F2400
G0 X128.631 Y128.295 F5400
G1 X129.710 Y129.374 E172.8024 F2400
G0 X130.276 Y129.374 F5400
G1 X129.197 Y128.295 E172.8658 F2400
G0 X129.762 Y128.295 F5400
G1 X130.841 Y129.374 E172.9292 F2400
G0 X131.407 Y129.374 F5400
G1 X130.328 Y128.295 E172.9927 F2400
G0 X130.894 Y128.295 F5400
G1 X131.973 Y129.374 E173.0561 F2400
G0 X132.538 Y129.374 F5400
G1 X131.459 Y128.295 E173.1195 F2400
G0 X132.025 Y128.295 F5400
G1 X133.104 Y129.374 E173.1830 F2400
G0 X133.670 Y129.374 F5400
G1 X132.591 Y128.295 E173.2464 F2400
G0 X133.157 Y128.295 F5400
G1 X134.235 Y129.374 E173.3098 F2400
G0 X134.801 Y129.374 F5400
G1 X133.722 Y128.295 E173.3733 F2400
G0 X134.288 Y128.295 F5400
G1 X135.367 Y129.374 E173.4367 F2400
G0 X135.932 Y129.374 F5400
G1 X134.854 Y128.295 E173.5001 F2400
G0 X135.419 Y128.295 F5400
G1 X136.498 Y129.374 E173.5635 F2400
G0 X137.064 Y129.374 F5400
G1 X135.985 Y128.295 E173.6270 F2400
G0 X136.551 Y128.295 F5400
G1 X140.703 Y132.448 E173.8711 F2400
G0 X140.703 Y131.882 F5400
G1 X137.116 Y128.295 E174.0820 F2400
G0 X137.682 Y128.295 F5400
G1 X140.703 Y131.316 E174.2596 F2400
G0 X140.703 Y130.751 F5400
G1 X138.248 Y128.295 E174.4040 F2400
G0 X138.829 Y128.311 F5400
G1 X140.687 Y130.169 E174.5132 F2400
G0 X140.453 Y129.369 F5400
G1 X139.629 Y128.545 E174.5617 F2400
G0 X137.124 Y129.435 F5400
G1 X139.564 Y131.874 E174.7051 F2400
G0 X138.998 Y131.874 F5400
G1 X137.124 Y130.000 E174.8153 F2400
G0 X137.124 Y130.566 F5400
G1 X138.432 Y131.874 E174.8922 F2400
G0 X137.867 Y131.874 F5400
G1 X137.124 Y131.132 E174.9359 F2400
G0 X139.624 Y131.935 F5400
G1 X140.703 Y133.013 E174.9993 F2400
G0 X140.703 Y133.579 F5400
G1 X139.624 Y132.500 E175.0628 F2400
G0 X139.624 Y133.066 F5400
G1 X140.703 Y134.145 E175.1262 F2400
G0 X140.703 Y134.710 F5400
G1 X139.624 Y133.632 E175.1896 F2400
G0 X139.624 Y134.197 F5400
G1 X140.703 Y135.276 E175.2531 F2400
G0 X140.703 Y135.842 F5400
G1 X139.624 Y134.763 E175.3165 F2400
G0 X139.624 Y135.329 F5400
G1 X140.703 Y136.408 E175.3799 F2400
G0 X140.703 Y136.973 F5400
G1 X139.624 Y135.894 E175.4434 F2400
G0 X139.624 Y136.460 F5400
G1 X140.703 Y137.539 E175.5068 F2400
G0 X140.703 Y138.105 F5400
G1 X139.624 Y137.026 E175.5702 F2400
G0 X139.624 Y137.591 F5400
G1 X140.703 Y138.670 E175.6336 F2400
G0 X140.703 Y139.236 F5400
G1 X139.624 Y138.157 E175.6971 F2400
G0 X139.624 Y138.723 F5400
G1 X140.703 Y139.802 E175.7605 F2400
G0 X140.703 Y140.367 F5400
G1 X139.624 Y139.288 E175.8239 F2400
G0 X139.624 Y139.854 F5400
G1 X140.703 Y140.933 E175.8874 F2400
G0 X140.703 Y141.499 F5400
G1 X139.624 Y140.420 E175.9508 F2400
G0 X139.624 Y140.986 F5400
G1 X140.703 Y142.064 E176.0142 F2400
G0 X140.703 Y142.630 F5400
G1 X139.624 Y141.551 E176.0777 F2400
G0 X139.624 Y142.117 F5400
G1 X140.703 Y143.196 E176.1411 F2400
G0 X140.703 Y143.761 F5400
G1 X139.624 Y142.683 E176.2045 F2400
G0 X139.624 Y143.248 F5400
G1 X140.703 Y144.327 E176.2680 F2400
G0 X140.703 Y144.893 F5400
G1 X139.624 Y143.814 E176.3314 F2400
G0 X139.624 Y144.380 F5400
