; GCode generated by CraftWare

G28 X0 Y0
G28 Z0


M104 S215 ;set head temp (no wait)
M190 S60 ;set bed temp (wait)
M109 S215 ;set head temp (wait)
; ------------------------------------
; Layer #0
; ------------------------------------
M106 S0 ;turn off fan
G21 ; mm
G90 ; abs
G92 E0 ;reset extr
G0 F1200 Z0.350
;segType:Skirt
G0 F3000 E-1.0000
G0 X106.950 Y144.225 F5400
G0 F3000 E0.0000
G1 X104.061 Y141.336 E0.2378 F2400
G1 X103.995 Y140.876 E0.2649
G1 X103.995 Y138.250 E0.4177
G1 X103.930 Y137.790 E0.4447
G1 X101.303 Y137.790 E0.5976
G1 X100.843 Y137.724 E0.6247
G1 X97.954 Y134.835 E0.8625
G1 X97.954 Y131.683 E1.0459
G1 X97.889 Y131.487 E1.0580
G1 X94.737 Y131.487 E1.2414
G1 X94.277 Y131.421 E1.2685
G1 X91.257 Y128.400 E1.5171
G1 X91.257 Y65.890 E5.1555
G1 X91.388 Y65.759 E5.1663
G1 X91.388 Y65.234 E5.1969
G1 X91.519 Y64.314 E5.2509
G1 X91.913 Y63.658 E5.2955
G1 X92.044 Y63.264 E5.3197
G1 X92.307 Y63.001 E5.3413
G1 X92.504 Y62.673 E5.3636
G1 X95.919 Y59.258 E5.6447
G1 X96.247 Y59.061 E5.6669
G1 X96.509 Y58.799 E5.6886
G1 X96.838 Y58.602 E5.7109
G1 X97.232 Y58.470 E5.7350
G1 X97.363 Y58.339 E5.7458
G1 X97.626 Y58.339 E5.7611
G1 X97.757 Y58.208 E5.7719
G1 X98.020 Y58.208 E5.7872
G1 X98.151 Y58.076 E5.7980
G1 X98.677 Y58.076 E5.8286
G1 X99.071 Y57.945 E5.8528
G1 X161.843 Y57.945 E9.5065
G1 X164.732 Y60.834 E9.7443
G1 X164.798 Y61.294 E9.7713
G1 X164.798 Y63.920 E9.9242
G1 X164.864 Y64.380 E9.9512
G1 X168.015 Y64.380 E10.1347
G1 X168.475 Y64.446 E10.1617
G1 X171.364 Y67.335 E10.3995
G1 X171.364 Y70.487 E10.5830
G1 X171.430 Y70.683 E10.5950
G1 X174.056 Y70.683 E10.7479
G1 X174.516 Y70.749 E10.7750
G1 X177.405 Y73.638 E11.0128
G1 X177.405 Y76.265 E11.1656
G1 X177.471 Y76.462 E11.1777
G1 X180.097 Y76.462 E11.3306
G1 X182.986 Y79.351 E11.5684
G1 X183.052 Y79.811 E11.5954
G1 X183.052 Y84.538 E11.8706
G1 X180.163 Y87.427 E12.1084
G1 X179.703 Y87.493 E12.1355
G1 X120.870 Y87.493 E15.5599
G1 X120.744 Y87.535 E15.5676
G0 F3000 E14.5676
G0 X119.294 Y85.144 F5400
G0 X117.844 Y82.752
G0 X116.393 Y80.361
G0 X114.943 Y77.969
G0 X113.493 Y75.578
G0 F3000 E15.5676
;segType:HShell
G1 X114.747 Y76.831 E15.6708 F2400
G0 X114.181 Y76.831 F5400
G1 X112.938 Y75.589 E15.7731 F2400
G0 X112.414 Y75.630 F5400
G1 X113.615 Y76.831 E15.8720 F2400
G0 X113.050 Y76.831 F5400
G1 X111.955 Y75.737 E15.9621 F2400
G0 X111.532 Y75.880 F5400
G1 X112.484 Y76.831 E16.0405 F2400
G0 X111.918 Y76.831 F5400
G1 X111.137 Y76.050 E16.1048 F2400
G0 X110.786 Y76.265 F5400
G1 X111.353 Y76.831 E16.1514 F2400
G0 X110.787 Y76.831 F5400
G1 X110.459 Y76.504 E16.1784 F2400
;segType:Perimeter
G0 X110.934 Y76.852 F5400
G1 X110.934 Y77.652 E16.2249 F1439
G1 X110.934 Y139.981 E19.8528
G1 X108.160 Y139.981 E20.0143
G1 X108.160 Y79.705 E23.5227
G1 X108.221 Y78.934 E23.5677
G1 X108.399 Y78.189 E23.6123
G1 X108.692 Y77.482 E23.6568
G1 X109.092 Y76.829 E23.7014
G1 X109.590 Y76.247 E23.7460
G1 X110.172 Y75.750 E23.7905
G1 X110.824 Y75.350 E23.8351
G1 X111.532 Y75.057 E23.8796
G1 X112.276 Y74.878 E23.9242
G1 X113.046 Y74.818 E23.9691
G1 X173.324 Y74.818 E27.4776
G1 X173.324 Y77.592 E27.6391
G1 X110.994 Y77.592 E31.2670
G0 X110.194 Y77.592 F5400
;segType:Loop
G0 X110.534 Y78.692
G1 X110.534 Y139.581 E34.8111 F2400
G1 X108.560 Y139.581 E34.9260
G1 X108.560 Y79.721 E38.4101
G1 X108.617 Y78.997 E38.4524
G1 X108.781 Y78.313 E38.4933
G1 X109.050 Y77.664 E38.5342
G1 X109.417 Y77.065 E38.5751
G1 X109.873 Y76.531 E38.6160
G1 X110.408 Y76.074 E38.6569
G1 X111.007 Y75.708 E38.6978
G1 X111.656 Y75.438 E38.7387
G1 X112.339 Y75.275 E38.7796
G1 X113.062 Y75.218 E38.8218
G1 X172.924 Y75.218 E42.3061
G1 X172.924 Y77.192 E42.4210
G1 X110.534 Y77.192 E46.0524
G1 X110.534 Y78.492 E46.1280
;segType:InnerHair
G0 X110.241 Y76.771 F5400
G1 X110.139 Y76.830 E46.1348 F2400
G1 X110.095 Y76.948 E46.1435
G1 X110.241 Y76.771 E46.1583
;segType:HShell
G0 X110.094 Y76.987 F5400
G1 X109.909 Y77.650 E46.1850 F2400
G0 X109.428 Y77.736 F5400
G1 X110.174 Y78.481 E46.2464 F2400
G0 X110.174 Y79.047 F5400
G1 X109.250 Y78.123 E46.3225 F2400
G0 X109.098 Y78.537 F5400
G1 X110.174 Y79.613 E46.4111 F2400
G0 X110.174 Y80.178 F5400
G1 X108.988 Y78.993 E46.5087 F2400
G0 X108.938 Y79.508 F5400
G1 X110.174 Y80.744 E46.6104 F2400
G0 X110.174 Y81.310 F5400
G1 X108.920 Y80.056 E46.7137 F2400
G0 X108.920 Y80.621 F5400
G1 X110.174 Y81.875 E46.8169 F2400
G0 X110.174 Y82.441 F5400
G1 X108.920 Y81.187 E46.9201 F2400
G0 X108.920 Y81.753 F5400
G1 X110.174 Y83.007 E47.0233 F2400
G0 X110.174 Y83.573 F5400
G1 X108.920 Y82.319 E47.1266 F2400
G0 X108.920 Y82.884 F5400
G1 X110.174 Y84.138 E47.2298 F2400
G0 X110.174 Y84.704 F5400
G1 X108.920 Y83.450 E47.3330 F2400
G0 X108.920 Y84.016 F5400
G1 X110.174 Y85.270 E47.4362 F2400
G0 X110.174 Y85.835 F5400
G1 X108.920 Y84.581 E47.5395 F2400
G0 X108.920 Y85.147 F5400
G1 X110.174 Y86.401 E47.6427 F2400
G0 X110.174 Y86.967 F5400
G1 X108.920 Y85.713 E47.7459 F2400
G0 X108.920 Y86.278 F5400
G1 X110.174 Y87.532 E47.8491 F2400
G0 X110.174 Y88.098 F5400
G1 X108.920 Y86.844 E47.9524 F2400
G0 X108.920 Y87.410 F5400
G1 X110.174 Y88.664 E48.0556 F2400
G0 X110.174 Y89.229 F5400
G1 X108.920 Y87.975 E48.1588 F2400
G0 X108.920 Y88.541 F5400
G1 X110.174 Y89.795 E48.2620 F2400
G0 X110.174 Y90.361 F5400
G1 X108.920 Y89.107 E48.3653 F2400
G0 X108.920 Y89.672 F5400
G1 X110.174 Y90.926 E48.4685 F2400
G0 X110.174 Y91.492 F5400
G1 X108.920 Y90.238 E48.5717 F2400
G0 X108.920 Y90.804 F5400
G1 X110.174 Y92.058 E48.6749 F2400
G0 X110.174 Y92.624 F5400
G1 X108.920 Y91.369 E48.7782 F2400
G0 X108.920 Y91.935 F5400
G1 X110.174 Y93.189 E48.8814 F2400
G0 X110.174 Y93.755 F5400
G1 X108.920 Y92.501 E48.9846 F2400
G0 X108.920 Y93.067 F5400
G1 X110.174 Y94.321 E49.0878 F2400
G0 X110.174 Y94.886 F5400
G1 X108.920 Y93.632 E49.1911 F2400
G0 X108.920 Y94.198 F5400
G1 X110.174 Y95.452 E49.2943 F2400
G0 X110.174 Y96.018 F5400
G1 X108.920 Y94.764 E49.3975 F2400
G0 X108.920 Y95.329 F5400
G1 X110.174 Y96.583 E49.5007 F2400
G0 X110.174 Y97.149 F5400
G1 X108.920 Y95.895 E49.6040 F2400
G0 X108.920 Y96.461 F5400
G1 X110.174 Y97.715 E49.7072 F2400
G0 X110.174 Y98.280 F5400
G1 X108.920 Y97.026 E49.8104 F2400
G0 X108.920 Y97.592 F5400
G1 X110.174 Y98.846 E49.9137 F2400
G0 X110.174 Y99.412 F5400
G1 X108.920 Y98.158 E50.0169 F2400
G0 X108.920 Y98.723 F5400
G1 X110.174 Y99.977 E50.1201 F2400
G0 X110.174 Y100.543 F5400
G1 X108.920 Y99.289 E50.2233 F2400
G0 X108.920 Y99.855 F5400
G1 X110.174 Y101.109 E50.3266 F2400
G0 X110.174 Y101.675 F5400
G1 X108.920 Y100.420 E50.4298 F2400
G0 X108.920 Y100.986 F5400
G1 X110.174 Y102.240 E50.5330 F2400
G0 X110.174 Y102.806 F5400
G1 X108.920 Y101.552 E50.6362 F2400
G0 X108.920 Y102.118 F5400
G1 X110.174 Y103.372 E50.7395 F2400
G0 X110.174 Y103.937 F5400
G1 X108.920 Y102.683 E50.8427 F2400
G0 X108.920 Y103.249 F5400
G1 X110.174 Y104.503 E50.9459 F2400
G0 X110.174 Y105.069 F5400
G1 X108.920 Y103.815 E51.0491 F2400
G0 X108.920 Y104.380 F5400
G1 X110.174 Y105.634 E51.1524 F2400
G0 X110.174 Y106.200 F5400
G1 X108.920 Y104.946 E51.2556 F2400
G0 X108.920 Y105.512 F5400
G1 X110.174 Y106.766 E51.3588 F2400
G0 X110.174 Y107.331 F5400
G1 X108.920 Y106.077 E51.4620 F2400
G0 X108.920 Y106.643 F5400
G1 X110.174 Y107.897 E51.5653 F2400
G0 X110.174 Y108.463 F5400
G1 X108.920 Y107.209 E51.6685 F2400
G0 X108.920 Y107.774 F5400
G1 X110.174 Y109.028 E51.7717 F2400
G0 X110.174 Y109.594 F5400
G1 X108.920 Y108.340 E51.8749 F2400
G0 X108.920 Y108.906 F5400
G1 X110.174 Y110.160 E51.9782 F2400
G0 X110.174 Y110.725 F5400
G1 X108.920 Y109.471 E52.0814 F2400
G0 X108.920 Y110.037 F5400
G1 X110.174 Y111.291 E52.1846 F2400
G0 X110.174 Y111.857 F5400
G1 X108.920 Y110.603 E52.2878 F2400
G0 X108.920 Y111.168 F5400
G1 X110.174 Y112.423 E52.3911 F2400
G0 X110.174 Y112.988 F5400
G1 X108.920 Y111.734 E52.4943 F2400
G0 X108.920 Y112.300 F5400
G1 X110.174 Y113.554 E52.5975 F2400
G0 X110.174 Y114.120 F5400
G1 X108.920 Y112.866 E52.7007 F2400
G0 X108.920 Y113.431 F5400
G1 X110.174 Y114.685 E52.8040 F2400
G0 X110.174 Y115.251 F5400
G1 X108.920 Y113.997 E52.9072 F2400
G0 X108.920 Y114.563 F5400
G1 X110.174 Y115.817 E53.0104 F2400
G0 X110.174 Y116.382 F5400
G1 X108.920 Y115.128 E53.1137 F2400
G0 X108.920 Y115.694 F5400
G1 X110.174 Y116.948 E53.2169 F2400
G0 X110.174 Y117.514 F5400
G1 X108.920 Y116.260 E53.3201 F2400
G0 X108.920 Y116.825 F5400
G1 X110.174 Y118.079 E53.4233 F2400
G0 X110.174 Y118.645 F5400
G1 X108.920 Y117.391 E53.5266 F2400
G0 X108.920 Y117.957 F5400
G1 X110.174 Y119.211 E53.6298 F2400
G0 X110.174 Y119.776 F5400
G1 X108.920 Y118.522 E53.7330 F2400
G0 X108.920 Y119.088 F5400
G1 X110.174 Y120.342 E53.8362 F2400
G0 X110.174 Y120.908 F5400
G1 X108.920 Y119.654 E53.9395 F2400
G0 X108.920 Y120.219 F5400
G1 X110.174 Y121.473 E54.0427 F2400
G0 X110.174 Y122.039 F5400
G1 X108.920 Y120.785 E54.1459 F2400
G0 X108.920 Y121.351 F5400
G1 X110.174 Y122.605 E54.2491 F2400
G0 X110.174 Y123.171 F5400
G1 X108.920 Y121.917 E54.3524 F2400
G0 X108.920 Y122.482 F5400
G1 X110.174 Y123.736 E54.4556 F2400
G0 X110.174 Y124.302 F5400
G1 X108.920 Y123.048 E54.5588 F2400
G0 X108.920 Y123.614 F5400
G1 X110.174 Y124.868 E54.6620 F2400
G0 X110.174 Y125.433 F5400
G1 X108.920 Y124.179 E54.7653 F2400
G0 X108.920 Y124.745 F5400
G1 X110.174 Y125.999 E54.8685 F2400
G0 X110.174 Y126.565 F5400
G1 X108.920 Y125.311 E54.9717 F2400
G0 X108.920 Y125.876 F5400
G1 X110.174 Y127.130 E55.0749 F2400
G0 X110.174 Y127.696 F5400
G1 X108.920 Y126.442 E55.1782 F2400
G0 X108.920 Y127.008 F5400
G1 X110.174 Y128.262 E55.2814 F2400
G0 X110.174 Y128.827 F5400
G1 X108.920 Y127.573 E55.3846 F2400
G0 X108.920 Y128.139 F5400
G1 X110.174 Y129.393 E55.4878 F2400
G0 X110.174 Y129.959 F5400
G1 X108.920 Y128.705 E55.5911 F2400
G0 X108.920 Y129.270 F5400
G1 X110.174 Y130.524 E55.6943 F2400
G0 X110.174 Y131.090 F5400
G1 X108.920 Y129.836 E55.7975 F2400
G0 X108.920 Y130.402 F5400
G1 X110.174 Y131.656 E55.9007 F2400
G0 X110.174 Y132.222 F5400
G1 X108.920 Y130.967 E56.0040 F2400
G0 X108.920 Y131.533 F5400
G1 X110.174 Y132.787 E56.1072 F2400
G0 X110.174 Y133.353 F5400
G1 X108.920 Y132.099 E56.2104 F2400
G0 X108.920 Y132.665 F5400
G1 X110.174 Y133.919 E56.3136 F2400
G0 X110.174 Y134.484 F5400
G1 X108.920 Y133.230 E56.4169 F2400
G0 X108.920 Y133.796 F5400
G1 X110.174 Y135.050 E56.5201 F2400
G0 X110.174 Y135.616 F5400
G1 X108.920 Y134.362 E56.6233 F2400
G0 X108.920 Y134.927 F5400
G1 X110.174 Y136.181 E56.7266 F2400
G0 X110.174 Y136.747 F5400
G1 X108.920 Y135.493 E56.8298 F2400
G0 X108.920 Y136.059 F5400
G1 X110.174 Y137.313 E56.9330 F2400
G0 X110.174 Y137.878 F5400
G1 X108.920 Y136.624 E57.0362 F2400
G0 X108.920 Y137.190 F5400
G1 X110.174 Y138.444 E57.1395 F2400
G0 X110.174 Y139.010 F5400
G1 X108.920 Y137.756 E57.2427 F2400
G0 X108.920 Y138.321 F5400
G1 X109.820 Y139.221 E57.3167 F2400
G0 X109.254 Y139.221 F5400
G1 X108.920 Y138.887 E57.3442 F2400
G0 X110.534 Y137.302 F5400
G0 X110.534 Y77.192
G0 X171.740 Y77.192
G0 X171.740 Y77.192
G0 X172.573 Y76.373
G0 X172.563 Y76.383
G1 X171.759 Y75.578 E57.4105 F2400
G0 X171.193 Y75.578 F5400
G1 X172.447 Y76.832 E57.5137 F2400
G0 X171.881 Y76.832 F5400
G1 X170.627 Y75.578 E57.6169 F2400
G0 X170.061 Y75.578 F5400
G1 X171.315 Y76.831 E57.7201 F2400
G0 X170.750 Y76.832 F5400
G1 X169.496 Y75.578 E57.8233 F2400
G0 X168.930 Y75.578 F5400
G1 X170.184 Y76.831 E57.9265 F2400
G0 X169.618 Y76.831 F5400
G1 X168.364 Y75.578 E58.0297 F2400
G0 X167.799 Y75.578 F5400
G1 X169.053 Y76.832 E58.1329 F2400
G0 X168.487 Y76.831 F5400
G1 X167.233 Y75.578 E58.2361 F2400
G0 X166.667 Y75.578 F5400
G1 X167.921 Y76.832 E58.3393 F2400
G0 X167.355 Y76.832 F5400
G1 X166.102 Y75.578 E58.4425 F2400
G0 X165.536 Y75.578 F5400
G1 X166.790 Y76.831 E58.5457 F2400
G0 X166.224 Y76.832 F5400
G1 X164.970 Y75.578 E58.6489 F2400
G0 X164.405 Y75.578 F5400
G1 X165.658 Y76.832 E58.7521 F2400
G0 X165.093 Y76.832 F5400
G1 X163.839 Y75.578 E58.8553 F2400
G0 X163.273 Y75.578 F5400
G1 X164.527 Y76.832 E58.9586 F2400
G0 X163.961 Y76.831 F5400
G1 X162.708 Y75.578 E59.0618 F2400
G0 X162.142 Y75.578 F5400
G1 X163.396 Y76.832 E59.1650 F2400
G0 X162.830 Y76.832 F5400
G1 X161.576 Y75.578 E59.2682 F2400
G0 X161.011 Y75.578 F5400
G1 X162.264 Y76.832 E59.3714 F2400
G0 X161.699 Y76.832 F5400
G1 X160.445 Y75.578 E59.4746 F2400
G0 X159.879 Y75.578 F5400
G1 X161.133 Y76.832 E59.5778 F2400
G0 X160.567 Y76.832 F5400
G1 X159.313 Y75.578 E59.6810 F2400
G0 X158.748 Y75.578 F5400
G1 X160.002 Y76.832 E59.7842 F2400
G0 X159.436 Y76.832 F5400
G1 X158.182 Y75.578 E59.8874 F2400
G0 X157.616 Y75.578 F5400
G1 X158.870 Y76.832 E59.9906 F2400
G0 X158.305 Y76.832 F5400
G1 X157.051 Y75.578 E60.0938 F2400
G0 X156.485 Y75.578 F5400
G1 X157.739 Y76.832 E60.1970 F2400
G0 X157.173 Y76.832 F5400
G1 X155.919 Y75.578 E60.3002 F2400
G0 X155.354 Y75.578 F5400
G1 X156.607 Y76.832 E60.4034 F2400
G0 X156.042 Y76.832 F5400
G1 X154.788 Y75.578 E60.5067 F2400
G0 X154.222 Y75.578 F5400
G1 X155.476 Y76.832 E60.6099 F2400
G0 X154.910 Y76.832 F5400
G1 X153.657 Y75.578 E60.7131 F2400
G0 X153.091 Y75.578 F5400
G1 X154.345 Y76.832 E60.8163 F2400
G0 X153.779 Y76.832 F5400
G1 X152.525 Y75.578 E60.9195 F2400
G0 X151.960 Y75.578 F5400
G1 X153.213 Y76.832 E61.0227 F2400
G0 X152.648 Y76.832 F5400
G1 X151.394 Y75.578 E61.1259 F2400
G0 X150.828 Y75.578 F5400
G1 X152.082 Y76.832 E61.2291 F2400
G0 X151.516 Y76.832 F5400
G1 X150.262 Y75.578 E61.3323 F2400
G0 X149.697 Y75.578 F5400
G1 X150.951 Y76.831 E61.4355 F2400
G0 X150.385 Y76.832 F5400
G1 X149.131 Y75.578 E61.5387 F2400
G0 X148.565 Y75.578 F5400
G1 X149.819 Y76.832 E61.6419 F2400
G0 X149.254 Y76.832 F5400
G1 X148.000 Y75.578 E61.7451 F2400
G0 X147.434 Y75.578 F5400
G1 X148.688 Y76.832 E61.8483 F2400
G0 X148.122 Y76.832 F5400
G1 X146.868 Y75.578 E61.9515 F2400
G0 X146.303 Y75.578 F5400
G1 X147.556 Y76.832 E62.0548 F2400
G0 X146.991 Y76.832 F5400
G1 X145.737 Y75.578 E62.1580 F2400
G0 X145.171 Y75.578 F5400
G1 X146.425 Y76.832 E62.2612 F2400
G0 X145.859 Y76.832 F5400
G1 X144.606 Y75.578 E62.3644 F2400
G0 X144.040 Y75.578 F5400
G1 X145.294 Y76.832 E62.4676 F2400
G0 X144.728 Y76.832 F5400
G1 X143.474 Y75.578 E62.5708 F2400
G0 X142.909 Y75.578 F5400
G1 X144.162 Y76.832 E62.6740 F2400
G0 X143.597 Y76.832 F5400
G1 X142.343 Y75.578 E62.7772 F2400
G0 X141.777 Y75.578 F5400
G1 X143.031 Y76.832 E62.8804 F2400
G0 X142.465 Y76.832 F5400
G1 X141.212 Y75.578 E62.9836 F2400
G0 X140.646 Y75.578 F5400
G1 X141.900 Y76.832 E63.0868 F2400
G0 X141.334 Y76.832 F5400
G1 X140.080 Y75.578 E63.1900 F2400
G0 X139.514 Y75.578 F5400
G1 X140.768 Y76.832 E63.2932 F2400
G0 X140.203 Y76.832 F5400
G1 X138.949 Y75.578 E63.3964 F2400
G0 X138.383 Y75.578 F5400
G1 X139.637 Y76.832 E63.4996 F2400
G0 X139.071 Y76.832 F5400
G1 X137.817 Y75.578 E63.6029 F2400
G0 X137.252 Y75.578 F5400
G1 X138.506 Y76.832 E63.7061 F2400
G0 X137.940 Y76.832 F5400
G1 X136.686 Y75.578 E63.8093 F2400
G0 X136.120 Y75.578 F5400
G1 X137.374 Y76.832 E63.9125 F2400
G0 X136.808 Y76.832 F5400
G1 X135.555 Y75.578 E64.0157 F2400
G0 X134.989 Y75.578 F5400
G1 X136.243 Y76.832 E64.1189 F2400
G0 X135.677 Y76.832 F5400
G1 X134.423 Y75.578 E64.2221 F2400
G0 X133.858 Y75.578 F5400
G1 X135.111 Y76.832 E64.3253 F2400
G0 X134.546 Y76.832 F5400
G1 X133.292 Y75.578 E64.4285 F2400
G0 X132.726 Y75.578 F5400
G1 X133.980 Y76.832 E64.5317 F2400
G0 X133.414 Y76.832 F5400
G1 X132.161 Y75.578 E64.6349 F2400
G0 X131.595 Y75.578 F5400
G1 X132.849 Y76.832 E64.7381 F2400
G0 X132.283 Y76.832 F5400
G1 X131.029 Y75.578 E64.8413 F2400
G0 X130.464 Y75.578 F5400
G1 X131.717 Y76.832 E64.9445 F2400
G0 X131.152 Y76.832 F5400
G1 X129.898 Y75.578 E65.0477 F2400
G0 X129.332 Y75.578 F5400
G1 X130.586 Y76.832 E65.1509 F2400
G0 X130.020 Y76.832 F5400
G1 X128.766 Y75.578 E65.2541 F2400
G0 X128.201 Y75.578 F5400
G1 X129.455 Y76.832 E65.3573 F2400
G0 X128.889 Y76.832 F5400
G1 X127.635 Y75.578 E65.4605 F2400
G0 X127.069 Y75.578 F5400
G1 X128.323 Y76.832 E65.5637 F2400
G0 X127.757 Y76.832 F5400
G1 X126.504 Y75.578 E65.6669 F2400
G0 X125.938 Y75.578 F5400
G1 X127.192 Y76.832 E65.7702 F2400
G0 X126.626 Y76.832 F5400
G1 X125.372 Y75.578 E65.8734 F2400
G0 X124.807 Y75.578 F5400
G1 X126.060 Y76.832 E65.9766 F2400
G0 X125.495 Y76.831 F5400
G1 X124.241 Y75.578 E66.0798 F2400
G0 X123.675 Y75.578 F5400
G1 X124.929 Y76.832 E66.1830 F2400
G0 X124.363 Y76.832 F5400
G1 X123.110 Y75.578 E66.2862 F2400
G0 X122.544 Y75.578 F5400
G1 X123.798 Y76.831 E66.3894 F2400
G0 X123.232 Y76.831 F5400
G1 X121.978 Y75.578 E66.4926 F2400
G0 X121.413 Y75.578 F5400
G1 X122.666 Y76.831 E66.5958 F2400
G0 X122.101 Y76.831 F5400
G1 X120.847 Y75.578 E66.6990 F2400
G0 X120.281 Y75.578 F5400
G1 X121.535 Y76.831 E66.8022 F2400
G0 X120.969 Y76.831 F5400
G1 X119.715 Y75.578 E66.9054 F2400
G0 X119.150 Y75.578 F5400
G1 X120.404 Y76.831 E67.0087 F2400
G0 X119.838 Y76.831 F5400
G1 X118.584 Y75.578 E67.1119 F2400
G0 X118.018 Y75.578 F5400
G1 X119.272 Y76.831 E67.2151 F2400
G0 X118.707 Y76.831 F5400
G1 X117.453 Y75.578 E67.3183 F2400
G0 X116.887 Y75.578 F5400
G1 X118.141 Y76.831 E67.4215 F2400
G0 X117.575 Y76.831 F5400
G1 X116.321 Y75.578 E67.5247 F2400
G0 X115.756 Y75.578 F5400
G1 X117.009 Y76.831 E67.6279 F2400
G0 X116.444 Y76.831 F5400
G1 X115.190 Y75.578 E67.7311 F2400
G0 X114.624 Y75.578 F5400
G1 X115.878 Y76.831 E67.8343 F2400
G0 X115.312 Y76.831 F5400
G1 X114.059 Y75.578 E67.9375 F2400
G0 F3000 E66.9375
G0 X117.506 Y79.402 F5400
G0 X119.230 Y81.315
G0 F3000 E67.9375
G1 X120.484 Y82.568 E68.0407 F2400
G0 X119.918 Y82.568 F5400
G1 X118.665 Y81.316 E68.1439 F2400
G0 X118.141 Y81.357 F5400
G1 X119.352 Y82.568 E68.2436 F2400
G0 X118.787 Y82.568 F5400
G1 X117.666 Y81.448 E68.3359 F2400
G0 X117.229 Y81.577 F5400
G1 X118.221 Y82.568 E68.4175 F2400
G0 X117.655 Y82.568 F5400
G1 X116.829 Y81.742 E68.4855 F2400
G0 X116.471 Y81.950 F5400
G1 X117.090 Y82.568 E68.5364 F2400
G0 X116.524 Y82.568 F5400
G1 X116.134 Y82.178 E68.5685 F2400
;segType:Perimeter
G0 X116.535 Y82.589 F5400
G1 X116.535 Y83.389 E68.6150 F1439
G1 X116.535 Y145.718 E72.2429
G1 X113.761 Y145.718 E72.4044
G1 X113.761 Y85.442 E75.9128
G1 X113.822 Y84.671 E75.9578
G1 X114.000 Y83.926 E76.0024
G1 X114.293 Y83.219 E76.0469
G1 X114.693 Y82.566 E76.0915
G1 X115.191 Y81.984 E76.1361
G1 X115.773 Y81.487 E76.1806
G1 X116.425 Y81.087 E76.2252
G1 X117.133 Y80.794 E76.2697
G1 X117.877 Y80.615 E76.3143
G1 X118.647 Y80.554 E76.3592
G1 X178.924 Y80.554 E79.8677
G1 X178.924 Y83.329 E80.0292
G1 X116.595 Y83.329 E83.6571
G0 X115.795 Y83.329 F5400
;segType:Loop
G0 X116.135 Y84.429
G1 X116.135 Y145.318 E87.2012 F2400
G1 X114.161 Y145.318 E87.3161
G1 X114.161 Y85.458 E90.8002
G1 X114.218 Y84.733 E90.8425
G1 X114.382 Y84.050 E90.8834
G1 X114.651 Y83.401 E90.9243
G1 X115.018 Y82.802 E90.9652
G1 X115.474 Y82.268 E91.0061
G1 X116.009 Y81.811 E91.0470
G1 X116.608 Y81.444 E91.0879
G1 X117.257 Y81.175 E91.1288
G1 X117.940 Y81.012 E91.1697
G1 X118.663 Y80.954 E91.2119
G1 X178.524 Y80.954 E94.6962
G1 X178.524 Y82.929 E94.8111
G1 X116.135 Y82.929 E98.4424
G1 X116.135 Y84.229 E98.5181
;segType:HShell
G0 X115.775 Y83.516 F5400
G1 X115.296 Y83.038 E98.5575 F2400
G0 X115.081 Y83.388 F5400
G1 X115.775 Y84.082 E98.6146 F2400
G0 X115.775 Y84.648 F5400
G1 X114.891 Y83.764 E98.6874 F2400
G0 X114.725 Y84.164 F5400
G1 X115.775 Y85.214 E98.7739 F2400
G0 X115.775 Y85.779 F5400
G1 X114.616 Y84.620 E98.8693 F2400
G0 X114.549 Y85.119 F5400
G1 X115.775 Y86.345 E98.9702 F2400
G0 X115.775 Y86.911 F5400
G1 X114.521 Y85.657 E99.0734 F2400
G0 X114.521 Y86.222 F5400
G1 X115.775 Y87.476 E99.1766 F2400
G0 X115.775 Y88.042 F5400
G1 X114.521 Y86.788 E99.2798 F2400
G0 X114.521 Y87.354 F5400
G1 X115.775 Y88.608 E99.3830 F2400
G0 X115.775 Y89.173 F5400
G1 X114.521 Y87.920 E99.4862 F2400
G0 X114.521 Y88.485 F5400
G1 X115.775 Y89.739 E99.5894 F2400
G0 X115.775 Y90.305 F5400
G1 X114.521 Y89.051 E99.6926 F2400
G0 X114.521 Y89.617 F5400
G1 X115.775 Y90.870 E99.7958 F2400
G0 X115.775 Y91.436 F5400
G1 X114.521 Y90.182 E99.8990 F2400
G0 X114.521 Y90.748 F5400
G1 X115.775 Y92.002 E100.0022 F2400
G0 X115.775 Y92.567 F5400
G1 X114.521 Y91.314 E100.1054 F2400
G0 X114.521 Y91.879 F5400
G1 X115.775 Y93.133 E100.2086 F2400
G0 X115.775 Y93.699 F5400
G1 X114.521 Y92.445 E100.3118 F2400
G0 X114.521 Y93.011 F5400
G1 X115.775 Y94.264 E100.4150 F2400
G0 X115.775 Y94.830 F5400
G1 X114.521 Y93.576 E100.5182 F2400
G0 X114.521 Y94.142 F5400
G1 X115.775 Y95.396 E100.6214 F2400
G0 X115.775 Y95.962 F5400
G1 X114.521 Y94.708 E100.7246 F2400
G0 X114.521 Y95.273 F5400
G1 X115.775 Y96.527 E100.8278 F2400
G0 X115.775 Y97.093 F5400
G1 X114.521 Y95.839 E100.9310 F2400
G0 X114.521 Y96.405 F5400
G1 X115.775 Y97.659 E101.0343 F2400
G0 X115.775 Y98.224 F5400
G1 X114.521 Y96.970 E101.1375 F2400
G0 X114.521 Y97.536 F5400
G1 X115.775 Y98.790 E101.2407 F2400
G0 X115.775 Y99.356 F5400
G1 X114.521 Y98.102 E101.3439 F2400
G0 X114.521 Y98.668 F5400
G1 X115.775 Y99.921 E101.4471 F2400
G0 X115.775 Y100.487 F5400
G1 X114.521 Y99.233 E101.5503 F2400
G0 X114.521 Y99.799 F5400
G1 X115.775 Y101.053 E101.6535 F2400
G0 X115.775 Y101.618 F5400
G1 X114.521 Y100.365 E101.7567 F2400
G0 X114.521 Y100.930 F5400
G1 X115.775 Y102.184 E101.8599 F2400
G0 X115.775 Y102.750 F5400
G1 X114.521 Y101.496 E101.9631 F2400
G0 X114.521 Y102.062 F5400
G1 X115.775 Y103.315 E102.0663 F2400
G0 X115.775 Y103.881 F5400
G1 X114.521 Y102.627 E102.1695 F2400
G0 X114.521 Y103.193 F5400
G1 X115.775 Y104.447 E102.2727 F2400
G0 X115.775 Y105.012 F5400
G1 X114.521 Y103.759 E102.3759 F2400
G0 X114.521 Y104.324 F5400
G1 X115.775 Y105.578 E102.4791 F2400
G0 X115.775 Y106.144 F5400
G1 X114.521 Y104.890 E102.5823 F2400
G0 X114.521 Y105.456 F5400
G1 X115.775 Y106.710 E102.6855 F2400
G0 X115.775 Y107.275 F5400
G1 X114.521 Y106.021 E102.7887 F2400
G0 X114.521 Y106.587 F5400
G1 X115.775 Y107.841 E102.8919 F2400
G0 X115.775 Y108.407 F5400
G1 X114.521 Y107.153 E102.9951 F2400
G0 X114.521 Y107.719 F5400
G1 X115.775 Y108.972 E103.0983 F2400
G0 X115.775 Y109.538 F5400
G1 X114.521 Y108.284 E103.2015 F2400
G0 X114.521 Y108.850 F5400
G1 X115.775 Y110.104 E103.3047 F2400
G0 X115.775 Y110.669 F5400
G1 X114.521 Y109.416 E103.4079 F2400
G0 X114.521 Y109.981 F5400
G1 X115.775 Y111.235 E103.5111 F2400
G0 X115.775 Y111.801 F5400
G1 X114.521 Y110.547 E103.6143 F2400
G0 X114.521 Y111.113 F5400
G1 X115.775 Y112.366 E103.7175 F2400
G0 X115.775 Y112.932 F5400
G1 X114.521 Y111.678 E103.8207 F2400
G0 X114.521 Y112.244 F5400
G1 X115.775 Y113.498 E103.9239 F2400
G0 X115.775 Y114.063 F5400
G1 X114.521 Y112.810 E104.0271 F2400
G0 X114.521 Y113.375 F5400
G1 X115.775 Y114.629 E104.1303 F2400
G0 X115.775 Y115.195 F5400
G1 X114.521 Y113.941 E104.2335 F2400
G0 X114.521 Y114.507 F5400
G1 X115.775 Y115.761 E104.3367 F2400
G0 X115.775 Y116.326 F5400
G1 X114.521 Y115.072 E104.4399 F2400
G0 X114.521 Y115.638 F5400
G1 X115.775 Y116.892 E104.5431 F2400
G0 X115.775 Y117.458 F5400
G1 X114.521 Y116.204 E104.6464 F2400
G0 X114.521 Y116.769 F5400
G1 X115.775 Y118.023 E104.7496 F2400
G0 X115.775 Y118.589 F5400
G1 X114.521 Y117.335 E104.8528 F2400
G0 X114.521 Y117.901 F5400
G1 X115.775 Y119.155 E104.9560 F2400
G0 X115.775 Y119.720 F5400
G1 X114.521 Y118.467 E105.0592 F2400
G0 X114.521 Y119.032 F5400
G1 X115.775 Y120.286 E105.1624 F2400
G0 X115.775 Y120.852 F5400
G1 X114.521 Y119.598 E105.2656 F2400
G0 X114.521 Y120.164 F5400
G1 X115.775 Y121.417 E105.3688 F2400
G0 X115.775 Y121.983 F5400
G1 X114.521 Y120.729 E105.4720 F2400
G0 X114.521 Y121.295 F5400
G1 X115.775 Y122.549 E105.5752 F2400
G0 X115.775 Y123.114 F5400
G1 X114.521 Y121.861 E105.6784 F2400
G0 X114.521 Y122.426 F5400
G1 X115.775 Y123.680 E105.7816 F2400
G0 X115.775 Y124.246 F5400
G1 X114.521 Y122.992 E105.8848 F2400
G0 X114.521 Y123.558 F5400
G1 X115.775 Y124.811 E105.9880 F2400
G0 X115.775 Y125.377 F5400
G1 X114.521 Y124.123 E106.0912 F2400
G0 X114.521 Y124.689 F5400
G1 X115.775 Y125.943 E106.1944 F2400
G0 X115.775 Y126.509 F5400
G1 X114.521 Y125.255 E106.2976 F2400
G0 X114.521 Y125.820 F5400
G1 X115.775 Y127.074 E106.4008 F2400
G0 X115.775 Y127.640 F5400
G1 X114.521 Y126.386 E106.5040 F2400
G0 X114.521 Y126.952 F5400
G1 X115.775 Y128.206 E106.6072 F2400
G0 X115.775 Y128.771 F5400
G1 X114.521 Y127.518 E106.7104 F2400
G0 X114.521 Y128.083 F5400
G1 X115.775 Y129.337 E106.8136 F2400
G0 X115.775 Y129.903 F5400
G1 X114.521 Y128.649 E106.9168 F2400
G0 X114.521 Y129.215 F5400
G1 X115.775 Y130.468 E107.0200 F2400
G0 X115.775 Y131.034 F5400
G1 X114.521 Y129.780 E107.1232 F2400
G0 X114.521 Y130.346 F5400
G1 X115.775 Y131.600 E107.2264 F2400
G0 X115.775 Y132.165 F5400
G1 X114.521 Y130.912 E107.3296 F2400
G0 X114.521 Y131.477 F5400
G1 X115.775 Y132.731 E107.4328 F2400
G0 X115.775 Y133.297 F5400
G1 X114.521 Y132.043 E107.5360 F2400
G0 X114.521 Y132.609 F5400
G1 X115.775 Y133.862 E107.6392 F2400
G0 X115.775 Y134.428 F5400
G1 X114.521 Y133.174 E107.7424 F2400
G0 X114.521 Y133.740 F5400
G1 X115.775 Y134.994 E107.8456 F2400
G0 X115.775 Y135.560 F5400
G1 X114.521 Y134.306 E107.9488 F2400
G0 X114.521 Y134.871 F5400
G1 X115.775 Y136.125 E108.0520 F2400
G0 X115.775 Y136.691 F5400
G1 X114.521 Y135.437 E108.1552 F2400
G0 X114.521 Y136.003 F5400
G1 X115.775 Y137.257 E108.2585 F2400
G0 X115.775 Y137.822 F5400
G1 X114.521 Y136.568 E108.3617 F2400
G0 X114.521 Y137.134 F5400
G1 X115.775 Y138.388 E108.4649 F2400
G0 X115.775 Y138.954 F5400
G1 X114.521 Y137.700 E108.5681 F2400
G0 X114.521 Y138.266 F5400
G1 X115.775 Y139.519 E108.6713 F2400
G0 X115.775 Y140.085 F5400
G1 X114.521 Y138.831 E108.7745 F2400
G0 X114.521 Y139.397 F5400
G1 X115.775 Y140.651 E108.8777 F2400
G0 X115.775 Y141.216 F5400
G1 X114.521 Y139.963 E108.9809 F2400
G0 X114.521 Y140.528 F5400
G1 X115.775 Y141.782 E109.0841 F2400
G0 X115.775 Y142.348 F5400
G1 X114.521 Y141.094 E109.1873 F2400
G0 X114.521 Y141.660 F5400
G1 X115.775 Y142.913 E109.2905 F2400
G0 X115.775 Y143.479 F5400
G1 X114.521 Y142.225 E109.3937 F2400
G0 X114.521 Y142.791 F5400
G1 X115.775 Y144.045 E109.4969 F2400
G0 X115.775 Y144.610 F5400
G1 X114.521 Y143.357 E109.6001 F2400
G0 X114.521 Y143.922 F5400
G1 X115.556 Y144.958 E109.6853 F2400
G0 X114.991 Y144.958 F5400
G1 X114.521 Y144.488 E109.7240 F2400
G0 X116.135 Y125.158 F5400
G0 X116.135 Y82.929
G0 X119.661 Y82.929
G0 X119.661 Y82.929
G0 X119.797 Y81.302
G0 X119.796 Y81.315
G1 X121.049 Y82.568 E109.8272 F2400
G0 X121.615 Y82.568 F5400
G1 X120.361 Y81.315 E109.9304 F2400
G0 X120.927 Y81.315 F5400
G1 X122.181 Y82.568 E110.0336 F2400
G0 X122.746 Y82.568 F5400
G1 X121.493 Y81.315 E110.1368 F2400
G0 X122.058 Y81.315 F5400
G1 X123.312 Y82.568 E110.2400 F2400
G0 X123.878 Y82.568 F5400
G1 X122.624 Y81.315 E110.3432 F2400
G0 X123.190 Y81.315 F5400
G1 X124.443 Y82.568 E110.4464 F2400
G0 X125.009 Y82.568 F5400
G1 X123.755 Y81.315 E110.5496 F2400
G0 X124.321 Y81.315 F5400
G1 X125.575 Y82.568 E110.6528 F2400
G0 X126.140 Y82.568 F5400
G1 X124.887 Y81.315 E110.7560 F2400
G0 X125.452 Y81.315 F5400
G1 X126.706 Y82.568 E110.8592 F2400
G0 X127.272 Y82.568 F5400
G1 X126.018 Y81.315 E110.9624 F2400
G0 X126.584 Y81.315 F5400
G1 X127.838 Y82.568 E111.0656 F2400
G0 X128.403 Y82.568 F5400
G1 X127.149 Y81.315 E111.1688 F2400
G0 X127.715 Y81.315 F5400
G1 X128.969 Y82.568 E111.2720 F2400
G0 X129.535 Y82.568 F5400
G1 X128.281 Y81.315 E111.3752 F2400
G0 X128.847 Y81.315 F5400
G1 X130.100 Y82.568 E111.4784 F2400
G0 X130.666 Y82.568 F5400
G1 X129.412 Y81.315 E111.5816 F2400
G0 X129.978 Y81.315 F5400
G1 X131.232 Y82.568 E111.6848 F2400
G0 X131.797 Y82.568 F5400
G1 X130.544 Y81.315 E111.7880 F2400
G0 X131.109 Y81.315 F5400
G1 X132.363 Y82.568 E111.8912 F2400
G0 X132.929 Y82.568 F5400
G1 X131.675 Y81.315 E111.9945 F2400
G0 X132.241 Y81.315 F5400
G1 X133.494 Y82.568 E112.0977 F2400
G0 X134.060 Y82.568 F5400
G1 X132.806 Y81.315 E112.2009 F2400
G0 X133.372 Y81.315 F5400
G1 X134.626 Y82.568 E112.3041 F2400
G0 X135.191 Y82.568 F5400
G1 X133.938 Y81.315 E112.4073 F2400
G0 X134.503 Y81.315 F5400
G1 X135.757 Y82.568 E112.5105 F2400
G0 X136.323 Y82.568 F5400
G1 X135.069 Y81.315 E112.6137 F2400
G0 X135.635 Y81.315 F5400
G1 X136.889 Y82.568 E112.7169 F2400
G0 X137.454 Y82.568 F5400
G1 X136.200 Y81.315 E112.8201 F2400
G0 X136.766 Y81.315 F5400
G1 X138.020 Y82.568 E112.9233 F2400
G0 X138.586 Y82.568 F5400
G1 X137.332 Y81.315 E113.0265 F2400
G0 X137.897 Y81.315 F5400
G1 X139.151 Y82.568 E113.1297 F2400
G0 X139.717 Y82.568 F5400
G1 X138.463 Y81.315 E113.2329 F2400
G0 X139.029 Y81.315 F5400
G1 X140.283 Y82.568 E113.3361 F2400
G0 X140.848 Y82.568 F5400
G1 X139.595 Y81.315 E113.4393 F2400
G0 X140.160 Y81.315 F5400
G1 X141.414 Y82.568 E113.5425 F2400
G0 X141.980 Y82.568 F5400
G1 X140.726 Y81.315 E113.6457 F2400
G0 X141.292 Y81.315 F5400
G1 X142.545 Y82.568 E113.7489 F2400
G0 X143.111 Y82.568 F5400
G1 X141.857 Y81.315 E113.8521 F2400
G0 X142.423 Y81.315 F5400
G1 X143.677 Y82.568 E113.9553 F2400
G0 X144.242 Y82.568 F5400
G1 X142.989 Y81.315 E114.0585 F2400
G0 X143.554 Y81.315 F5400
G1 X144.808 Y82.568 E114.1617 F2400
G0 X145.374 Y82.568 F5400
G1 X144.120 Y81.315 E114.2650 F2400
G0 X144.686 Y81.315 F5400
G1 X145.939 Y82.568 E114.3682 F2400
G0 X146.505 Y82.568 F5400
G1 X145.251 Y81.315 E114.4714 F2400
G0 X145.817 Y81.315 F5400
G1 X147.071 Y82.568 E114.5746 F2400
G0 X147.637 Y82.568 F5400
G1 X146.383 Y81.315 E114.6778 F2400
G0 X146.948 Y81.315 F5400
G1 X148.202 Y82.568 E114.7810 F2400
G0 X148.768 Y82.568 F5400
G1 X147.514 Y81.315 E114.8842 F2400
G0 X148.080 Y81.315 F5400
G1 X149.334 Y82.568 E114.9874 F2400
G0 X149.899 Y82.568 F5400
G1 X148.645 Y81.315 E115.0906 F2400
G0 X149.211 Y81.315 F5400
G1 X150.465 Y82.568 E115.1938 F2400
G0 X151.031 Y82.568 F5400
G1 X149.777 Y81.315 E115.2970 F2400
G0 X150.343 Y81.315 F5400
G1 X151.596 Y82.568 E115.4002 F2400
G0 X152.162 Y82.568 F5400
G1 X150.908 Y81.315 E115.5034 F2400
G0 X151.474 Y81.315 F5400
G1 X152.728 Y82.568 E115.6066 F2400
G0 X153.293 Y82.568 F5400
G1 X152.040 Y81.315 E115.7098 F2400
G0 X152.605 Y81.315 F5400
G1 X153.859 Y82.568 E115.8130 F2400
G0 X154.425 Y82.568 F5400
G1 X153.171 Y81.315 E115.9162 F2400
G0 X153.737 Y81.315 F5400
G1 X154.990 Y82.568 E116.0194 F2400
G0 X155.556 Y82.568 F5400
G1 X154.302 Y81.315 E116.1226 F2400
G0 X154.868 Y81.315 F5400
G1 X156.122 Y82.568 E116.2258 F2400
G0 X156.688 Y82.568 F5400
G1 X155.434 Y81.315 E116.3290 F2400
G0 X155.999 Y81.315 F5400
G1 X157.253 Y82.568 E116.4322 F2400
G0 X157.819 Y82.568 F5400
G1 X156.565 Y81.315 E116.5354 F2400
G0 X157.131 Y81.315 F5400
G1 X158.385 Y82.568 E116.6386 F2400
G0 X158.950 Y82.568 F5400
G1 X157.696 Y81.315 E116.7418 F2400
G0 X158.262 Y81.315 F5400
G1 X159.516 Y82.568 E116.8450 F2400
G0 X160.082 Y82.568 F5400
G1 X158.828 Y81.315 E116.9482 F2400
G0 X159.394 Y81.315 F5400
G1 X160.647 Y82.568 E117.0515 F2400
G0 X161.213 Y82.568 F5400
G1 X159.959 Y81.315 E117.1547 F2400
G0 X160.525 Y81.315 F5400
G1 X161.779 Y82.568 E117.2579 F2400
G0 X162.344 Y82.568 F5400
G1 X161.091 Y81.315 E117.3611 F2400
G0 X161.656 Y81.315 F5400
G1 X162.910 Y82.568 E117.4643 F2400
G0 X163.476 Y82.568 F5400
G1 X162.222 Y81.315 E117.5675 F2400
G0 X162.788 Y81.315 F5400
G1 X164.041 Y82.568 E117.6707 F2400
G0 X164.607 Y82.568 F5400
G1 X163.353 Y81.315 E117.7739 F2400
G0 X163.919 Y81.315 F5400
G1 X165.173 Y82.568 E117.8771 F2400
G0 X165.738 Y82.568 F5400
G1 X164.485 Y81.315 E117.9803 F2400
G0 X165.050 Y81.315 F5400
G1 X166.304 Y82.568 E118.0835 F2400
G0 X166.870 Y82.568 F5400
G1 X165.616 Y81.315 E118.1867 F2400
G0 X166.182 Y81.315 F5400
G1 X167.436 Y82.568 E118.2899 F2400
G0 X168.001 Y82.568 F5400
G1 X166.747 Y81.315 E118.3931 F2400
G0 X167.313 Y81.315 F5400
G1 X168.567 Y82.568 E118.4963 F2400
G0 X169.133 Y82.568 F5400
G1 X167.879 Y81.315 E118.5995 F2400
G0 X168.444 Y81.315 F5400
G1 X169.698 Y82.568 E118.7027 F2400
G0 X170.264 Y82.568 F5400
G1 X169.010 Y81.315 E118.8059 F2400
G0 X169.576 Y81.315 F5400
G1 X170.830 Y82.568 E118.9091 F2400
G0 X171.395 Y82.568 F5400
G1 X170.142 Y81.315 E119.0123 F2400
G0 X170.707 Y81.315 F5400
G1 X171.961 Y82.568 E119.1155 F2400
G0 X172.527 Y82.568 F5400
G1 X171.273 Y81.315 E119.2187 F2400
G0 X171.839 Y81.315 F5400
G1 X173.092 Y82.568 E119.3220 F2400
G0 X173.658 Y82.568 F5400
G1 X172.404 Y81.315 E119.4252 F2400
G0 X172.970 Y81.315 F5400
G1 X174.224 Y82.568 E119.5284 F2400
G0 X174.789 Y82.568 F5400
G1 X173.536 Y81.315 E119.6316 F2400
G0 X174.101 Y81.315 F5400
G1 X175.355 Y82.568 E119.7348 F2400
G0 X175.921 Y82.568 F5400
G1 X174.667 Y81.315 E119.8380 F2400
G0 X175.233 Y81.315 F5400
G1 X176.486 Y82.568 E119.9412 F2400
G0 X177.052 Y82.568 F5400
G1 X175.798 Y81.315 E120.0444 F2400
G0 X176.364 Y81.315 F5400
G1 X177.618 Y82.568 E120.1476 F2400
G0 X178.164 Y82.549 F5400
G1 X176.930 Y81.315 E120.2492 F2400
G0 X177.495 Y81.315 F5400
G1 X178.164 Y81.983 E120.3043 F2400
G0 F3000 E119.3043
G0 X162.937 Y78.410 F5400
G0 X160.399 Y77.814
G0 X157.862 Y77.218
G0 X135.021 Y71.858
G0 X132.483 Y71.262
G0 X129.946 Y70.666
G0 X109.643 Y65.901
G0 X107.105 Y65.306
G0 X104.567 Y64.710
G0 X102.030 Y64.114
G0 F3000 E120.3043
G1 X100.776 Y62.861 E120.4075 F2400
G0 X100.226 Y62.877 F5400
G1 X101.464 Y64.114 E120.5093 F2400
G0 X100.898 Y64.114 F5400
G1 X99.709 Y62.925 E120.6072 F2400
G0 X99.252 Y63.034 F5400
G1 X100.333 Y64.114 E120.6962 F2400
G0 X99.767 Y64.114 F5400
G1 X98.837 Y63.184 E120.7727 F2400
G0 X98.448 Y63.361 F5400
G1 X99.201 Y64.114 E120.8347 F2400
G0 X98.635 Y64.114 F5400
G1 X98.097 Y63.576 E120.8790 F2400
G0 X98.070 Y64.114 F5400
G1 X97.776 Y63.821 E120.9032 F2400
;segType:Perimeter
G0 X98.291 Y64.135 F5400
G1 X98.291 Y64.935 E120.9497 F1439
G1 X98.291 Y127.264 E124.5776
G1 X95.517 Y127.264 E124.7391
G1 X95.517 Y66.988 E128.2475
G1 X95.578 Y66.217 E128.2925
G1 X95.757 Y65.472 E128.3370
G1 X96.049 Y64.765 E128.3816
G1 X96.449 Y64.112 E128.4262
G1 X96.947 Y63.530 E128.4707
G1 X97.529 Y63.033 E128.5153
G1 X98.182 Y62.633 E128.5598
G1 X98.889 Y62.340 E128.6044
G1 X99.633 Y62.161 E128.6490
G1 X100.403 Y62.100 E128.6939
G1 X160.681 Y62.100 E132.2024
G1 X160.681 Y64.874 E132.3638
G1 X98.351 Y64.874 E135.9917
G0 X97.551 Y64.874 F5400
;segType:Loop
G0 X97.891 Y65.975
G1 X97.891 Y126.864 E139.5358 F2400
G1 X95.917 Y126.864 E139.6507
G1 X95.917 Y67.004 E143.1349
G1 X95.974 Y66.279 E143.1772
G1 X96.138 Y65.596 E143.2181
G1 X96.407 Y64.947 E143.2590
G1 X96.774 Y64.348 E143.2999
G1 X97.231 Y63.814 E143.3408
G1 X97.765 Y63.357 E143.3817
G1 X98.364 Y62.991 E143.4226
G1 X99.013 Y62.721 E143.4635
G1 X99.696 Y62.557 E143.5044
G1 X100.419 Y62.500 E143.5465
G1 X160.281 Y62.500 E147.0308
G1 X160.281 Y64.475 E147.1457
G1 X97.891 Y64.475 E150.7771
G1 X97.891 Y65.775 E150.8528
;segType:HShell
G0 X97.432 Y64.325 F5400
G1 X97.252 Y64.993 E150.8796 F2400
G0 X97.531 Y65.838 F5400
G1 X96.757 Y65.065 E150.9433 F2400
G0 X96.585 Y65.458 F5400
G1 X97.531 Y66.404 E151.0212 F2400
G0 X97.531 Y66.970 F5400
G1 X96.441 Y65.879 E151.1109 F2400
G0 X96.331 Y66.336 F5400
G1 X97.531 Y67.535 E151.2097 F2400
G0 X97.531 Y68.101 F5400
G1 X96.290 Y66.860 E151.3119 F2400
G0 X96.277 Y67.413 F5400
G1 X97.531 Y68.667 E151.4151 F2400
G0 X97.531 Y69.232 F5400
G1 X96.277 Y67.979 E151.5183 F2400
G0 X96.277 Y68.544 F5400
G1 X97.531 Y69.798 E151.6215 F2400
G0 X97.531 Y70.364 F5400
G1 X96.277 Y69.110 E151.7247 F2400
G0 X96.277 Y69.676 F5400
G1 X97.531 Y70.930 E151.8279 F2400
G0 X97.531 Y71.495 F5400
G1 X96.277 Y70.241 E151.9311 F2400
G0 X96.277 Y70.807 F5400
G1 X97.531 Y72.061 E152.0344 F2400
G0 X97.531 Y72.627 F5400
G1 X96.277 Y71.373 E152.1376 F2400
G0 X96.277 Y71.938 F5400
G1 X97.531 Y73.192 E152.2408 F2400
G0 X97.531 Y73.758 F5400
G1 X96.277 Y72.504 E152.3440 F2400
G0 X96.277 Y73.070 F5400
G1 X97.531 Y74.324 E152.4472 F2400
G0 X97.531 Y74.889 F5400
G1 X96.277 Y73.636 E152.5504 F2400
G0 X96.277 Y74.201 F5400
G1 X97.531 Y75.455 E152.6536 F2400
G0 X97.531 Y76.021 F5400
G1 X96.277 Y74.767 E152.7568 F2400
G0 X96.277 Y75.333 F5400
G1 X97.531 Y76.586 E152.8600 F2400
G0 X97.531 Y77.152 F5400
G1 X96.277 Y75.898 E152.9632 F2400
G0 X96.277 Y76.464 F5400
G1 X97.531 Y77.718 E153.0665 F2400
G0 X97.531 Y78.283 F5400
G1 X96.277 Y77.030 E153.1697 F2400
G0 X96.277 Y77.595 F5400
G1 X97.531 Y78.849 E153.2729 F2400
G0 X97.531 Y79.415 F5400
G1 X96.277 Y78.161 E153.3761 F2400
G0 X96.277 Y78.727 F5400
G1 X97.531 Y79.981 E153.4793 F2400
G0 X97.531 Y80.546 F5400
G1 X96.277 Y79.292 E153.5825 F2400
G0 X96.277 Y79.858 F5400
G1 X97.531 Y81.112 E153.6857 F2400
G0 X97.531 Y81.678 F5400
G1 X96.277 Y80.424 E153.7889 F2400
G0 X96.277 Y80.989 F5400
G1 X97.531 Y82.243 E153.8921 F2400
G0 X97.531 Y82.809 F5400
G1 X96.277 Y81.555 E153.9954 F2400
G0 X96.277 Y82.121 F5400
G1 X97.531 Y83.375 E154.0986 F2400
G0 X97.531 Y83.940 F5400
G1 X96.277 Y82.687 E154.2018 F2400
G0 X96.277 Y83.252 F5400
G1 X97.531 Y84.506 E154.3050 F2400
G0 X97.531 Y85.072 F5400
G1 X96.277 Y83.818 E154.4082 F2400
G0 X96.277 Y84.384 F5400
G1 X97.531 Y85.637 E154.5114 F2400
G0 X97.531 Y86.203 F5400
G1 X96.277 Y84.949 E154.6146 F2400
G0 X96.277 Y85.515 F5400
G1 X97.531 Y86.769 E154.7178 F2400
G0 X97.531 Y87.334 F5400
G1 X96.277 Y86.081 E154.8210 F2400
G0 X96.277 Y86.646 F5400
G1 X97.531 Y87.900 E154.9242 F2400
G0 X97.531 Y88.466 F5400
G1 X96.277 Y87.212 E155.0275 F2400
G0 X96.277 Y87.778 F5400
G1 X97.531 Y89.032 E155.1307 F2400
G0 X97.531 Y89.597 F5400
G1 X96.277 Y88.343 E155.2339 F2400
G0 X96.277 Y88.909 F5400
G1 X97.531 Y90.163 E155.3371 F2400
G0 X97.531 Y90.729 F5400
G1 X96.277 Y89.475 E155.4403 F2400
G0 X96.277 Y90.040 F5400
G1 X97.531 Y91.294 E155.5435 F2400
G0 X97.531 Y91.860 F5400
G1 X96.277 Y90.606 E155.6467 F2400
G0 X96.277 Y91.172 F5400
G1 X97.531 Y92.426 E155.7499 F2400
G0 X97.531 Y92.991 F5400
G1 X96.277 Y91.738 E155.8531 F2400
G0 X96.277 Y92.303 F5400
G1 X97.531 Y93.557 E155.9564 F2400
G0 X97.531 Y94.123 F5400
G1 X96.277 Y92.869 E156.0596 F2400
G0 X96.277 Y93.435 F5400
G1 X97.531 Y94.688 E156.1628 F2400
G0 X97.531 Y95.254 F5400
G1 X96.277 Y94.000 E156.2660 F2400
G0 X96.277 Y94.566 F5400
G1 X97.531 Y95.820 E156.3692 F2400
G0 X97.531 Y96.385 F5400
G1 X96.277 Y95.132 E156.4724 F2400
G0 X96.277 Y95.697 F5400
G1 X97.531 Y96.951 E156.5756 F2400
G0 X97.531 Y97.517 F5400
G1 X96.277 Y96.263 E156.6788 F2400
G0 X96.277 Y96.829 F5400
G1 X97.531 Y98.082 E156.7820 F2400
G0 X97.531 Y98.648 F5400
G1 X96.277 Y97.394 E156.8852 F2400
G0 X96.277 Y97.960 F5400
G1 X97.531 Y99.214 E156.9885 F2400
G0 X97.531 Y99.780 F5400
G1 X96.277 Y98.526 E157.0917 F2400
G0 X96.277 Y99.091 F5400
G1 X97.531 Y100.345 E157.1949 F2400
G0 X97.531 Y100.911 F5400
G1 X96.277 Y99.657 E157.2981 F2400
G0 X96.277 Y100.223 F5400
G1 X97.531 Y101.477 E157.4013 F2400
G0 X97.531 Y102.042 F5400
G1 X96.277 Y100.789 E157.5045 F2400
G0 X96.277 Y101.354 F5400
G1 X97.531 Y102.608 E157.6077 F2400
G0 X97.531 Y103.174 F5400
G1 X96.277 Y101.920 E157.7109 F2400
G0 X96.277 Y102.486 F5400
G1 X97.531 Y103.739 E157.8141 F2400
G0 X97.531 Y104.305 F5400
G1 X96.277 Y103.051 E157.9173 F2400
G0 X96.277 Y103.617 F5400
G1 X97.531 Y104.871 E158.0206 F2400
G0 X97.531 Y105.436 F5400
G1 X96.277 Y104.183 E158.1238 F2400
G0 X96.277 Y104.748 F5400
G1 X97.531 Y106.002 E158.2270 F2400
G0 X97.531 Y106.568 F5400
G1 X96.277 Y105.314 E158.3302 F2400
G0 X96.277 Y105.880 F5400
G1 X97.531 Y107.133 E158.4334 F2400
G0 X97.531 Y107.699 F5400
G1 X96.277 Y106.445 E158.5366 F2400
G0 X96.277 Y107.011 F5400
G1 X97.531 Y108.265 E158.6398 F2400
G0 X97.531 Y108.831 F5400
G1 X96.277 Y107.577 E158.7430 F2400
G0 X96.277 Y108.142 F5400
G1 X97.531 Y109.396 E158.8462 F2400
G0 X97.531 Y109.962 F5400
G1 X96.277 Y108.708 E158.9495 F2400
G0 X96.277 Y109.274 F5400
G1 X97.531 Y110.528 E159.0527 F2400
G0 X97.531 Y111.093 F5400
G1 X96.277 Y109.839 E159.1559 F2400
G0 X96.277 Y110.405 F5400
G1 X97.531 Y111.659 E159.2591 F2400
G0 X97.531 Y112.225 F5400
G1 X96.277 Y110.971 E159.3623 F2400
G0 X96.277 Y111.537 F5400
G1 X97.531 Y112.790 E159.4655 F2400
G0 X97.531 Y113.356 F5400
G1 X96.277 Y112.102 E159.5687 F2400
G0 X96.277 Y112.668 F5400
G1 X97.531 Y113.922 E159.6719 F2400
G0 X97.531 Y114.487 F5400
G1 X96.277 Y113.234 E159.7751 F2400
G0 X96.277 Y113.799 F5400
G1 X97.531 Y115.053 E159.8783 F2400
G0 X97.531 Y115.619 F5400
G1 X96.277 Y114.365 E159.9816 F2400
G0 X96.277 Y114.931 F5400
G1 X97.531 Y116.184 E160.0848 F2400
G0 X97.531 Y116.750 F5400
G1 X96.277 Y115.496 E160.1880 F2400
G0 X96.277 Y116.062 F5400
G1 X97.531 Y117.316 E160.2912 F2400
G0 X97.531 Y117.882 F5400
G1 X96.277 Y116.628 E160.3944 F2400
G0 X96.277 Y117.193 F5400
G1 X97.531 Y118.447 E160.4976 F2400
G0 X97.531 Y119.013 F5400
G1 X96.277 Y117.759 E160.6008 F2400
G0 X96.277 Y118.325 F5400
G1 X97.531 Y119.579 E160.7040 F2400
G0 X97.531 Y120.144 F5400
G1 X96.277 Y118.890 E160.8072 F2400
G0 X96.277 Y119.456 F5400
G1 X97.531 Y120.710 E160.9105 F2400
G0 X97.531 Y121.276 F5400
G1 X96.277 Y120.022 E161.0137 F2400
G0 X96.277 Y120.588 F5400
G1 X97.531 Y121.841 E161.1169 F2400
G0 X97.531 Y122.407 F5400
G1 X96.277 Y121.153 E161.2201 F2400
G0 X96.277 Y121.719 F5400
G1 X97.531 Y122.973 E161.3233 F2400
G0 X97.531 Y123.538 F5400
G1 X96.277 Y122.285 E161.4265 F2400
G0 X96.277 Y122.850 F5400
G1 X97.531 Y124.104 E161.5297 F2400
G0 X97.531 Y124.670 F5400
G1 X96.277 Y123.416 E161.6329 F2400
G0 X96.277 Y123.982 F5400
G1 X97.531 Y125.235 E161.7361 F2400
G0 X97.531 Y125.801 F5400
G1 X96.277 Y124.547 E161.8393 F2400
G0 X96.277 Y125.113 F5400
G1 X97.531 Y126.367 E161.9426 F2400
G0 X97.102 Y126.504 F5400
G1 X96.277 Y125.679 E162.0105 F2400
G0 X97.891 Y105.659 F5400
G0 X97.891 Y64.475
G0 X101.211 Y64.475
G0 X101.211 Y64.475
G0 X101.343 Y62.847
G0 X101.342 Y62.861
G1 X102.595 Y64.114 E162.1137 F2400
G0 X103.161 Y64.114 F5400
G1 X101.907 Y62.861 E162.2169 F2400
G0 X102.473 Y62.861 F5400
G1 X103.727 Y64.114 E162.3201 F2400
G0 X104.292 Y64.114 F5400
G1 X103.039 Y62.861 E162.4233 F2400
G0 X103.604 Y62.861 F5400
G1 X104.858 Y64.114 E162.5265 F2400
G0 X105.424 Y64.114 F5400
G1 X104.170 Y62.861 E162.6297 F2400
G0 X104.736 Y62.861 F5400
G1 X105.989 Y64.114 E162.7329 F2400
G0 X106.555 Y64.114 F5400
G1 X105.301 Y62.861 E162.8362 F2400
G0 X105.867 Y62.861 F5400
G1 X107.121 Y64.114 E162.9394 F2400
G0 X107.686 Y64.114 F5400
G1 X106.433 Y62.861 E163.0426 F2400
G0 X106.998 Y62.861 F5400
G1 X108.252 Y64.114 E163.1458 F2400
G0 X108.818 Y64.114 F5400
G1 X107.564 Y62.861 E163.2490 F2400
G0 X108.130 Y62.861 F5400
G1 X109.384 Y64.114 E163.3522 F2400
G0 X109.949 Y64.114 F5400
G1 X108.695 Y62.861 E163.4554 F2400
G0 X109.261 Y62.861 F5400
G1 X110.515 Y64.114 E163.5586 F2400
G0 X111.081 Y64.114 F5400
G1 X109.827 Y62.861 E163.6618 F2400
G0 X110.392 Y62.861 F5400
G1 X111.646 Y64.114 E163.7651 F2400
G0 X112.212 Y64.114 F5400
G1 X110.958 Y62.861 E163.8683 F2400
G0 X111.524 Y62.861 F5400
G1 X112.778 Y64.114 E163.9715 F2400
G0 X113.343 Y64.114 F5400
G1 X112.090 Y62.861 E164.0747 F2400
G0 X112.655 Y62.861 F5400
G1 X113.909 Y64.114 E164.1779 F2400
G0 X114.475 Y64.114 F5400
G1 X113.221 Y62.861 E164.2811 F2400
G0 X113.787 Y62.861 F5400
G1 X115.040 Y64.114 E164.3843 F2400
G0 X115.606 Y64.114 F5400
G1 X114.352 Y62.861 E164.4875 F2400
G0 X114.918 Y62.861 F5400
G1 X116.172 Y64.114 E164.5907 F2400
G0 X116.737 Y64.114 F5400
G1 X115.484 Y62.861 E164.6939 F2400
G0 X116.049 Y62.861 F5400
G1 X117.303 Y64.114 E164.7972 F2400
G0 X117.869 Y64.114 F5400
G1 X116.615 Y62.861 E164.9004 F2400
G0 X117.181 Y62.861 F5400
G1 X118.435 Y64.114 E165.0036 F2400
G0 X119.000 Y64.114 F5400
G1 X117.746 Y62.861 E165.1068 F2400
G0 X118.312 Y62.861 F5400
G1 X119.566 Y64.114 E165.2100 F2400
G0 X120.132 Y64.114 F5400
G1 X118.878 Y62.861 E165.3132 F2400
G0 X119.443 Y62.861 F5400
G1 X120.697 Y64.114 E165.4164 F2400
G0 X121.263 Y64.114 F5400
G1 X120.009 Y62.861 E165.5196 F2400
G0 X120.575 Y62.861 F5400
G1 X121.829 Y64.114 E165.6228 F2400
G0 X122.394 Y64.114 F5400
G1 X121.141 Y62.861 E165.7260 F2400
G0 X121.706 Y62.861 F5400
G1 X122.960 Y64.114 E165.8293 F2400
G0 X123.526 Y64.114 F5400
G1 X122.272 Y62.861 E165.9325 F2400
G0 X122.838 Y62.861 F5400
G1 X124.091 Y64.114 E166.0357 F2400
G0 X124.657 Y64.114 F5400
G1 X123.403 Y62.861 E166.1389 F2400
G0 X123.969 Y62.861 F5400
G1 X125.223 Y64.114 E166.2421 F2400
G0 X125.788 Y64.114 F5400
G1 X124.535 Y62.861 E166.3453 F2400
G0 X125.100 Y62.861 F5400
G1 X126.354 Y64.114 E166.4485 F2400
G0 X126.920 Y64.114 F5400
G1 X125.666 Y62.861 E166.5517 F2400
G0 X126.232 Y62.861 F5400
G1 X127.486 Y64.114 E166.6549 F2400
G0 X128.051 Y64.114 F5400
G1 X126.797 Y62.861 E166.7582 F2400
G0 X127.363 Y62.861 F5400
G1 X128.617 Y64.114 E166.8614 F2400
G0 X129.183 Y64.114 F5400
G1 X127.929 Y62.861 E166.9646 F2400
G0 X128.494 Y62.861 F5400
G1 X129.748 Y64.114 E167.0678 F2400
G0 X130.314 Y64.114 F5400
G1 X129.060 Y62.861 E167.1710 F2400
G0 X129.626 Y62.861 F5400
G1 X130.880 Y64.114 E167.2742 F2400
G0 X131.445 Y64.114 F5400
G1 X130.192 Y62.861 E167.3774 F2400
G0 X130.757 Y62.861 F5400
G1 X132.011 Y64.114 E167.4806 F2400
G0 X132.577 Y64.114 F5400
G1 X131.323 Y62.861 E167.5838 F2400
G0 X131.889 Y62.861 F5400
G1 X133.142 Y64.114 E167.6870 F2400
G0 X133.708 Y64.114 F5400
G1 X132.454 Y62.861 E167.7903 F2400
G0 X133.020 Y62.861 F5400
G1 X134.274 Y64.114 E167.8935 F2400
G0 X134.839 Y64.114 F5400
G1 X133.586 Y62.861 E167.9967 F2400
G0 X134.151 Y62.861 F5400
G1 X135.405 Y64.114 E168.0999 F2400
G0 X135.971 Y64.114 F5400
G1 X134.717 Y62.861 E168.2031 F2400
G0 X135.283 Y62.861 F5400
G1 X136.537 Y64.114 E168.3063 F2400
G0 X137.102 Y64.114 F5400
G1 X135.848 Y62.861 E168.4095 F2400
G0 X136.414 Y62.861 F5400
G1 X137.668 Y64.114 E168.5127 F2400
G0 X138.234 Y64.114 F5400
G1 X136.980 Y62.861 E168.6159 F2400
G0 X137.545 Y62.861 F5400
G1 X138.799 Y64.114 E168.7192 F2400
G0 X139.365 Y64.114 F5400
G1 X138.111 Y62.861 E168.8224 F2400
G0 X138.677 Y62.861 F5400
G1 X139.931 Y64.114 E168.9256 F2400
G0 X140.496 Y64.114 F5400
G1 X139.243 Y62.861 E169.0288 F2400
G0 X139.808 Y62.861 F5400
G1 X141.062 Y64.114 E169.1320 F2400
G0 X141.628 Y64.114 F5400
G1 X140.374 Y62.861 E169.2352 F2400
G0 X140.940 Y62.861 F5400
G1 X142.193 Y64.114 E169.3384 F2400
G0 X142.759 Y64.114 F5400
G1 X141.505 Y62.861 E169.4416 F2400
G0 X142.071 Y62.861 F5400
G1 X143.325 Y64.114 E169.5448 F2400
G0 X143.890 Y64.114 F5400
G1 X142.637 Y62.861 E169.6480 F2400
G0 X143.202 Y62.861 F5400
G1 X144.456 Y64.114 E169.7513 F2400
G0 X145.022 Y64.114 F5400
G1 X143.768 Y62.861 E169.8545 F2400
G0 X144.334 Y62.861 F5400
G1 X145.587 Y64.114 E169.9577 F2400
G0 X146.153 Y64.114 F5400
G1 X144.899 Y62.861 E170.0609 F2400
G0 X145.465 Y62.861 F5400
G1 X146.719 Y64.114 E170.1641 F2400
G0 X147.285 Y64.114 F5400
G1 X146.031 Y62.861 E170.2673 F2400
G0 X146.596 Y62.861 F5400
G1 X147.850 Y64.114 E170.3705 F2400
G0 X148.416 Y64.114 F5400
G1 X147.162 Y62.861 E170.4737 F2400
G0 X147.728 Y62.861 F5400
G1 X148.982 Y64.114 E170.5769 F2400
G0 X149.547 Y64.114 F5400
G1 X148.293 Y62.861 E170.6802 F2400
G0 X148.859 Y62.861 F5400
G1 X150.113 Y64.114 E170.7834 F2400
G0 X150.679 Y64.114 F5400
G1 X149.425 Y62.861 E170.8866 F2400
G0 X149.991 Y62.861 F5400
G1 X151.244 Y64.114 E170.9898 F2400
G0 X151.810 Y64.114 F5400
G1 X150.556 Y62.861 E171.0930 F2400
G0 X151.122 Y62.861 F5400
G1 X152.376 Y64.114 E171.1962 F2400
G0 X152.941 Y64.114 F5400
G1 X151.688 Y62.861 E171.2994 F2400
G0 X152.253 Y62.861 F5400
G1 X153.507 Y64.114 E171.4026 F2400
G0 X154.073 Y64.114 F5400
G1 X152.819 Y62.861 E171.5058 F2400
G0 X153.385 Y62.861 F5400
G1 X154.638 Y64.114 E171.6090 F2400
G0 X155.204 Y64.114 F5400
G1 X153.950 Y62.861 E171.7123 F2400
G0 X154.516 Y62.861 F5400
G1 X155.770 Y64.114 E171.8155 F2400
G0 X156.336 Y64.114 F5400
G1 X155.082 Y62.861 E171.9187 F2400
G0 X155.647 Y62.861 F5400
G1 X156.901 Y64.114 E172.0219 F2400
G0 X157.467 Y64.114 F5400
G1 X156.213 Y62.861 E172.1251 F2400
G0 X156.779 Y62.861 F5400
G1 X158.033 Y64.114 E172.2283 F2400
G0 X158.598 Y64.114 F5400
G1 X157.344 Y62.861 E172.3315 F2400
G0 X157.910 Y62.861 F5400
G1 X159.164 Y64.114 E172.4347 F2400
G0 X159.730 Y64.114 F5400
G1 X158.476 Y62.861 E172.5379 F2400
G0 X159.042 Y62.861 F5400
G1 X159.921 Y63.740 E172.6103 F2400
G0 X159.921 Y63.174 F5400
G1 X159.607 Y62.861 E172.6361 F2400
G0 F3000 E171.6361
G0 X107.693 Y69.212 F5400
G0 F3000 E172.6361
G1 X108.947 Y70.466 E172.7393 F2400
G0 X108.381 Y70.466 F5400
G1 X107.127 Y69.212 E172.8425 F2400
G0 X106.596 Y69.246 F5400
G1 X107.815 Y70.466 E172.9429 F2400
G0 X107.250 Y70.466 F5400
G1 X106.107 Y69.323 E173.0370 F2400
G0 X105.660 Y69.442 F5400
G1 X106.684 Y70.466 E173.1213 F2400
G0 X106.118 Y70.466 F5400
G1 X105.260 Y69.607 E173.1920 F2400
G0 X104.892 Y69.806 F5400
G1 X105.553 Y70.466 E173.2463 F2400
G0 X104.987 Y70.466 F5400
G1 X104.546 Y70.024 E173.2827 F2400
;segType:Perimeter
G0 X104.887 Y70.486 F5400
G1 X104.887 Y71.286 E173.3292 F1439
G1 X104.887 Y133.615 E176.9571
G1 X102.113 Y133.615 E177.1186
G1 X102.113 Y73.339 E180.6270
G1 X102.174 Y72.568 E180.6720
G1 X102.353 Y71.824 E180.7166
G1 X102.646 Y71.116 E180.7611
G1 X103.046 Y70.463 E180.8057
G1 X103.543 Y69.881 E180.8503
G1 X104.124 Y69.385 E180.8947
G1 X104.778 Y68.984 E180.9394
G1 X105.485 Y68.691 E180.9840
G1 X106.230 Y68.512 E181.0285
G1 X107.001 Y68.452 E181.0735
G1 X167.277 Y68.452 E184.5819
G1 X167.277 Y71.226 E184.7434
G1 X104.947 Y71.226 E188.3713
G0 X104.147 Y71.226 F5400
;segType:Loop
G0 X104.487 Y72.326
G1 X104.487 Y133.215 E191.9154 F2400
G1 X102.513 Y133.215 E192.0303
G1 X102.513 Y73.355 E195.5145
G1 X102.570 Y72.631 E195.5567
G1 X102.734 Y71.948 E195.5976
G1 X103.003 Y71.298 E195.6385
G1 X103.370 Y70.699 E195.6794
G1 X103.826 Y70.165 E195.7203
G1 X104.360 Y69.710 E195.7611
G1 X104.960 Y69.342 E195.8021
G1 X105.609 Y69.073 E195.8430
G1 X106.292 Y68.909 E195.8839
G1 X107.016 Y68.852 E195.9262
G1 X166.877 Y68.852 E199.4104
G1 X166.877 Y70.826 E199.5253
G1 X104.487 Y70.826 E203.1567
G1 X104.487 Y72.126 E203.2324
;segType:HShell
G0 X104.127 Y71.303 F5400
G1 X103.696 Y70.872 E203.2678 F2400
G0 X103.475 Y71.217 F5400
G1 X104.127 Y71.869 E203.3215 F2400
G0 X104.127 Y72.435 F5400
G1 X103.275 Y71.583 E203.3916 F2400
G0 X103.110 Y71.983 F5400
G1 X104.127 Y73.000 E203.4754 F2400
G0 X104.127 Y73.566 F5400
G1 X102.989 Y72.428 E203.5691 F2400
G0 X102.909 Y72.914 F5400
G1 X104.127 Y74.132 E203.6693 F2400
G0 X104.127 Y74.697 F5400
G1 X102.873 Y73.444 E203.7725 F2400
G0 X102.873 Y74.009 F5400
G1 X104.127 Y75.263 E203.8758 F2400
G0 X104.127 Y75.829 F5400
G1 X102.873 Y74.575 E203.9790 F2400
G0 X102.873 Y75.141 F5400
G1 X104.127 Y76.394 E204.0822 F2400
G0 X104.127 Y76.960 F5400
G1 X102.873 Y75.706 E204.1854 F2400
G0 X102.873 Y76.272 F5400
G1 X104.127 Y77.526 E204.2886 F2400
G0 X104.127 Y78.091 F5400
G1 X102.873 Y76.838 E204.3918 F2400
G0 X102.873 Y77.403 F5400
G1 X104.127 Y78.657 E204.4950 F2400
G0 X104.127 Y79.223 F5400
G1 X102.873 Y77.969 E204.5982 F2400
G0 X102.873 Y78.535 F5400
G1 X104.127 Y79.788 E204.7014 F2400
G0 X104.127 Y80.354 F5400
G1 X102.873 Y79.100 E204.8046 F2400
G0 X102.873 Y79.666 F5400
G1 X104.127 Y80.920 E204.9079 F2400
G0 X104.127 Y81.486 F5400
G1 X102.873 Y80.232 E205.0111 F2400
G0 X102.873 Y80.797 F5400
G1 X104.127 Y82.051 E205.1143 F2400
G0 X104.127 Y82.617 F5400
G1 X102.873 Y81.363 E205.2175 F2400
G0 X102.873 Y81.929 F5400
G1 X104.127 Y83.183 E205.3207 F2400
G0 X104.127 Y83.748 F5400
G1 X102.873 Y82.494 E205.4239 F2400
G0 X102.873 Y83.060 F5400
G1 X104.127 Y84.314 E205.5271 F2400
G0 X104.127 Y84.880 F5400
G1 X102.873 Y83.626 E205.6303 F2400
G0 X102.873 Y84.192 F5400
G1 X104.127 Y85.445 E205.7335 F2400
G0 X104.127 Y86.011 F5400
G1 X102.873 Y84.757 E205.8368 F2400
G0 X102.873 Y85.323 F5400
G1 X104.127 Y86.577 E205.9400 F2400
G0 X104.127 Y87.142 F5400
G1 X102.873 Y85.889 E206.0432 F2400
G0 X102.873 Y86.454 F5400
G1 X104.127 Y87.708 E206.1464 F2400
G0 X104.127 Y88.274 F5400
G1 X102.873 Y87.020 E206.2496 F2400
G0 X102.873 Y87.586 F5400
G1 X104.127 Y88.839 E206.3528 F2400
G0 X104.127 Y89.405 F5400
G1 X102.873 Y88.151 E206.4560 F2400
G0 X102.874 Y88.717 F5400
G1 X104.127 Y89.971 E206.5592 F2400
G0 X104.127 Y90.537 F5400
G1 X102.873 Y89.283 E206.6624 F2400
G0 X102.874 Y89.848 F5400
G1 X104.127 Y91.102 E206.7656 F2400
G0 X104.127 Y91.668 F5400
G1 X102.874 Y90.414 E206.8689 F2400
G0 X102.874 Y90.980 F5400
G1 X104.127 Y92.234 E206.9721 F2400
G0 X104.127 Y92.799 F5400
G1 X102.874 Y91.545 E207.0753 F2400
G0 X102.874 Y92.111 F5400
G1 X104.127 Y93.365 E207.1785 F2400
G0 X104.127 Y93.931 F5400
G1 X102.874 Y92.677 E207.2817 F2400
G0 X102.874 Y93.243 F5400
G1 X104.127 Y94.496 E207.3849 F2400
G0 X104.127 Y95.062 F5400
G1 X102.874 Y93.808 E207.4881 F2400
G0 X102.874 Y94.374 F5400
G1 X104.127 Y95.628 E207.5913 F2400
G0 X104.127 Y96.193 F5400
G1 X102.874 Y94.940 E207.6945 F2400
G0 X102.874 Y95.505 F5400
G1 X104.127 Y96.759 E207.7978 F2400
G0 X104.127 Y97.325 F5400
G1 X102.874 Y96.071 E207.9010 F2400
G0 X102.874 Y96.637 F5400
G1 X104.127 Y97.890 E208.0042 F2400
G0 X104.127 Y98.456 F5400
G1 X102.874 Y97.202 E208.1074 F2400
G0 X102.874 Y97.768 F5400
G1 X104.127 Y99.022 E208.2106 F2400
G0 X104.127 Y99.588 F5400
G1 X102.874 Y98.334 E208.3138 F2400
G0 X102.874 Y98.899 F5400
G1 X104.127 Y100.153 E208.4170 F2400
G0 X104.127 Y100.719 F5400
G1 X102.874 Y99.465 E208.5202 F2400
G0 X102.874 Y100.031 F5400
G1 X104.127 Y101.285 E208.6234 F2400
G0 X104.127 Y101.850 F5400
G1 X102.874 Y100.596 E208.7266 F2400
G0 X102.874 Y101.162 F5400
G1 X104.127 Y102.416 E208.8299 F2400
G0 X104.127 Y102.982 F5400
G1 X102.874 Y101.728 E208.9331 F2400
G0 X102.874 Y102.294 F5400
G1 X104.127 Y103.547 E209.0363 F2400
G0 X104.127 Y104.113 F5400
G1 X102.874 Y102.859 E209.1395 F2400
G0 X102.874 Y103.425 F5400
G1 X104.127 Y104.679 E209.2427 F2400
G0 X104.127 Y105.244 F5400
G1 X102.874 Y103.991 E209.3459 F2400
G0 X102.874 Y104.556 F5400
G1 X104.127 Y105.810 E209.4491 F2400
G0 X104.127 Y106.376 F5400
G1 X102.874 Y105.122 E209.5523 F2400
G0 X102.874 Y105.688 F5400
G1 X104.127 Y106.941 E209.6555 F2400
G0 X104.127 Y107.507 F5400
G1 X102.874 Y106.253 E209.7588 F2400
G0 X102.874 Y106.819 F5400
G1 X104.127 Y108.073 E209.8620 F2400
G0 X104.127 Y108.638 F5400
G1 X102.874 Y107.385 E209.9652 F2400
G0 X102.874 Y107.950 F5400
G1 X104.127 Y109.204 E210.0684 F2400
G0 X104.127 Y109.770 F5400
G1 X102.874 Y108.516 E210.1716 F2400
G0 X102.874 Y109.082 F5400
G1 X104.127 Y110.336 E210.2748 F2400
G0 X104.127 Y110.901 F5400
G1 X102.874 Y109.647 E210.3780 F2400
G0 X102.874 Y110.213 F5400
G1 X104.127 Y111.467 E210.4812 F2400
G0 X104.127 Y112.033 F5400
G1 X102.874 Y110.779 E210.5844 F2400
G0 X102.874 Y111.345 F5400
G1 X104.127 Y112.598 E210.6876 F2400
G0 X104.127 Y113.164 F5400
G1 X102.874 Y111.910 E210.7909 F2400
G0 X102.874 Y112.476 F5400
G1 X104.127 Y113.730 E210.8941 F2400
G0 X104.127 Y114.295 F5400
G1 X102.874 Y113.042 E210.9973 F2400
G0 X102.874 Y113.607 F5400
G1 X104.127 Y114.861 E211.1005 F2400
G0 X104.127 Y115.427 F5400
G1 X102.874 Y114.173 E211.2037 F2400
G0 X102.874 Y114.739 F5400
G1 X104.127 Y115.992 E211.3069 F2400
G0 X104.127 Y116.558 F5400
G1 X102.874 Y115.304 E211.4101 F2400
G0 X102.874 Y115.870 F5400
G1 X104.127 Y117.124 E211.5133 F2400
G0 X104.127 Y117.689 F5400
G1 X102.874 Y116.436 E211.6165 F2400
G0 X102.874 Y117.001 F5400
G1 X104.127 Y118.255 E211.7198 F2400
G0 X104.127 Y118.821 F5400
G1 X102.874 Y117.567 E211.8230 F2400
G0 X102.874 Y118.133 F5400
G1 X104.127 Y119.387 E211.9262 F2400
G0 X104.127 Y119.952 F5400
G1 X102.874 Y118.698 E212.0294 F2400
G0 X102.874 Y119.264 F5400
G1 X104.127 Y120.518 E212.1326 F2400
G0 X104.127 Y121.084 F5400
G1 X102.874 Y119.830 E212.2358 F2400
G0 X102.874 Y120.395 F5400
G1 X104.127 Y121.649 E212.3390 F2400
G0 X104.127 Y122.215 F5400
G1 X102.874 Y120.961 E212.4422 F2400
G0 X102.874 Y121.527 F5400
G1 X104.127 Y122.781 E212.5454 F2400
G0 X104.127 Y123.346 F5400
G1 X102.874 Y122.093 E212.6486 F2400
G0 X102.874 Y122.658 F5400
G1 X104.127 Y123.912 E212.7519 F2400
G0 X104.127 Y124.478 F5400
G1 X102.874 Y123.224 E212.8551 F2400
G0 X102.874 Y123.790 F5400
G1 X104.127 Y125.043 E212.9583 F2400
G0 X104.127 Y125.609 F5400
G1 X102.874 Y124.355 E213.0615 F2400
G0 X102.874 Y124.921 F5400
G1 X104.127 Y126.175 E213.1647 F2400
G0 X104.127 Y126.740 F5400
G1 X102.874 Y125.487 E213.2679 F2400
G0 X102.874 Y126.052 F5400
G1 X104.127 Y127.306 E213.3711 F2400
G0 X104.127 Y127.872 F5400
G1 X102.874 Y126.618 E213.4743 F2400
G0 X102.874 Y127.184 F5400
G1 X104.127 Y128.437 E213.5775 F2400
G0 X104.127 Y129.003 F5400
G1 X102.874 Y127.749 E213.6808 F2400
G0 X102.874 Y128.315 F5400
G1 X104.127 Y129.569 E213.7840 F2400
G0 X104.127 Y130.135 F5400
G1 X102.874 Y128.881 E213.8872 F2400
G0 X102.874 Y129.446 F5400
G1 X104.127 Y130.700 E213.9904 F2400
G0 X104.127 Y131.266 F5400
G1 X102.874 Y130.012 E214.0936 F2400
G0 X102.874 Y130.578 F5400
G1 X104.127 Y131.832 E214.1968 F2400
G0 X104.127 Y132.397 F5400
G1 X102.874 Y131.143 E214.3000 F2400
G0 X102.874 Y131.709 F5400
G1 X104.020 Y132.855 E214.3944 F2400
G0 X103.454 Y132.855 F5400
G1 X102.874 Y132.275 E214.4421 F2400
G0 X104.487 Y130.690 F5400
G0 X104.487 Y70.826
G0 X165.442 Y70.826
G0 X165.442 Y70.826
G0 X166.526 Y69.761
G0 X166.517 Y69.770
G1 X165.958 Y69.212 E214.4881 F2400
G0 X165.393 Y69.212 F5400
G1 X166.517 Y70.336 E214.5806 F2400
G0 X166.081 Y70.466 F5400
G1 X164.827 Y69.212 E214.6839 F2400
G0 X164.261 Y69.212 F5400
G1 X165.515 Y70.466 E214.7871 F2400
G0 X164.950 Y70.466 F5400
G1 X163.696 Y69.212 E214.8903 F2400
G0 X163.130 Y69.212 F5400
G1 X164.384 Y70.466 E214.9935 F2400
G0 X163.818 Y70.466 F5400
G1 X162.564 Y69.212 E215.0968 F2400
G0 X161.999 Y69.212 F5400
G1 X163.253 Y70.466 E215.2000 F2400
G0 X162.687 Y70.466 F5400
G1 X161.433 Y69.212 E215.3032 F2400
G0 X160.867 Y69.212 F5400
G1 X162.121 Y70.466 E215.4064 F2400
G0 X161.556 Y70.466 F5400
G1 X160.302 Y69.212 E215.5097 F2400
G0 X159.736 Y69.212 F5400
G1 X160.990 Y70.466 E215.6129 F2400
G0 X160.424 Y70.466 F5400
G1 X159.170 Y69.212 E215.7161 F2400
G0 X158.604 Y69.212 F5400
G1 X159.859 Y70.466 E215.8193 F2400
G0 X159.293 Y70.466 F5400
G1 X158.039 Y69.212 E215.9226 F2400
G0 X157.473 Y69.212 F5400
G1 X158.727 Y70.466 E216.0258 F2400
G0 X158.161 Y70.466 F5400
G1 X156.907 Y69.212 E216.1290 F2400
G0 X156.342 Y69.212 F5400
G1 X157.596 Y70.466 E216.2322 F2400
G0 X157.030 Y70.466 F5400
G1 X155.776 Y69.212 E216.3355 F2400
G0 X155.210 Y69.212 F5400
G1 X156.464 Y70.466 E216.4387 F2400
G0 X155.899 Y70.466 F5400
G1 X154.645 Y69.212 E216.5419 F2400
G0 X154.079 Y69.212 F5400
G1 X155.333 Y70.466 E216.6451 F2400
G0 X154.767 Y70.466 F5400
G1 X153.513 Y69.212 E216.7484 F2400
G0 X152.948 Y69.212 F5400
G1 X154.202 Y70.466 E216.8516 F2400
G0 X153.636 Y70.466 F5400
G1 X152.382 Y69.212 E216.9548 F2400
G0 X151.816 Y69.212 F5400
G1 X153.070 Y70.466 E217.0580 F2400
G0 X152.505 Y70.466 F5400
G1 X151.251 Y69.212 E217.1613 F2400
G0 X150.685 Y69.212 F5400
G1 X151.939 Y70.466 E217.2645 F2400
G0 X151.373 Y70.466 F5400
G1 X150.119 Y69.212 E217.3677 F2400
G0 X149.554 Y69.212 F5400
G1 X150.808 Y70.466 E217.4709 F2400
G0 X150.242 Y70.466 F5400
G1 X148.988 Y69.212 E217.5742 F2400
G0 X148.422 Y69.212 F5400
G1 X149.676 Y70.466 E217.6774 F2400
G0 X149.111 Y70.466 F5400
G1 X147.856 Y69.212 E217.7806 F2400
G0 X147.291 Y69.212 F5400
G1 X148.545 Y70.466 E217.8838 F2400
G0 X147.979 Y70.466 F5400
G1 X146.725 Y69.212 E217.9871 F2400
G0 X146.159 Y69.212 F5400
G1 X147.413 Y70.466 E218.0903 F2400
G0 X146.848 Y70.466 F5400
G1 X145.594 Y69.212 E218.1935 F2400
G0 X145.028 Y69.212 F5400
G1 X146.282 Y70.466 E218.2968 F2400
G0 X145.716 Y70.466 F5400
G1 X144.462 Y69.212 E218.4000 F2400
G0 X143.897 Y69.212 F5400
G1 X145.151 Y70.466 E218.5032 F2400
G0 X144.585 Y70.466 F5400
G1 X143.331 Y69.212 E218.6064 F2400
G0 X142.765 Y69.212 F5400
G1 X144.019 Y70.466 E218.7097 F2400
G0 X143.454 Y70.466 F5400
G1 X142.200 Y69.212 E218.8129 F2400
G0 X141.634 Y69.212 F5400
G1 X142.888 Y70.466 E218.9161 F2400
G0 X142.322 Y70.466 F5400
G1 X141.068 Y69.212 E219.0193 F2400
G0 X140.503 Y69.212 F5400
G1 X141.757 Y70.466 E219.1226 F2400
G0 X141.191 Y70.466 F5400
G1 X139.937 Y69.212 E219.2258 F2400
G0 X139.371 Y69.212 F5400
G1 X140.625 Y70.466 E219.3290 F2400
G0 X140.060 Y70.466 F5400
G1 X138.805 Y69.212 E219.4322 F2400
G0 X138.240 Y69.212 F5400
G1 X139.494 Y70.466 E219.5355 F2400
G0 X138.928 Y70.466 F5400
G1 X137.674 Y69.212 E219.6387 F2400
G0 X137.108 Y69.212 F5400
G1 X138.362 Y70.466 E219.7419 F2400
G0 X137.797 Y70.466 F5400
G1 X136.543 Y69.212 E219.8451 F2400
G0 X135.977 Y69.212 F5400
G1 X137.231 Y70.466 E219.9484 F2400
G0 X136.665 Y70.466 F5400
G1 X135.411 Y69.212 E220.0516 F2400
G0 X134.846 Y69.212 F5400
G1 X136.100 Y70.466 E220.1548 F2400
G0 X135.534 Y70.466 F5400
G1 X134.280 Y69.212 E220.2580 F2400
G0 X133.714 Y69.212 F5400
G1 X134.968 Y70.466 E220.3613 F2400
G0 X134.403 Y70.466 F5400
G1 X133.149 Y69.212 E220.4645 F2400
G0 X132.583 Y69.212 F5400
G1 X133.837 Y70.466 E220.5677 F2400
G0 X133.271 Y70.466 F5400
G1 X132.017 Y69.212 E220.6709 F2400
G0 X131.452 Y69.212 F5400
G1 X132.706 Y70.466 E220.7742 F2400
G0 X132.140 Y70.466 F5400
G1 X130.886 Y69.212 E220.8774 F2400
G0 X130.320 Y69.212 F5400
G1 X131.574 Y70.466 E220.9806 F2400
G0 X131.009 Y70.466 F5400
G1 X129.755 Y69.212 E221.0838 F2400
G0 X129.189 Y69.212 F5400
G1 X130.443 Y70.466 E221.1871 F2400
G0 X129.877 Y70.466 F5400
G1 X128.623 Y69.212 E221.2903 F2400
G0 X128.057 Y69.212 F5400
G1 X129.312 Y70.466 E221.3935 F2400
G0 X128.746 Y70.466 F5400
G1 X127.492 Y69.212 E221.4967 F2400
G0 X126.926 Y69.212 F5400
G1 X128.180 Y70.466 E221.6000 F2400
G0 X127.614 Y70.466 F5400
G1 X126.360 Y69.212 E221.7032 F2400
G0 X125.795 Y69.212 F5400
G1 X127.049 Y70.466 E221.8064 F2400
G0 X126.483 Y70.466 F5400
G1 X125.229 Y69.212 E221.9096 F2400
G0 X124.663 Y69.212 F5400
G1 X125.917 Y70.466 E222.0129 F2400
G0 X125.352 Y70.466 F5400
G1 X124.098 Y69.212 E222.1161 F2400
G0 X123.532 Y69.212 F5400
G1 X124.786 Y70.466 E222.2193 F2400
G0 X124.220 Y70.466 F5400
G1 X122.966 Y69.212 E222.3226 F2400
G0 X122.401 Y69.212 F5400
G1 X123.655 Y70.466 E222.4258 F2400
G0 X123.089 Y70.466 F5400
G1 X121.835 Y69.212 E222.5290 F2400
G0 X121.269 Y69.212 F5400
G1 X122.523 Y70.466 E222.6322 F2400
G0 X121.958 Y70.466 F5400
G1 X120.704 Y69.212 E222.7355 F2400
G0 X120.138 Y69.212 F5400
G1 X121.392 Y70.466 E222.8387 F2400
G0 X120.826 Y70.466 F5400
G1 X119.572 Y69.212 E222.9419 F2400
G0 X119.006 Y69.212 F5400
G1 X120.261 Y70.466 E223.0451 F2400
G0 X119.695 Y70.466 F5400
G1 X118.441 Y69.212 E223.1484 F2400
G0 X117.875 Y69.212 F5400
G1 X119.129 Y70.466 E223.2516 F2400
G0 X118.563 Y70.466 F5400
G1 X117.309 Y69.212 E223.3548 F2400
G0 X116.744 Y69.212 F5400
G1 X117.998 Y70.466 E223.4580 F2400
G0 X117.432 Y70.466 F5400
G1 X116.178 Y69.212 E223.5613 F2400
G0 X115.612 Y69.212 F5400
G1 X116.866 Y70.466 E223.6645 F2400
G0 X116.301 Y70.466 F5400
G1 X115.047 Y69.212 E223.7677 F2400
G0 X114.481 Y69.212 F5400
G1 X115.735 Y70.466 E223.8709 F2400
G0 X115.169 Y70.466 F5400
G1 X113.915 Y69.212 E223.9742 F2400
G0 X113.350 Y69.212 F5400
G1 X114.604 Y70.466 E224.0774 F2400
G0 X114.038 Y70.466 F5400
G1 X112.784 Y69.212 E224.1806 F2400
G0 X112.218 Y69.212 F5400
G1 X113.472 Y70.466 E224.2838 F2400
G0 X112.907 Y70.466 F5400
G1 X111.653 Y69.212 E224.3871 F2400
G0 X111.087 Y69.212 F5400
G1 X112.341 Y70.466 E224.4903 F2400
G0 X111.775 Y70.466 F5400
G1 X110.521 Y69.212 E224.5935 F2400
G0 X109.955 Y69.212 F5400
G1 X111.210 Y70.466 E224.6967 F2400
G0 X110.644 Y70.466 F5400
G1 X109.390 Y69.212 E224.8000 F2400
G0 X108.824 Y69.212 F5400
G1 X110.078 Y70.466 E224.9032 F2400
G0 X109.512 Y70.466 F5400
G1 X108.258 Y69.212 E225.0064 F2400
;segType:InnerHair
G0 X104.049 Y70.579 F5400
G1 X104.093 Y70.461 E225.0135 F2400
G1 X104.197 Y70.404 E225.0213
G1 X104.049 Y70.579 E225.0372
; ------------------------------------
; Layer #1
; ------------------------------------
M106 S0 ;turn off fan
G92 E0 ;reset extr
G0 F3000 E-1.0000
G0 F1200 Z0.700
G0 X106.245 Y72.292 F7200
G0 X110.635 Y75.717
G0 X112.831 Y77.430
G0 X115.026 Y79.143
G0 X117.222 Y80.856
G0 X119.417 Y82.568
G0 F3000 E0.0000
;segType:HShell
G1 X120.671 Y81.315 E0.1032 F3600
G0 X120.105 Y81.315 F7200
G1 X118.851 Y82.568 E0.2064 F3600
G0 X118.286 Y82.568 F7200
G1 X119.539 Y81.315 E0.3096 F3600
G0 X118.974 Y81.315 F7200
G1 X117.720 Y82.568 E0.4128 F3600
G0 X117.154 Y82.568 F7200
G1 X118.385 Y81.338 E0.5141 F3600
G0 X117.723 Y81.434 F7200
G1 X116.588 Y82.568 E0.6075 F3600
G0 X116.863 Y81.729 F7200
G1 X116.023 Y82.568 E0.6766 F3600
;segType:Perimeter
G0 X116.535 Y82.589 F7200
G1 X116.535 Y83.389 E0.7232 F2159
G1 X116.535 Y147.176 E4.4360
G1 X113.761 Y147.176 E4.5974
G1 X113.761 Y85.442 E8.1907
G1 X113.822 Y84.671 E8.2357
G1 X114.000 Y83.926 E8.2803
G1 X114.293 Y83.219 E8.3248
G1 X114.693 Y82.566 E8.3694
G1 X115.191 Y81.984 E8.4139
G1 X115.773 Y81.487 E8.4585
G1 X116.425 Y81.087 E8.5031
G1 X117.133 Y80.794 E8.5476
G1 X117.877 Y80.615 E8.5922
G1 X118.648 Y80.554 E8.6372
G1 X180.382 Y80.554 E12.2304
G1 X180.382 Y83.329 E12.3919
G1 X116.595 Y83.329 E16.1047
G0 X115.795 Y83.329 F7200
;segType:Loop
G0 X116.135 Y84.429
G1 X116.135 Y146.776 E19.7336 F3600
G1 X114.161 Y146.776 E19.8485
G1 X114.161 Y85.458 E23.4175
G1 X114.218 Y84.733 E23.4598
G1 X114.382 Y84.050 E23.5007
G1 X114.651 Y83.401 E23.5416
G1 X115.018 Y82.802 E23.5825
G1 X115.474 Y82.268 E23.6234
G1 X116.009 Y81.811 E23.6643
G1 X116.608 Y81.444 E23.7052
G1 X117.257 Y81.175 E23.7461
G1 X117.940 Y81.011 E23.7870
G1 X118.664 Y80.954 E23.8293
G1 X179.982 Y80.954 E27.3983
G1 X179.982 Y82.929 E27.5132
G1 X116.135 Y82.929 E31.2295
G1 X116.135 Y84.229 E31.3051
;segType:HShell
G0 X115.775 Y82.816 F7200
G1 X114.935 Y83.656 E31.3743 F3600
G0 X114.640 Y84.517 F7200
G1 X115.775 Y83.382 E31.4676 F3600
G0 X115.775 Y83.948 F7200
G1 X114.544 Y85.178 E31.5689 F3600
G0 X114.521 Y85.767 F7200
G1 X115.775 Y84.513 E31.6721 F3600
G0 X115.775 Y85.079 F7200
G1 X114.521 Y86.333 E31.7754 F3600
G0 X114.521 Y86.899 F7200
G1 X115.775 Y85.645 E31.8786 F3600
G0 X115.775 Y86.211 F7200
G1 X114.521 Y87.464 E31.9818 F3600
G0 X114.521 Y88.030 F7200
G1 X115.775 Y86.776 E32.0850 F3600
G0 X115.775 Y87.342 F7200
G1 X114.521 Y88.596 E32.1882 F3600
G0 X114.521 Y89.161 F7200
G1 X115.775 Y87.908 E32.2914 F3600
G0 X115.775 Y88.473 F7200
G1 X114.521 Y89.727 E32.3946 F3600
G0 X114.521 Y90.293 F7200
G1 X115.775 Y89.039 E32.4978 F3600
G0 X115.775 Y89.605 F7200
G1 X114.521 Y90.858 E32.6010 F3600
G0 X114.521 Y91.424 F7200
G1 X115.775 Y90.170 E32.7042 F3600
G0 X115.775 Y90.736 F7200
G1 X114.521 Y91.990 E32.8074 F3600
G0 X114.521 Y92.555 F7200
G1 X115.775 Y91.302 E32.9106 F3600
G0 X115.775 Y91.867 F7200
G1 X114.521 Y93.121 E33.0138 F3600
G0 X114.521 Y93.687 F7200
G1 X115.775 Y92.433 E33.1170 F3600
G0 X115.775 Y92.999 F7200
G1 X114.521 Y94.253 E33.2202 F3600
G0 X114.521 Y94.818 F7200
G1 X115.775 Y93.564 E33.3234 F3600
G0 X115.775 Y94.130 F7200
G1 X114.521 Y95.384 E33.4266 F3600
G0 X114.521 Y95.950 F7200
G1 X115.775 Y94.696 E33.5298 F3600
G0 X115.775 Y95.262 F7200
G1 X114.521 Y96.515 E33.6330 F3600
G0 X114.521 Y97.081 F7200
G1 X115.775 Y95.827 E33.7362 F3600
G0 X115.775 Y96.393 F7200
G1 X114.521 Y97.647 E33.8394 F3600
G0 X114.521 Y98.212 F7200
G1 X115.775 Y96.959 E33.9426 F3600
G0 X115.775 Y97.524 F7200
G1 X114.521 Y98.778 E34.0458 F3600
G0 X114.521 Y99.344 F7200
G1 X115.775 Y98.090 E34.1490 F3600
G0 X115.775 Y98.656 F7200
G1 X114.521 Y99.909 E34.2522 F3600
G0 X114.521 Y100.475 F7200
G1 X115.775 Y99.221 E34.3554 F3600
G0 X115.775 Y99.787 F7200
G1 X114.521 Y101.041 E34.4586 F3600
G0 X114.521 Y101.606 F7200
G1 X115.775 Y100.353 E34.5618 F3600
G0 X115.775 Y100.918 F7200
G1 X114.521 Y102.172 E34.6650 F3600
G0 X114.521 Y102.738 F7200
G1 X115.775 Y101.484 E34.7682 F3600
G0 X115.775 Y102.050 F7200
G1 X114.521 Y103.304 E34.8714 F3600
G0 X114.521 Y103.869 F7200
G1 X115.775 Y102.615 E34.9746 F3600
G0 X115.775 Y103.181 F7200
G1 X114.521 Y104.435 E35.0778 F3600
G0 X114.521 Y105.001 F7200
G1 X115.775 Y103.747 E35.1810 F3600
G0 X115.775 Y104.312 F7200
G1 X114.521 Y105.566 E35.2842 F3600
G0 X114.521 Y106.132 F7200
G1 X115.775 Y104.878 E35.3875 F3600
G0 X115.775 Y105.444 F7200
G1 X114.521 Y106.698 E35.4907 F3600
G0 X114.521 Y107.263 F7200
G1 X115.775 Y106.010 E35.5939 F3600
G0 X115.775 Y106.575 F7200
G1 X114.521 Y107.829 E35.6971 F3600
G0 X114.521 Y108.395 F7200
G1 X115.775 Y107.141 E35.8003 F3600
G0 X115.775 Y107.707 F7200
G1 X114.521 Y108.960 E35.9035 F3600
G0 X114.521 Y109.526 F7200
G1 X115.775 Y108.272 E36.0067 F3600
G0 X115.775 Y108.838 F7200
G1 X114.521 Y110.092 E36.1099 F3600
G0 X114.521 Y110.657 F7200
G1 X115.775 Y109.404 E36.2131 F3600
G0 X115.775 Y109.969 F7200
G1 X114.521 Y111.223 E36.3163 F3600
G0 X114.521 Y111.789 F7200
G1 X115.775 Y110.535 E36.4195 F3600
G0 X115.775 Y111.101 F7200
G1 X114.521 Y112.355 E36.5227 F3600
G0 X114.521 Y112.920 F7200
G1 X115.775 Y111.666 E36.6259 F3600
G0 X115.775 Y112.232 F7200
G1 X114.521 Y113.486 E36.7291 F3600
G0 X114.521 Y114.052 F7200
G1 X115.775 Y112.798 E36.8323 F3600
G0 X115.775 Y113.363 F7200
G1 X114.521 Y114.617 E36.9355 F3600
G0 X114.521 Y115.183 F7200
G1 X115.775 Y113.929 E37.0387 F3600
G0 X115.775 Y114.495 F7200
G1 X114.521 Y115.749 E37.1419 F3600
G0 X114.521 Y116.314 F7200
G1 X115.775 Y115.061 E37.2451 F3600
G0 X115.775 Y115.626 F7200
G1 X114.521 Y116.880 E37.3483 F3600
G0 X114.521 Y117.446 F7200
G1 X115.775 Y116.192 E37.4515 F3600
G0 X115.775 Y116.758 F7200
G1 X114.521 Y118.011 E37.5547 F3600
G0 X114.521 Y118.577 F7200
G1 X115.775 Y117.323 E37.6579 F3600
G0 X115.775 Y117.889 F7200
G1 X114.521 Y119.143 E37.7611 F3600
G0 X114.521 Y119.708 F7200
G1 X115.775 Y118.455 E37.8643 F3600
G0 X115.775 Y119.020 F7200
G1 X114.521 Y120.274 E37.9675 F3600
G0 X114.521 Y120.840 F7200
G1 X115.775 Y119.586 E38.0707 F3600
G0 X115.775 Y120.152 F7200
G1 X114.521 Y121.405 E38.1739 F3600
G0 X114.521 Y121.971 F7200
G1 X115.775 Y120.717 E38.2771 F3600
G0 X115.775 Y121.283 F7200
G1 X114.521 Y122.537 E38.3803 F3600
G0 X114.521 Y123.103 F7200
G1 X115.775 Y121.849 E38.4835 F3600
G0 X115.775 Y122.414 F7200
G1 X114.521 Y123.668 E38.5867 F3600
G0 X114.521 Y124.234 F7200
G1 X115.775 Y122.980 E38.6899 F3600
G0 X115.775 Y123.546 F7200
G1 X114.521 Y124.800 E38.7931 F3600
G0 X114.521 Y125.365 F7200
G1 X115.775 Y124.112 E38.8963 F3600
G0 X115.775 Y124.677 F7200
G1 X114.521 Y125.931 E38.9996 F3600
G0 X114.521 Y126.497 F7200
G1 X115.775 Y125.243 E39.1028 F3600
G0 X115.775 Y125.809 F7200
G1 X114.521 Y127.062 E39.2060 F3600
G0 X114.521 Y127.628 F7200
G1 X115.775 Y126.374 E39.3092 F3600
G0 X115.775 Y126.940 F7200
G1 X114.521 Y128.194 E39.4124 F3600
G0 X114.521 Y128.759 F7200
G1 X115.775 Y127.506 E39.5156 F3600
G0 X115.775 Y128.071 F7200
G1 X114.521 Y129.325 E39.6188 F3600
G0 X114.521 Y129.891 F7200
G1 X115.775 Y128.637 E39.7220 F3600
G0 X115.775 Y129.203 F7200
G1 X114.521 Y130.456 E39.8252 F3600
G0 X114.521 Y131.022 F7200
G1 X115.775 Y129.768 E39.9284 F3600
G0 X115.775 Y130.334 F7200
G1 X114.521 Y131.588 E40.0316 F3600
G0 X114.521 Y132.154 F7200
G1 X115.775 Y130.900 E40.1348 F3600
G0 X115.775 Y131.465 F7200
G1 X114.521 Y132.719 E40.2380 F3600
G0 X114.521 Y133.285 F7200
G1 X115.775 Y132.031 E40.3412 F3600
G0 X115.775 Y132.597 F7200
G1 X114.521 Y133.851 E40.4444 F3600
G0 X114.521 Y134.416 F7200
G1 X115.775 Y133.163 E40.5476 F3600
G0 X115.775 Y133.728 F7200
G1 X114.521 Y134.982 E40.6508 F3600
G0 X114.521 Y135.548 F7200
G1 X115.775 Y134.294 E40.7540 F3600
G0 X115.775 Y134.860 F7200
G1 X114.521 Y136.113 E40.8572 F3600
G0 X114.521 Y136.679 F7200
G1 X115.775 Y135.425 E40.9604 F3600
G0 X115.775 Y135.991 F7200
G1 X114.521 Y137.245 E41.0636 F3600
G0 X114.521 Y137.810 F7200
G1 X115.775 Y136.557 E41.1668 F3600
G0 X115.775 Y137.122 F7200
G1 X114.521 Y138.376 E41.2700 F3600
G0 X114.521 Y138.942 F7200
G1 X115.775 Y137.688 E41.3732 F3600
G0 X115.775 Y138.254 F7200
G1 X114.521 Y139.507 E41.4764 F3600
G0 X114.521 Y140.073 F7200
G1 X115.775 Y138.819 E41.5796 F3600
G0 X115.775 Y139.385 F7200
G1 X114.521 Y140.639 E41.6828 F3600
G0 X114.521 Y141.205 F7200
G1 X115.775 Y139.951 E41.7860 F3600
G0 X115.775 Y140.516 F7200
G1 X114.521 Y141.770 E41.8892 F3600
G0 X114.521 Y142.336 F7200
G1 X115.775 Y141.082 E41.9924 F3600
G0 X115.775 Y141.648 F7200
G1 X114.521 Y142.902 E42.0956 F3600
G0 X114.521 Y143.467 F7200
G1 X115.775 Y142.213 E42.1988 F3600
G0 X115.775 Y142.779 F7200
G1 X114.521 Y144.033 E42.3020 F3600
G0 X114.521 Y144.599 F7200
G1 X115.775 Y143.345 E42.4052 F3600
G0 X115.775 Y143.911 F7200
G1 X114.521 Y145.164 E42.5084 F3600
G0 X114.521 Y145.730 F7200
G1 X115.775 Y144.476 E42.6117 F3600
G0 X115.775 Y145.042 F7200
G1 X114.521 Y146.296 E42.7149 F3600
G0 X114.967 Y146.416 F7200
G1 X115.775 Y145.608 E42.7814 F3600
G0 X116.135 Y145.247 F7200
G0 X116.135 Y82.929
G0 X178.454 Y82.929
G0 X178.454 Y82.929
G0 X179.631 Y81.751
G0 X179.622 Y81.760
G1 X178.814 Y82.569 E42.8479 F3600
G0 X178.248 Y82.569 F7200
G1 X179.502 Y81.315 E42.9511 F3600
G0 X178.936 Y81.315 F7200
G1 X177.682 Y82.569 E43.0543 F3600
G0 X177.117 Y82.569 F7200
G1 X178.370 Y81.315 E43.1575 F3600
G0 X177.805 Y81.315 F7200
G1 X176.551 Y82.569 E43.2607 F3600
G0 X175.985 Y82.569 F7200
G1 X177.239 Y81.315 E43.3640 F3600
G0 X176.673 Y81.315 F7200
G1 X175.420 Y82.569 E43.4672 F3600
G0 X174.854 Y82.569 F7200
G1 X176.108 Y81.315 E43.5704 F3600
G0 X175.542 Y81.315 F7200
G1 X174.288 Y82.569 E43.6736 F3600
G0 X173.723 Y82.569 F7200
G1 X174.976 Y81.315 E43.7768 F3600
G0 X174.411 Y81.315 F7200
G1 X173.157 Y82.569 E43.8800 F3600
G0 X172.591 Y82.569 F7200
G1 X173.845 Y81.315 E43.9832 F3600
G0 X173.279 Y81.315 F7200
G1 X172.026 Y82.569 E44.0864 F3600
G0 X171.460 Y82.569 F7200
G1 X172.714 Y81.315 E44.1896 F3600
G0 X172.148 Y81.315 F7200
G1 X170.894 Y82.569 E44.2928 F3600
G0 X170.328 Y82.569 F7200
G1 X171.582 Y81.315 E44.3960 F3600
G0 X171.017 Y81.315 F7200
G1 X169.763 Y82.569 E44.4992 F3600
G0 X169.197 Y82.569 F7200
G1 X170.451 Y81.315 E44.6024 F3600
G0 X169.885 Y81.315 F7200
G1 X168.631 Y82.569 E44.7056 F3600
G0 X168.066 Y82.569 F7200
G1 X169.320 Y81.315 E44.8088 F3600
G0 X168.754 Y81.315 F7200
G1 X167.500 Y82.569 E44.9120 F3600
G0 X166.934 Y82.569 F7200
G1 X168.188 Y81.315 E45.0153 F3600
G0 X167.622 Y81.315 F7200
G1 X166.369 Y82.569 E45.1185 F3600
G0 X165.803 Y82.569 F7200
G1 X167.057 Y81.315 E45.2217 F3600
G0 X166.491 Y81.315 F7200
G1 X165.237 Y82.569 E45.3249 F3600
G0 X164.672 Y82.569 F7200
G1 X165.925 Y81.315 E45.4281 F3600
G0 X165.360 Y81.315 F7200
G1 X164.106 Y82.569 E45.5313 F3600
G0 X163.540 Y82.569 F7200
G1 X164.794 Y81.315 E45.6345 F3600
G0 X164.228 Y81.315 F7200
G1 X162.975 Y82.569 E45.7377 F3600
G0 X162.409 Y82.569 F7200
G1 X163.663 Y81.315 E45.8409 F3600
G0 X163.097 Y81.315 F7200
G1 X161.843 Y82.569 E45.9441 F3600
G0 X161.278 Y82.569 F7200
G1 X162.531 Y81.315 E46.0473 F3600
G0 X161.966 Y81.315 F7200
G1 X160.712 Y82.569 E46.1505 F3600
G0 X160.146 Y82.569 F7200
G1 X161.400 Y81.315 E46.2537 F3600
G0 X160.834 Y81.315 F7200
G1 X159.580 Y82.569 E46.3569 F3600
G0 X159.015 Y82.569 F7200
G1 X160.269 Y81.315 E46.4601 F3600
G0 X159.703 Y81.315 F7200
G1 X158.449 Y82.569 E46.5634 F3600
G0 X157.883 Y82.569 F7200
G1 X159.137 Y81.315 E46.6666 F3600
G0 X158.572 Y81.315 F7200
G1 X157.318 Y82.569 E46.7698 F3600
G0 X156.752 Y82.569 F7200
G1 X158.006 Y81.315 E46.8730 F3600
G0 X157.440 Y81.315 F7200
G1 X156.186 Y82.569 E46.9762 F3600
G0 X155.621 Y82.569 F7200
G1 X156.874 Y81.315 E47.0794 F3600
G0 X156.309 Y81.315 F7200
G1 X155.055 Y82.569 E47.1826 F3600
G0 X154.489 Y82.569 F7200
G1 X155.743 Y81.315 E47.2858 F3600
G0 X155.177 Y81.315 F7200
G1 X153.924 Y82.569 E47.3890 F3600
G0 X153.358 Y82.569 F7200
G1 X154.612 Y81.315 E47.4922 F3600
G0 X154.046 Y81.315 F7200
G1 X152.792 Y82.569 E47.5954 F3600
G0 X152.227 Y82.569 F7200
G1 X153.480 Y81.315 E47.6986 F3600
G0 X152.915 Y81.315 F7200
G1 X151.661 Y82.568 E47.8018 F3600
G0 X151.095 Y82.568 F7200
G1 X152.349 Y81.315 E47.9050 F3600
G0 X151.783 Y81.315 F7200
G1 X150.530 Y82.568 E48.0082 F3600
G0 X149.964 Y82.568 F7200
G1 X151.218 Y81.315 E48.1115 F3600
G0 X150.652 Y81.315 F7200
G1 X149.398 Y82.568 E48.2147 F3600
G0 X148.832 Y82.568 F7200
G1 X150.086 Y81.315 E48.3179 F3600
G0 X149.521 Y81.315 F7200
G1 X148.267 Y82.568 E48.4211 F3600
G0 X147.701 Y82.568 F7200
G1 X148.955 Y81.315 E48.5243 F3600
G0 X148.389 Y81.315 F7200
G1 X147.135 Y82.568 E48.6275 F3600
G0 X146.570 Y82.568 F7200
G1 X147.824 Y81.315 E48.7307 F3600
G0 X147.258 Y81.315 F7200
G1 X146.004 Y82.568 E48.8339 F3600
G0 X145.438 Y82.568 F7200
G1 X146.692 Y81.315 E48.9371 F3600
G0 X146.127 Y81.315 F7200
G1 X144.873 Y82.568 E49.0403 F3600
G0 X144.307 Y82.568 F7200
G1 X145.561 Y81.315 E49.1435 F3600
G0 X144.995 Y81.315 F7200
G1 X143.741 Y82.568 E49.2467 F3600
G0 X143.176 Y82.568 F7200
G1 X144.429 Y81.315 E49.3499 F3600
G0 X143.864 Y81.315 F7200
G1 X142.610 Y82.568 E49.4531 F3600
G0 X142.044 Y82.568 F7200
G1 X143.298 Y81.315 E49.5563 F3600
G0 X142.732 Y81.315 F7200
G1 X141.479 Y82.568 E49.6596 F3600
G0 X140.913 Y82.568 F7200
G1 X142.167 Y81.315 E49.7628 F3600
G0 X141.601 Y81.315 F7200
G1 X140.347 Y82.568 E49.8660 F3600
G0 X139.782 Y82.568 F7200
G1 X141.035 Y81.315 E49.9692 F3600
G0 X140.470 Y81.315 F7200
G1 X139.216 Y82.568 E50.0724 F3600
G0 X138.650 Y82.568 F7200
G1 X139.904 Y81.315 E50.1756 F3600
G0 X139.338 Y81.315 F7200
G1 X138.084 Y82.568 E50.2788 F3600
G0 X137.519 Y82.568 F7200
G1 X138.773 Y81.315 E50.3820 F3600
G0 X138.207 Y81.315 F7200
G1 X136.953 Y82.568 E50.4852 F3600
G0 X136.387 Y82.568 F7200
G1 X137.641 Y81.315 E50.5884 F3600
G0 X137.076 Y81.315 F7200
G1 X135.822 Y82.568 E50.6916 F3600
G0 X135.256 Y82.568 F7200
G1 X136.510 Y81.315 E50.7948 F3600
G0 X135.944 Y81.315 F7200
G1 X134.690 Y82.568 E50.8980 F3600
G0 X134.125 Y82.568 F7200
G1 X135.379 Y81.315 E51.0012 F3600
G0 X134.813 Y81.315 F7200
G1 X133.559 Y82.568 E51.1044 F3600
G0 X132.993 Y82.568 F7200
G1 X134.247 Y81.315 E51.2077 F3600
G0 X133.681 Y81.315 F7200
G1 X132.428 Y82.568 E51.3109 F3600
G0 X131.862 Y82.568 F7200
G1 X133.116 Y81.315 E51.4141 F3600
G0 X132.550 Y81.315 F7200
G1 X131.296 Y82.568 E51.5173 F3600
G0 X130.731 Y82.568 F7200
G1 X131.984 Y81.315 E51.6205 F3600
G0 X131.419 Y81.315 F7200
G1 X130.165 Y82.568 E51.7237 F3600
G0 X129.599 Y82.568 F7200
G1 X130.853 Y81.315 E51.8269 F3600
G0 X130.287 Y81.315 F7200
G1 X129.034 Y82.568 E51.9301 F3600
G0 X128.468 Y82.568 F7200
G1 X129.722 Y81.315 E52.0333 F3600
G0 X129.156 Y81.315 F7200
G1 X127.902 Y82.568 E52.1365 F3600
G0 X127.336 Y82.568 F7200
G1 X128.590 Y81.315 E52.2397 F3600
G0 X128.025 Y81.315 F7200
G1 X126.771 Y82.568 E52.3429 F3600
G0 X126.205 Y82.568 F7200
G1 X127.459 Y81.315 E52.4461 F3600
G0 X126.893 Y81.315 F7200
G1 X125.639 Y82.568 E52.5493 F3600
G0 X125.074 Y82.568 F7200
G1 X126.328 Y81.315 E52.6525 F3600
G0 X125.762 Y81.315 F7200
G1 X124.508 Y82.568 E52.7558 F3600
G0 X123.942 Y82.568 F7200
G1 X125.196 Y81.315 E52.8590 F3600
G0 X124.631 Y81.315 F7200
G1 X123.377 Y82.568 E52.9622 F3600
G0 X122.811 Y82.568 F7200
G1 X124.065 Y81.315 E53.0654 F3600
G0 X123.499 Y81.315 F7200
G1 X122.245 Y82.568 E53.1686 F3600
G0 X121.680 Y82.568 F7200
G1 X122.933 Y81.315 E53.2718 F3600
G0 X122.368 Y81.315 F7200
G1 X121.114 Y82.568 E53.3750 F3600
G0 X120.548 Y82.568 F7200
G1 X121.802 Y81.315 E53.4782 F3600
G0 X121.236 Y81.315 F7200
G1 X119.983 Y82.568 E53.5814 F3600
G0 F3000 E52.5814
G0 X116.206 Y78.878 F7200
G0 X114.318 Y77.032
G0 X112.430 Y75.187
G0 X110.542 Y73.341
G0 X108.654 Y71.496
G0 X106.766 Y69.651
G0 X104.878 Y67.805
G0 X102.990 Y65.960
G0 X101.101 Y64.114
G0 F3000 E53.5814
G1 X102.355 Y62.861 E53.6846 F3600
G0 X101.790 Y62.861 F7200
G1 X100.536 Y64.114 E53.7878 F3600
G0 X99.970 Y64.114 F7200
G1 X101.224 Y62.861 E53.8910 F3600
G0 X100.658 Y62.861 F7200
G1 X99.404 Y64.114 E53.9942 F3600
G0 X98.839 Y64.114 F7200
G1 X100.063 Y62.890 E54.0950 F3600
G0 X99.385 Y63.003 F7200
G1 X98.273 Y64.114 E54.1866 F3600
G0 X98.480 Y63.342 F7200
G1 X97.707 Y64.114 E54.2502 F3600
;segType:Perimeter
G0 X98.291 Y64.135 F7200
G1 X98.291 Y64.935 E54.2967 F2159
G1 X98.291 Y128.722 E58.0095
G1 X95.517 Y128.722 E58.1709
G1 X95.517 Y66.988 E61.7642
G1 X95.578 Y66.217 E61.8092
G1 X95.757 Y65.472 E61.8538
G1 X96.049 Y64.765 E61.8983
G1 X96.449 Y64.112 E61.9429
G1 X96.947 Y63.530 E61.9875
G1 X97.529 Y63.033 E62.0320
G1 X98.182 Y62.633 E62.0766
G1 X98.889 Y62.340 E62.1211
G1 X99.633 Y62.161 E62.1657
G1 X100.404 Y62.100 E62.2107
G1 X162.139 Y62.100 E65.8040
G1 X162.139 Y64.874 E65.9654
G1 X98.351 Y64.874 E69.6782
G0 X97.551 Y64.874 F7200
;segType:Loop
G0 X97.891 Y65.974
G1 X97.891 Y128.322 E73.3071 F3600
G1 X95.917 Y128.322 E73.4220
G1 X95.917 Y67.004 E76.9910
G1 X95.974 Y66.279 E77.0333
G1 X96.138 Y65.596 E77.0742
G1 X96.407 Y64.947 E77.1151
G1 X96.774 Y64.348 E77.1560
G1 X97.231 Y63.814 E77.1969
G1 X97.765 Y63.357 E77.2378
G1 X98.364 Y62.991 E77.2787
G1 X99.013 Y62.721 E77.3196
G1 X99.696 Y62.557 E77.3605
G1 X100.420 Y62.500 E77.4028
G1 X161.739 Y62.500 E80.9718
G1 X161.739 Y64.475 E81.0867
G1 X97.891 Y64.475 E84.8030
G1 X97.891 Y65.775 E84.8786
;segType:HShell
G0 X97.531 Y64.291 F7200
G1 X96.758 Y65.064 E84.9423 F3600
G0 X96.419 Y65.968 F7200
G1 X97.531 Y64.856 E85.0338 F3600
G0 X97.531 Y65.422 F7200
G1 X96.307 Y66.646 E85.1346 F3600
G0 X96.277 Y67.241 F7200
G1 X97.531 Y65.988 E85.2378 F3600
G0 X97.531 Y66.553 F7200
G1 X96.277 Y67.807 E85.3410 F3600
G0 X96.277 Y68.373 F7200
G1 X97.531 Y67.119 E85.4442 F3600
G0 X97.531 Y67.685 F7200
G1 X96.277 Y68.938 E85.5474 F3600
G0 X96.277 Y69.504 F7200
G1 X97.531 Y68.250 E85.6506 F3600
G0 X97.531 Y68.816 F7200
G1 X96.277 Y70.070 E85.7538 F3600
G0 X96.277 Y70.636 F7200
G1 X97.531 Y69.382 E85.8570 F3600
G0 X97.531 Y69.947 F7200
G1 X96.277 Y71.201 E85.9602 F3600
G0 X96.277 Y71.767 F7200
G1 X97.531 Y70.513 E86.0634 F3600
G0 X97.531 Y71.079 F7200
G1 X96.277 Y72.333 E86.1666 F3600
G0 X96.277 Y72.898 F7200
G1 X97.531 Y71.644 E86.2698 F3600
G0 X97.531 Y72.210 F7200
G1 X96.277 Y73.464 E86.3730 F3600
G0 X96.277 Y74.030 F7200
G1 X97.531 Y72.776 E86.4762 F3600
G0 X97.531 Y73.342 F7200
G1 X96.277 Y74.595 E86.5794 F3600
G0 X96.277 Y75.161 F7200
G1 X97.531 Y73.907 E86.6826 F3600
G0 X97.531 Y74.473 F7200
G1 X96.277 Y75.727 E86.7858 F3600
G0 X96.277 Y76.292 F7200
G1 X97.531 Y75.039 E86.8890 F3600
G0 X97.531 Y75.604 F7200
G1 X96.277 Y76.858 E86.9922 F3600
G0 X96.277 Y77.424 F7200
G1 X97.531 Y76.170 E87.0954 F3600
G0 X97.531 Y76.736 F7200
G1 X96.277 Y77.989 E87.1986 F3600
G0 X96.277 Y78.555 F7200
G1 X97.531 Y77.301 E87.3019 F3600
G0 X97.531 Y77.867 F7200
G1 X96.277 Y79.121 E87.4051 F3600
G0 X96.277 Y79.686 F7200
G1 X97.531 Y78.433 E87.5083 F3600
G0 X97.531 Y78.998 F7200
G1 X96.277 Y80.252 E87.6115 F3600
G0 X96.277 Y80.818 F7200
G1 X97.531 Y79.564 E87.7147 F3600
G0 X97.531 Y80.130 F7200
G1 X96.277 Y81.384 E87.8179 F3600
G0 X96.277 Y81.949 F7200
G1 X97.531 Y80.695 E87.9211 F3600
G0 X97.531 Y81.261 F7200
G1 X96.277 Y82.515 E88.0243 F3600
G0 X96.277 Y83.081 F7200
G1 X97.531 Y81.827 E88.1275 F3600
G0 X97.531 Y82.393 F7200
G1 X96.277 Y83.646 E88.2307 F3600
G0 X96.277 Y84.212 F7200
G1 X97.531 Y82.958 E88.3339 F3600
G0 X97.531 Y83.524 F7200
G1 X96.277 Y84.778 E88.4371 F3600
G0 X96.277 Y85.343 F7200
G1 X97.531 Y84.090 E88.5403 F3600
G0 X97.531 Y84.655 F7200
G1 X96.277 Y85.909 E88.6435 F3600
G0 X96.277 Y86.475 F7200
G1 X97.531 Y85.221 E88.7467 F3600
G0 X97.531 Y85.787 F7200
G1 X96.277 Y87.040 E88.8499 F3600
G0 X96.277 Y87.606 F7200
G1 X97.531 Y86.352 E88.9531 F3600
G0 X97.531 Y86.918 F7200
G1 X96.277 Y88.172 E89.0563 F3600
G0 X96.277 Y88.737 F7200
G1 X97.531 Y87.484 E89.1595 F3600
G0 X97.531 Y88.049 F7200
G1 X96.277 Y89.303 E89.2627 F3600
G0 X96.277 Y89.869 F7200
G1 X97.531 Y88.615 E89.3659 F3600
G0 X97.531 Y89.181 F7200
G1 X96.277 Y90.435 E89.4691 F3600
G0 X96.277 Y91.000 F7200
G1 X97.531 Y89.746 E89.5723 F3600
G0 X97.531 Y90.312 F7200
G1 X96.277 Y91.566 E89.6755 F3600
G0 X96.277 Y92.132 F7200
G1 X97.531 Y90.878 E89.7787 F3600
G0 X97.531 Y91.443 F7200
G1 X96.277 Y92.697 E89.8819 F3600
G0 X96.277 Y93.263 F7200
G1 X97.531 Y92.009 E89.9851 F3600
G0 X97.531 Y92.575 F7200
G1 X96.277 Y93.829 E90.0883 F3600
G0 X96.277 Y94.394 F7200
G1 X97.531 Y93.141 E90.1915 F3600
G0 X97.531 Y93.706 F7200
G1 X96.277 Y94.960 E90.2947 F3600
G0 X96.277 Y95.526 F7200
G1 X97.531 Y94.272 E90.3979 F3600
G0 X97.531 Y94.838 F7200
G1 X96.277 Y96.091 E90.5011 F3600
G0 X96.277 Y96.657 F7200
G1 X97.531 Y95.403 E90.6043 F3600
G0 X97.531 Y95.969 F7200
G1 X96.277 Y97.223 E90.7075 F3600
G0 X96.277 Y97.788 F7200
G1 X97.531 Y96.535 E90.8107 F3600
G0 X97.531 Y97.100 F7200
G1 X96.277 Y98.354 E90.9140 F3600
G0 X96.277 Y98.920 F7200
G1 X97.531 Y97.666 E91.0172 F3600
G0 X97.531 Y98.232 F7200
G1 X96.277 Y99.486 E91.1204 F3600
G0 X96.277 Y100.051 F7200
G1 X97.531 Y98.797 E91.2236 F3600
G0 X97.531 Y99.363 F7200
G1 X96.277 Y100.617 E91.3268 F3600
G0 X96.277 Y101.183 F7200
G1 X97.531 Y99.929 E91.4300 F3600
G0 X97.531 Y100.494 F7200
G1 X96.277 Y101.748 E91.5332 F3600
G0 X96.277 Y102.314 F7200
G1 X97.531 Y101.060 E91.6364 F3600
G0 X97.531 Y101.626 F7200
G1 X96.277 Y102.880 E91.7396 F3600
G0 X96.277 Y103.445 F7200
G1 X97.531 Y102.192 E91.8428 F3600
G0 X97.531 Y102.757 F7200
G1 X96.277 Y104.011 E91.9460 F3600
G0 X96.277 Y104.577 F7200
G1 X97.531 Y103.323 E92.0492 F3600
G0 X97.531 Y103.889 F7200
G1 X96.277 Y105.142 E92.1524 F3600
G0 X96.277 Y105.708 F7200
G1 X97.531 Y104.454 E92.2556 F3600
G0 X97.531 Y105.020 F7200
G1 X96.277 Y106.274 E92.3588 F3600
G0 X96.277 Y106.839 F7200
G1 X97.531 Y105.586 E92.4620 F3600
G0 X97.531 Y106.151 F7200
G1 X96.277 Y107.405 E92.5652 F3600
G0 X96.277 Y107.971 F7200
G1 X97.531 Y106.717 E92.6684 F3600
G0 X97.531 Y107.283 F7200
G1 X96.277 Y108.537 E92.7716 F3600
G0 X96.277 Y109.102 F7200
G1 X97.531 Y107.848 E92.8748 F3600
G0 X97.531 Y108.414 F7200
G1 X96.277 Y109.668 E92.9780 F3600
G0 X96.277 Y110.234 F7200
G1 X97.531 Y108.980 E93.0812 F3600
G0 X97.531 Y109.545 F7200
G1 X96.277 Y110.799 E93.1844 F3600
G0 X96.277 Y111.365 F7200
G1 X97.531 Y110.111 E93.2876 F3600
G0 X97.531 Y110.677 F7200
G1 X96.277 Y111.931 E93.3908 F3600
G0 X96.277 Y112.496 F7200
G1 X97.531 Y111.243 E93.4940 F3600
G0 X97.531 Y111.808 F7200
G1 X96.277 Y113.062 E93.5972 F3600
G0 X96.277 Y113.628 F7200
G1 X97.531 Y112.374 E93.7004 F3600
G0 X97.531 Y112.940 F7200
G1 X96.277 Y114.193 E93.8036 F3600
G0 X96.277 Y114.759 F7200
G1 X97.531 Y113.505 E93.9068 F3600
G0 X97.531 Y114.071 F7200
G1 X96.277 Y115.325 E94.0100 F3600
G0 X96.277 Y115.890 F7200
G1 X97.531 Y114.637 E94.1132 F3600
G0 X97.531 Y115.202 F7200
G1 X96.277 Y116.456 E94.2164 F3600
G0 X96.277 Y117.022 F7200
G1 X97.531 Y115.768 E94.3196 F3600
G0 X97.531 Y116.334 F7200
G1 X96.277 Y117.587 E94.4228 F3600
G0 X96.277 Y118.153 F7200
G1 X97.531 Y116.899 E94.5260 F3600
G0 X97.531 Y117.465 F7200
G1 X96.277 Y118.719 E94.6293 F3600
G0 X96.277 Y119.285 F7200
G1 X97.531 Y118.031 E94.7325 F3600
G0 X97.531 Y118.596 F7200
G1 X96.277 Y119.850 E94.8357 F3600
G0 X96.277 Y120.416 F7200
G1 X97.531 Y119.162 E94.9389 F3600
G0 X97.531 Y119.728 F7200
G1 X96.277 Y120.982 E95.0421 F3600
G0 X96.277 Y121.547 F7200
G1 X97.531 Y120.293 E95.1453 F3600
G0 X97.531 Y120.859 F7200
G1 X96.277 Y122.113 E95.2485 F3600
G0 X96.277 Y122.679 F7200
G1 X97.531 Y121.425 E95.3517 F3600
G0 X97.531 Y121.991 F7200
G1 X96.277 Y123.244 E95.4549 F3600
G0 X96.277 Y123.810 F7200
G1 X97.531 Y122.556 E95.5581 F3600
G0 X97.531 Y123.122 F7200
G1 X96.277 Y124.376 E95.6613 F3600
G0 X96.277 Y124.941 F7200
G1 X97.531 Y123.688 E95.7645 F3600
G0 X97.531 Y124.253 F7200
G1 X96.277 Y125.507 E95.8677 F3600
G0 X96.277 Y126.073 F7200
G1 X97.531 Y124.819 E95.9709 F3600
G0 X97.531 Y125.385 F7200
G1 X96.277 Y126.638 E96.0741 F3600
G0 X96.277 Y127.204 F7200
G1 X97.531 Y125.950 E96.1773 F3600
G0 X97.531 Y126.516 F7200
G1 X96.277 Y127.770 E96.2805 F3600
G0 X96.651 Y127.962 F7200
G1 X97.531 Y127.082 E96.3529 F3600
G0 X97.531 Y127.647 F7200
G1 X97.217 Y127.962 E96.3788 F3600
G0 X97.891 Y127.287 F7200
G0 X97.891 Y64.475
G0 X160.704 Y64.475
G0 X160.704 Y64.475
G0 X161.073 Y64.105
G0 X161.064 Y64.115
G1 X161.378 Y63.800 E96.4047 F3600
G0 X161.378 Y63.234 F7200
G1 X160.498 Y64.115 E96.4772 F3600
G0 X159.933 Y64.115 F7200
G1 X161.186 Y62.861 E96.5804 F3600
G0 X160.621 Y62.861 F7200
G1 X159.367 Y64.115 E96.6836 F3600
G0 X158.801 Y64.115 F7200
G1 X160.055 Y62.861 E96.7868 F3600
G0 X159.489 Y62.861 F7200
G1 X158.235 Y64.115 E96.8900 F3600
G0 X157.670 Y64.115 F7200
G1 X158.924 Y62.861 E96.9932 F3600
G0 X158.358 Y62.861 F7200
G1 X157.104 Y64.115 E97.0964 F3600
G0 X156.538 Y64.115 F7200
G1 X157.792 Y62.861 E97.1996 F3600
G0 X157.227 Y62.861 F7200
G1 X155.973 Y64.115 E97.3028 F3600
G0 X155.407 Y64.115 F7200
G1 X156.661 Y62.861 E97.4060 F3600
G0 X156.095 Y62.861 F7200
G1 X154.841 Y64.115 E97.5092 F3600
G0 X154.276 Y64.115 F7200
G1 X155.529 Y62.861 E97.6124 F3600
G0 X154.964 Y62.861 F7200
G1 X153.710 Y64.115 E97.7156 F3600
G0 X153.144 Y64.115 F7200
G1 X154.398 Y62.861 E97.8188 F3600
G0 X153.832 Y62.861 F7200
G1 X152.579 Y64.115 E97.9220 F3600
G0 X152.013 Y64.115 F7200
G1 X153.267 Y62.861 E98.0252 F3600
G0 X152.701 Y62.861 F7200
G1 X151.447 Y64.115 E98.1284 F3600
G0 X150.882 Y64.115 F7200
G1 X152.135 Y62.861 E98.2316 F3600
G0 X151.570 Y62.861 F7200
G1 X150.316 Y64.115 E98.3348 F3600
G0 X149.750 Y64.115 F7200
G1 X151.004 Y62.861 E98.4380 F3600
G0 X150.438 Y62.861 F7200
G1 X149.185 Y64.115 E98.5412 F3600
G0 X148.619 Y64.115 F7200
G1 X149.873 Y62.861 E98.6444 F3600
G0 X149.307 Y62.861 F7200
G1 X148.053 Y64.115 E98.7476 F3600
G0 X147.487 Y64.115 F7200
G1 X148.741 Y62.861 E98.8508 F3600
G0 X148.176 Y62.861 F7200
G1 X146.922 Y64.115 E98.9540 F3600
G0 X146.356 Y64.115 F7200
G1 X147.610 Y62.861 E99.0572 F3600
G0 X147.044 Y62.861 F7200
G1 X145.790 Y64.115 E99.1604 F3600
G0 X145.225 Y64.115 F7200
G1 X146.479 Y62.861 E99.2637 F3600
G0 X145.913 Y62.861 F7200
G1 X144.659 Y64.115 E99.3669 F3600
G0 X144.093 Y64.115 F7200
G1 X145.347 Y62.861 E99.4701 F3600
G0 X144.781 Y62.861 F7200
G1 X143.528 Y64.115 E99.5733 F3600
G0 X142.962 Y64.114 F7200
G1 X144.216 Y62.861 E99.6765 F3600
G0 X143.650 Y62.861 F7200
G1 X142.396 Y64.115 E99.7797 F3600
G0 X141.831 Y64.114 F7200
G1 X143.084 Y62.861 E99.8829 F3600
G0 X142.519 Y62.861 F7200
G1 X141.265 Y64.114 E99.9861 F3600
G0 X140.699 Y64.114 F7200
G1 X141.953 Y62.861 E100.0893 F3600
G0 X141.387 Y62.861 F7200
G1 X140.134 Y64.114 E100.1925 F3600
G0 X139.568 Y64.114 F7200
G1 X140.822 Y62.861 E100.2957 F3600
G0 X140.256 Y62.861 F7200
G1 X139.002 Y64.114 E100.3989 F3600
G0 X138.437 Y64.114 F7200
G1 X139.690 Y62.861 E100.5021 F3600
G0 X139.125 Y62.861 F7200
G1 X137.871 Y64.114 E100.6053 F3600
G0 X137.305 Y64.114 F7200
G1 X138.559 Y62.861 E100.7085 F3600
G0 X137.993 Y62.861 F7200
G1 X136.739 Y64.114 E100.8117 F3600
G0 X136.174 Y64.114 F7200
G1 X137.428 Y62.861 E100.9149 F3600
G0 X136.862 Y62.861 F7200
G1 X135.608 Y64.114 E101.0181 F3600
G0 X135.042 Y64.114 F7200
G1 X136.296 Y62.861 E101.1213 F3600
G0 X135.731 Y62.861 F7200
G1 X134.477 Y64.114 E101.2245 F3600
G0 X133.911 Y64.114 F7200
G1 X135.165 Y62.861 E101.3277 F3600
G0 X134.599 Y62.861 F7200
G1 X133.345 Y64.114 E101.4309 F3600
G0 X132.780 Y64.114 F7200
G1 X134.033 Y62.861 E101.5341 F3600
G0 X133.468 Y62.861 F7200
G1 X132.214 Y64.114 E101.6373 F3600
G0 X131.648 Y64.114 F7200
G1 X132.902 Y62.861 E101.7406 F3600
G0 X132.336 Y62.861 F7200
G1 X131.083 Y64.114 E101.8438 F3600
G0 X130.517 Y64.114 F7200
G1 X131.771 Y62.861 E101.9470 F3600
G0 X131.205 Y62.861 F7200
G1 X129.951 Y64.114 E102.0502 F3600
G0 X129.386 Y64.114 F7200
G1 X130.639 Y62.861 E102.1534 F3600
G0 X130.074 Y62.861 F7200
G1 X128.820 Y64.114 E102.2566 F3600
G0 X128.254 Y64.114 F7200
G1 X129.508 Y62.861 E102.3598 F3600
G0 X128.942 Y62.861 F7200
G1 X127.689 Y64.114 E102.4630 F3600
G0 X127.123 Y64.114 F7200
G1 X128.377 Y62.861 E102.5662 F3600
G0 X127.811 Y62.861 F7200
G1 X126.557 Y64.114 E102.6694 F3600
G0 X125.991 Y64.114 F7200
G1 X127.245 Y62.861 E102.7726 F3600
G0 X126.680 Y62.861 F7200
G1 X125.426 Y64.114 E102.8758 F3600
G0 X124.860 Y64.114 F7200
G1 X126.114 Y62.861 E102.9790 F3600
G0 X125.548 Y62.861 F7200
G1 X124.294 Y64.114 E103.0822 F3600
G0 X123.729 Y64.114 F7200
G1 X124.983 Y62.861 E103.1854 F3600
G0 X124.417 Y62.861 F7200
G1 X123.163 Y64.114 E103.2886 F3600
G0 X122.597 Y64.114 F7200
G1 X123.851 Y62.861 E103.3918 F3600
G0 X123.285 Y62.861 F7200
G1 X122.032 Y64.114 E103.4950 F3600
G0 X121.466 Y64.114 F7200
G1 X122.720 Y62.861 E103.5982 F3600
G0 X122.154 Y62.861 F7200
G1 X120.900 Y64.114 E103.7014 F3600
G0 X120.335 Y64.114 F7200
G1 X121.588 Y62.861 E103.8046 F3600
G0 X121.023 Y62.861 F7200
G1 X119.769 Y64.114 E103.9078 F3600
G0 X119.203 Y64.114 F7200
G1 X120.457 Y62.861 E104.0110 F3600
G0 X119.891 Y62.861 F7200
G1 X118.638 Y64.114 E104.1142 F3600
G0 X118.072 Y64.114 F7200
G1 X119.326 Y62.861 E104.2174 F3600
G0 X118.760 Y62.861 F7200
G1 X117.506 Y64.114 E104.3206 F3600
G0 X116.941 Y64.114 F7200
G1 X118.194 Y62.861 E104.4238 F3600
G0 X117.629 Y62.861 F7200
G1 X116.375 Y64.114 E104.5270 F3600
G0 X115.809 Y64.114 F7200
G1 X117.063 Y62.861 E104.6302 F3600
G0 X116.497 Y62.861 F7200
G1 X115.243 Y64.114 E104.7334 F3600
G0 X114.678 Y64.114 F7200
G1 X115.932 Y62.861 E104.8366 F3600
G0 X115.366 Y62.861 F7200
G1 X114.112 Y64.114 E104.9398 F3600
G0 X113.546 Y64.114 F7200
G1 X114.800 Y62.861 E105.0430 F3600
G0 X114.235 Y62.861 F7200
G1 X112.981 Y64.114 E105.1462 F3600
G0 X112.415 Y64.114 F7200
G1 X113.669 Y62.861 E105.2494 F3600
G0 X113.103 Y62.861 F7200
G1 X111.849 Y64.114 E105.3527 F3600
G0 X111.284 Y64.114 F7200
G1 X112.537 Y62.861 E105.4559 F3600
G0 X111.972 Y62.861 F7200
G1 X110.718 Y64.114 E105.5591 F3600
G0 X110.152 Y64.114 F7200
G1 X111.406 Y62.861 E105.6623 F3600
G0 X110.840 Y62.861 F7200
G1 X109.587 Y64.114 E105.7655 F3600
G0 X109.021 Y64.114 F7200
G1 X110.275 Y62.861 E105.8687 F3600
G0 X109.709 Y62.861 F7200
G1 X108.455 Y64.114 E105.9719 F3600
G0 X107.890 Y64.114 F7200
G1 X109.143 Y62.861 E106.0751 F3600
G0 X108.578 Y62.861 F7200
G1 X107.324 Y64.114 E106.1783 F3600
G0 X106.758 Y64.114 F7200
G1 X108.012 Y62.861 E106.2815 F3600
G0 X107.446 Y62.861 F7200
G1 X106.193 Y64.114 E106.3847 F3600
G0 X105.627 Y64.114 F7200
G1 X106.881 Y62.861 E106.4879 F3600
G0 X106.315 Y62.861 F7200
G1 X105.061 Y64.114 E106.5911 F3600
G0 X104.495 Y64.114 F7200
G1 X105.749 Y62.861 E106.6943 F3600
G0 X105.184 Y62.861 F7200
G1 X103.930 Y64.114 E106.7975 F3600
G0 X103.364 Y64.114 F7200
G1 X104.618 Y62.861 E106.9007 F3600
G0 X104.052 Y62.861 F7200
G1 X102.798 Y64.114 E107.0039 F3600
G0 X102.233 Y64.114 F7200
G1 X103.487 Y62.861 E107.1071 F3600
G0 X102.921 Y62.861 F7200
G1 X101.667 Y64.114 E107.2103 F3600
G0 F3000 E106.2103
G0 X105.729 Y68.349 F7200
G0 X107.761 Y70.466
G0 F3000 E107.2103
G1 X109.015 Y69.212 E107.3135 F3600
G0 X108.449 Y69.212 F7200
G1 X107.195 Y70.466 E107.4168 F3600
G0 X106.629 Y70.466 F7200
G1 X107.883 Y69.212 E107.5200 F3600
G0 X107.318 Y69.212 F7200
G1 X106.064 Y70.466 E107.6232 F3600
G0 X105.498 Y70.466 F7200
G1 X106.728 Y69.236 E107.7245 F3600
G0 X106.064 Y69.334 F7200
G1 X104.932 Y70.466 E107.8177 F3600
G0 X105.201 Y69.632 F7200
G1 X104.367 Y70.466 E107.8863 F3600
;segType:Perimeter
G0 X104.887 Y70.486 F7200
G1 X104.887 Y71.286 E107.9329 F2159
G1 X104.887 Y135.073 E111.6456
G1 X102.113 Y135.073 E111.8071
G1 X102.113 Y73.339 E115.4003
G1 X102.174 Y72.568 E115.4453
G1 X102.353 Y71.824 E115.4899
G1 X102.646 Y71.116 E115.5345
G1 X103.046 Y70.463 E115.5790
G1 X103.543 Y69.881 E115.6236
G1 X104.125 Y69.384 E115.6681
G1 X104.778 Y68.984 E115.7127
G1 X105.485 Y68.691 E115.7573
G1 X106.230 Y68.512 E115.8018
G1 X107.001 Y68.452 E115.8468
G1 X168.735 Y68.452 E119.4401
G1 X168.735 Y71.226 E119.6016
G1 X104.947 Y71.226 E123.3143
G0 X104.147 Y71.226 F7200
;segType:Loop
G0 X104.487 Y72.326
G1 X104.487 Y134.673 E126.9432 F3600
G1 X102.513 Y134.673 E127.0581
G1 X102.513 Y73.355 E130.6272
G1 X102.570 Y72.631 E130.6695
G1 X102.734 Y71.948 E130.7103
G1 X103.003 Y71.298 E130.7513
G1 X103.370 Y70.699 E130.7922
G1 X103.826 Y70.165 E130.8330
G1 X104.361 Y69.709 E130.8740
G1 X104.960 Y69.342 E130.9149
G1 X105.609 Y69.073 E130.9558
G1 X106.292 Y68.909 E130.9966
G1 X107.016 Y68.852 E131.0389
G1 X168.335 Y68.852 E134.6080
G1 X168.335 Y70.826 E134.7229
G1 X104.487 Y70.826 E138.4391
G1 X104.487 Y72.126 E138.5148
;segType:InnerHair
G0 X104.197 Y70.404 F7200
G1 X104.093 Y70.461 E138.5216 F3600
G1 X104.049 Y70.579 E138.5303
G1 X104.197 Y70.404 E138.5451
;segType:HShell
G0 X104.127 Y70.705 F7200
G1 X103.293 Y71.539 E138.6138 F3600
G0 X102.995 Y72.403 F7200
G1 X104.127 Y71.271 E138.7069 F3600
G0 X104.127 Y71.836 F7200
G1 X102.897 Y73.067 E138.8082 F3600
G0 X102.874 Y73.656 F7200
G1 X104.127 Y72.402 E138.9114 F3600
G0 X104.127 Y72.968 F7200
G1 X102.874 Y74.222 E139.0146 F3600
G0 X102.874 Y74.787 F7200
G1 X104.127 Y73.534 E139.1178 F3600
G0 X104.127 Y74.099 F7200
G1 X102.874 Y75.353 E139.2210 F3600
G0 X102.874 Y75.919 F7200
G1 X104.127 Y74.665 E139.3243 F3600
G0 X104.127 Y75.231 F7200
G1 X102.874 Y76.484 E139.4275 F3600
G0 X102.874 Y77.050 F7200
G1 X104.127 Y75.796 E139.5307 F3600
G0 X104.127 Y76.362 F7200
G1 X102.874 Y77.616 E139.6339 F3600
G0 X102.874 Y78.181 F7200
G1 X104.127 Y76.928 E139.7371 F3600
G0 X104.127 Y77.493 F7200
G1 X102.874 Y78.747 E139.8403 F3600
G0 X102.874 Y79.313 F7200
G1 X104.127 Y78.059 E139.9435 F3600
G0 X104.127 Y78.625 F7200
G1 X102.874 Y79.879 E140.0467 F3600
G0 X102.874 Y80.444 F7200
G1 X104.127 Y79.190 E140.1499 F3600
G0 X104.127 Y79.756 F7200
G1 X102.874 Y81.010 E140.2531 F3600
G0 X102.874 Y81.576 F7200
G1 X104.127 Y80.322 E140.3564 F3600
G0 X104.127 Y80.887 F7200
G1 X102.874 Y82.141 E140.4596 F3600
G0 X102.874 Y82.707 F7200
G1 X104.127 Y81.453 E140.5628 F3600
G0 X104.127 Y82.019 F7200
G1 X102.874 Y83.273 E140.6660 F3600
G0 X102.874 Y83.838 F7200
G1 X104.127 Y82.585 E140.7692 F3600
G0 X104.127 Y83.150 F7200
G1 X102.874 Y84.404 E140.8724 F3600
G0 X102.873 Y84.970 F7200
G1 X104.127 Y83.716 E140.9756 F3600
G0 X104.127 Y84.282 F7200
G1 X102.873 Y85.535 E141.0788 F3600
G0 X102.873 Y86.101 F7200
G1 X104.127 Y84.847 E141.1820 F3600
G0 X104.127 Y85.413 F7200
G1 X102.873 Y86.667 E141.2853 F3600
G0 X102.873 Y87.232 F7200
G1 X104.127 Y85.979 E141.3885 F3600
G0 X104.127 Y86.544 F7200
G1 X102.873 Y87.798 E141.4917 F3600
G0 X102.873 Y88.364 F7200
G1 X104.127 Y87.110 E141.5949 F3600
G0 X104.127 Y87.676 F7200
G1 X102.873 Y88.929 E141.6981 F3600
G0 X102.873 Y89.495 F7200
G1 X104.127 Y88.241 E141.8013 F3600
G0 X104.127 Y88.807 F7200
G1 X102.873 Y90.061 E141.9045 F3600
G0 X102.873 Y90.627 F7200
G1 X104.127 Y89.373 E142.0077 F3600
G0 X104.127 Y89.938 F7200
G1 X102.873 Y91.192 E142.1109 F3600
G0 X102.873 Y91.758 F7200
G1 X104.127 Y90.504 E142.2141 F3600
G0 X104.127 Y91.070 F7200
G1 X102.873 Y92.324 E142.3174 F3600
G0 X102.873 Y92.889 F7200
G1 X104.127 Y91.636 E142.4206 F3600
G0 X104.127 Y92.201 F7200
G1 X102.873 Y93.455 E142.5238 F3600
G0 X102.873 Y94.021 F7200
G1 X104.127 Y92.767 E142.6270 F3600
G0 X104.127 Y93.333 F7200
G1 X102.873 Y94.586 E142.7302 F3600
G0 X102.873 Y95.152 F7200
G1 X104.127 Y93.898 E142.8334 F3600
G0 X104.127 Y94.464 F7200
G1 X102.873 Y95.718 E142.9366 F3600
G0 X102.873 Y96.283 F7200
G1 X104.127 Y95.030 E143.0398 F3600
G0 X104.127 Y95.595 F7200
G1 X102.873 Y96.849 E143.1430 F3600
G0 X102.873 Y97.415 F7200
G1 X104.127 Y96.161 E143.2463 F3600
G0 X104.127 Y96.727 F7200
G1 X102.873 Y97.980 E143.3495 F3600
G0 X102.873 Y98.546 F7200
G1 X104.127 Y97.292 E143.4527 F3600
G0 X104.127 Y97.858 F7200
G1 X102.873 Y99.112 E143.5559 F3600
G0 X102.873 Y99.678 F7200
G1 X104.127 Y98.424 E143.6591 F3600
G0 X104.127 Y98.989 F7200
G1 X102.873 Y100.243 E143.7623 F3600
G0 X102.873 Y100.809 F7200
G1 X104.127 Y99.555 E143.8655 F3600
G0 X104.127 Y100.121 F7200
G1 X102.873 Y101.375 E143.9687 F3600
G0 X102.873 Y101.940 F7200
G1 X104.127 Y100.687 E144.0719 F3600
G0 X104.127 Y101.252 F7200
G1 X102.873 Y102.506 E144.1751 F3600
G0 X102.873 Y103.072 F7200
G1 X104.127 Y101.818 E144.2784 F3600
G0 X104.127 Y102.384 F7200
G1 X102.873 Y103.637 E144.3816 F3600
G0 X102.873 Y104.203 F7200
G1 X104.127 Y102.949 E144.4848 F3600
G0 X104.127 Y103.515 F7200
G1 X102.873 Y104.769 E144.5880 F3600
G0 X102.873 Y105.334 F7200
G1 X104.127 Y104.081 E144.6912 F3600
G0 X104.127 Y104.646 F7200
G1 X102.873 Y105.900 E144.7944 F3600
G0 X102.873 Y106.466 F7200
G1 X104.127 Y105.212 E144.8976 F3600
G0 X104.127 Y105.778 F7200
G1 X102.873 Y107.031 E145.0008 F3600
G0 X102.873 Y107.597 F7200
G1 X104.127 Y106.343 E145.1040 F3600
G0 X104.127 Y106.909 F7200
G1 X102.873 Y108.163 E145.2073 F3600
G0 X102.873 Y108.729 F7200
G1 X104.127 Y107.475 E145.3105 F3600
G0 X104.127 Y108.040 F7200
G1 X102.873 Y109.294 E145.4137 F3600
G0 X102.873 Y109.860 F7200
G1 X104.127 Y108.606 E145.5169 F3600
G0 X104.127 Y109.172 F7200
G1 X102.873 Y110.426 E145.6201 F3600
G0 X102.873 Y110.991 F7200
G1 X104.127 Y109.738 E145.7233 F3600
G0 X104.127 Y110.303 F7200
G1 X102.873 Y111.557 E145.8265 F3600
G0 X102.873 Y112.123 F7200
G1 X104.127 Y110.869 E145.9297 F3600
G0 X104.127 Y111.435 F7200
G1 X102.873 Y112.688 E146.0329 F3600
G0 X102.873 Y113.254 F7200
G1 X104.127 Y112.000 E146.1361 F3600
G0 X104.127 Y112.566 F7200
G1 X102.873 Y113.820 E146.2394 F3600
G0 X102.873 Y114.385 F7200
G1 X104.127 Y113.132 E146.3426 F3600
G0 X104.127 Y113.697 F7200
G1 X102.873 Y114.951 E146.4458 F3600
G0 X102.873 Y115.517 F7200
G1 X104.127 Y114.263 E146.5490 F3600
G0 X104.127 Y114.829 F7200
G1 X102.873 Y116.082 E146.6522 F3600
G0 X102.873 Y116.648 F7200
G1 X104.127 Y115.394 E146.7554 F3600
G0 X104.127 Y115.960 F7200
G1 X102.873 Y117.214 E146.8586 F3600
